<?xml version="1.0" encoding="UTF-8"?>
<map version="1.10" tiledversion="1.10.2" orientation="orthogonal" renderorder="right-down" compressionlevel="0" width="38" height="34" tilewidth="16" tileheight="16" infinite="0" nextlayerid="13" nextobjectid="23">
 <properties>
  <property name="AmbientLight" value="120 65 120"/>
  <property name="DefaultWarpLocation" value="23 19"/>
  <property name="Outdoors" value="T"/>
  <property name="forceLoadPathLayerLights" value="T"/>
 </properties>
 <tileset firstgid="1" name="Paths" tilewidth="16" tileheight="16" tilecount="64" columns="4">
  <image source="paths.png" width="64" height="256"/>
 </tileset>
 <tileset firstgid="65" name="untitled tile sheet" tilewidth="16" tileheight="16" tilecount="1975" columns="25">
  <image source="spring_outdoorsTileSheet.png" width="400" height="1264"/>
  <tile id="150">
   <properties>
    <property name="Spawnable" value="T"/>
    <property name="Type" value="Grass"/>
   </properties>
  </tile>
  <tile id="151">
   <properties>
    <property name="Type" value="Grass"/>
   </properties>
  </tile>
  <tile id="175">
   <properties>
    <property name="Spawnable" value="T"/>
    <property name="Type" value="Grass"/>
   </properties>
  </tile>
  <tile id="176">
   <properties>
    <property name="Diggable" value="T"/>
    <property name="Type" value="Dirt"/>
   </properties>
  </tile>
  <tile id="177">
   <properties>
    <property name="Type" value="Dirt"/>
   </properties>
  </tile>
  <tile id="178">
   <properties>
    <property name="Type" value="Dirt"/>
   </properties>
  </tile>
  <tile id="179">
   <properties>
    <property name="Type" value="Grass"/>
   </properties>
  </tile>
  <tile id="180">
   <properties>
    <property name="Spawnable" value="T"/>
    <property name="Type" value="Grass"/>
   </properties>
  </tile>
  <tile id="181">
   <properties>
    <property name="Type" value="Dirt"/>
   </properties>
  </tile>
  <tile id="182">
   <properties>
    <property name="Type" value="Dirt"/>
   </properties>
  </tile>
  <tile id="200">
   <properties>
    <property name="Spawnable" value="T"/>
    <property name="Type" value="Grass"/>
   </properties>
  </tile>
  <tile id="202">
   <properties>
    <property name="Type" value="Dirt"/>
   </properties>
  </tile>
  <tile id="203">
   <properties>
    <property name="Type" value="Grass"/>
   </properties>
  </tile>
  <tile id="204">
   <properties>
    <property name="Type" value="Grass"/>
   </properties>
  </tile>
  <tile id="205">
   <properties>
    <property name="Type" value="Grass"/>
   </properties>
  </tile>
  <tile id="206">
   <properties>
    <property name="Diggable" value="T"/>
    <property name="Type" value="Dirt"/>
   </properties>
  </tile>
  <tile id="207">
   <properties>
    <property name="Diggable" value="T"/>
    <property name="Type" value="Dirt"/>
   </properties>
  </tile>
  <tile id="209">
   <properties>
    <property name="Water" value="T"/>
   </properties>
   <animation>
    <frame tileid="209" duration="1000"/>
    <frame tileid="1260" duration="1000"/>
   </animation>
  </tile>
  <tile id="225">
   <properties>
    <property name="Type" value="Dirt"/>
   </properties>
  </tile>
  <tile id="226">
   <properties>
    <property name="Diggable" value="T"/>
    <property name="Type" value="Dirt"/>
   </properties>
  </tile>
  <tile id="227">
   <properties>
    <property name="Diggable" value="T"/>
    <property name="Type" value="Dirt"/>
   </properties>
  </tile>
  <tile id="228">
   <properties>
    <property name="Type" value="Dirt"/>
   </properties>
  </tile>
  <tile id="229">
   <properties>
    <property name="Type" value="Grass"/>
   </properties>
  </tile>
  <tile id="230">
   <properties>
    <property name="Type" value="Grass"/>
   </properties>
  </tile>
  <tile id="231">
   <properties>
    <property name="Diggable" value="T"/>
    <property name="Type" value="Dirt"/>
   </properties>
  </tile>
  <tile id="234">
   <properties>
    <property name="Water" value="T"/>
   </properties>
  </tile>
  <tile id="250">
   <properties>
    <property name="Type" value="Grass"/>
   </properties>
  </tile>
  <tile id="251">
   <properties>
    <property name="Type" value="Dirt"/>
   </properties>
  </tile>
  <tile id="252">
   <properties>
    <property name="Diggable" value="T"/>
    <property name="Type" value="Dirt"/>
   </properties>
  </tile>
  <tile id="253">
   <properties>
    <property name="Type" value="Grass"/>
   </properties>
  </tile>
  <tile id="254">
   <properties>
    <property name="Type" value="Grass"/>
   </properties>
  </tile>
  <tile id="255">
   <properties>
    <property name="Type" value="Grass"/>
   </properties>
  </tile>
  <tile id="256">
   <properties>
    <property name="Type" value="Grass"/>
   </properties>
  </tile>
  <tile id="265">
   <properties>
    <property name="Type" value="Dirt"/>
   </properties>
  </tile>
  <tile id="276">
   <properties>
    <property name="Type" value="Grass"/>
   </properties>
  </tile>
  <tile id="277">
   <properties>
    <property name="Spawnable" value="T"/>
    <property name="Type" value="Grass"/>
   </properties>
  </tile>
  <tile id="278">
   <properties>
    <property name="Type" value="Grass"/>
   </properties>
  </tile>
  <tile id="279">
   <properties>
    <property name="Type" value="Grass"/>
   </properties>
  </tile>
  <tile id="285">
   <properties>
    <property name="Water" value="T"/>
   </properties>
  </tile>
  <tile id="301">
   <properties>
    <property name="Type" value="Grass"/>
   </properties>
  </tile>
  <tile id="302">
   <properties>
    <property name="Spawnable" value="T"/>
    <property name="Type" value="Grass"/>
   </properties>
  </tile>
  <tile id="303">
   <properties>
    <property name="Type" value="Grass"/>
   </properties>
  </tile>
  <tile id="304">
   <properties>
    <property name="Type" value="Grass"/>
   </properties>
  </tile>
  <tile id="305">
   <properties>
    <property name="Type" value="Grass"/>
   </properties>
  </tile>
  <tile id="308">
   <properties>
    <property name="Water" value="T"/>
   </properties>
  </tile>
  <tile id="309">
   <properties>
    <property name="Water" value="T"/>
   </properties>
  </tile>
  <tile id="310">
   <properties>
    <property name="Water" value="T"/>
   </properties>
  </tile>
  <tile id="325">
   <properties>
    <property name="Type" value="Grass"/>
   </properties>
  </tile>
  <tile id="326">
   <properties>
    <property name="Type" value="Grass"/>
   </properties>
  </tile>
  <tile id="327">
   <properties>
    <property name="Type" value="Grass"/>
   </properties>
  </tile>
  <tile id="328">
   <properties>
    <property name="Type" value="Grass"/>
   </properties>
  </tile>
  <tile id="329">
   <properties>
    <property name="Type" value="Grass"/>
   </properties>
  </tile>
  <tile id="333">
   <properties>
    <property name="Water" value="T"/>
   </properties>
  </tile>
  <tile id="334">
   <properties>
    <property name="Water" value="T"/>
   </properties>
  </tile>
  <tile id="335">
   <properties>
    <property name="Water" value="T"/>
   </properties>
  </tile>
  <tile id="336">
   <properties>
    <property name="Water" value="T"/>
   </properties>
  </tile>
  <tile id="350">
   <properties>
    <property name="Type" value="Grass"/>
   </properties>
  </tile>
  <tile id="351">
   <properties>
    <property name="Spawnable" value="T"/>
    <property name="Type" value="Grass"/>
   </properties>
  </tile>
  <tile id="352">
   <properties>
    <property name="Type" value="Grass"/>
   </properties>
  </tile>
  <tile id="353">
   <properties>
    <property name="Type" value="Grass"/>
   </properties>
  </tile>
  <tile id="354">
   <properties>
    <property name="Type" value="Grass"/>
   </properties>
  </tile>
  <tile id="355">
   <properties>
    <property name="Type" value="Grass"/>
   </properties>
  </tile>
  <tile id="356">
   <properties>
    <property name="Type" value="Grass"/>
   </properties>
  </tile>
  <tile id="375">
   <properties>
    <property name="Type" value="Grass"/>
   </properties>
  </tile>
  <tile id="376">
   <properties>
    <property name="Type" value="Grass"/>
   </properties>
  </tile>
  <tile id="377">
   <properties>
    <property name="Type" value="Grass"/>
   </properties>
  </tile>
  <tile id="378">
   <properties>
    <property name="Type" value="Grass"/>
   </properties>
  </tile>
  <tile id="379">
   <properties>
    <property name="Type" value="Grass"/>
   </properties>
  </tile>
  <tile id="380">
   <properties>
    <property name="Spawnable" value="T"/>
    <property name="Type" value="Grass"/>
   </properties>
  </tile>
  <tile id="381">
   <properties>
    <property name="Type" value="Grass"/>
   </properties>
  </tile>
  <tile id="400">
   <properties>
    <property name="Type" value="Grass"/>
   </properties>
  </tile>
  <tile id="401">
   <properties>
    <property name="Type" value="Grass"/>
   </properties>
  </tile>
  <tile id="402">
   <properties>
    <property name="Spawnable" value="T"/>
    <property name="Type" value="Grass"/>
   </properties>
  </tile>
  <tile id="403">
   <properties>
    <property name="Spawnable" value="T"/>
    <property name="Type" value="Grass"/>
   </properties>
  </tile>
  <tile id="404">
   <properties>
    <property name="Type" value="Grass"/>
   </properties>
  </tile>
  <tile id="405">
   <properties>
    <property name="Type" value="Grass"/>
   </properties>
  </tile>
  <tile id="406">
   <properties>
    <property name="Type" value="Grass"/>
   </properties>
  </tile>
  <tile id="512">
   <properties>
    <property name="Type" value="Dirt"/>
   </properties>
  </tile>
  <tile id="534">
   <properties>
    <property name="Type" value="Dirt"/>
   </properties>
  </tile>
  <tile id="536">
   <properties>
    <property name="Type" value="Dirt"/>
   </properties>
  </tile>
  <tile id="537">
   <properties>
    <property name="Type" value="Dirt"/>
   </properties>
  </tile>
  <tile id="538">
   <properties>
    <property name="Type" value="Dirt"/>
   </properties>
  </tile>
  <tile id="558">
   <properties>
    <property name="Diggable" value="T"/>
    <property name="Type" value="Dirt"/>
   </properties>
  </tile>
  <tile id="559">
   <animation>
    <frame tileid="559" duration="1000"/>
    <frame tileid="1289" duration="1000"/>
   </animation>
  </tile>
  <tile id="560">
   <properties>
    <property name="Diggable" value="T"/>
    <property name="Type" value="Dirt"/>
   </properties>
  </tile>
  <tile id="561">
   <properties>
    <property name="Type" value="Dirt"/>
   </properties>
  </tile>
  <tile id="562">
   <properties>
    <property name="Type" value="Dirt"/>
   </properties>
  </tile>
  <tile id="563">
   <properties>
    <property name="Type" value="Dirt"/>
   </properties>
  </tile>
  <tile id="564">
   <properties>
    <property name="Diggable" value="T"/>
    <property name="Type" value="Dirt"/>
   </properties>
  </tile>
  <tile id="565">
   <properties>
    <property name="Type" value="Dirt"/>
   </properties>
  </tile>
  <tile id="566">
   <properties>
    <property name="Type" value="Dirt"/>
   </properties>
  </tile>
  <tile id="567">
   <properties>
    <property name="Spawnable" value="T"/>
    <property name="Type" value="Grass"/>
   </properties>
  </tile>
  <tile id="568">
   <properties>
    <property name="Type" value="Grass"/>
   </properties>
  </tile>
  <tile id="569">
   <properties>
    <property name="Spawnable" value="T"/>
    <property name="Type" value="Grass"/>
   </properties>
  </tile>
  <tile id="570">
   <properties>
    <property name="Type" value="Grass"/>
   </properties>
  </tile>
  <tile id="583">
   <properties>
    <property name="Diggable" value="T"/>
    <property name="Type" value="Dirt"/>
   </properties>
  </tile>
  <tile id="584">
   <animation>
    <frame tileid="584" duration="1000"/>
    <frame tileid="1314" duration="1000"/>
   </animation>
  </tile>
  <tile id="585">
   <properties>
    <property name="Diggable" value="T"/>
    <property name="Type" value="Dirt"/>
   </properties>
  </tile>
  <tile id="586">
   <properties>
    <property name="Type" value="Dirt"/>
   </properties>
  </tile>
  <tile id="587">
   <properties>
    <property name="Diggable" value="T"/>
    <property name="Type" value="Dirt"/>
   </properties>
  </tile>
  <tile id="588">
   <properties>
    <property name="Type" value="Dirt"/>
   </properties>
  </tile>
  <tile id="589">
   <properties>
    <property name="Diggable" value="T"/>
    <property name="Type" value="Dirt"/>
   </properties>
  </tile>
  <tile id="590">
   <properties>
    <property name="Type" value="Dirt"/>
   </properties>
  </tile>
  <tile id="591">
   <properties>
    <property name="Type" value="Dirt"/>
   </properties>
  </tile>
  <tile id="592">
   <properties>
    <property name="Type" value="Grass"/>
   </properties>
  </tile>
  <tile id="593">
   <properties>
    <property name="Type" value="Grass"/>
   </properties>
  </tile>
  <tile id="594">
   <properties>
    <property name="Type" value="Grass"/>
   </properties>
  </tile>
  <tile id="595">
   <properties>
    <property name="Type" value="Grass"/>
   </properties>
  </tile>
  <tile id="596">
   <properties>
    <property name="Type" value="Dirt"/>
   </properties>
  </tile>
  <tile id="597">
   <properties>
    <property name="Type" value="Dirt"/>
   </properties>
  </tile>
  <tile id="598">
   <properties>
    <property name="Type" value="Stone"/>
   </properties>
  </tile>
  <tile id="599">
   <properties>
    <property name="Type" value="Stone"/>
   </properties>
  </tile>
  <tile id="606">
   <properties>
    <property name="Diggable" value="T"/>
    <property name="Type" value="Dirt"/>
   </properties>
  </tile>
  <tile id="607">
   <properties>
    <property name="Diggable" value="T"/>
    <property name="Type" value="Dirt"/>
   </properties>
  </tile>
  <tile id="608">
   <properties>
    <property name="Diggable" value="T"/>
    <property name="Type" value="Dirt"/>
   </properties>
  </tile>
  <tile id="609">
   <animation>
    <frame tileid="609" duration="1000"/>
    <frame tileid="1285" duration="1000"/>
   </animation>
  </tile>
  <tile id="610">
   <properties>
    <property name="Diggable" value="T"/>
    <property name="Type" value="Dirt"/>
   </properties>
  </tile>
  <tile id="611">
   <properties>
    <property name="Type" value="Dirt"/>
   </properties>
  </tile>
  <tile id="612">
   <properties>
    <property name="Type" value="Dirt"/>
   </properties>
  </tile>
  <tile id="613">
   <properties>
    <property name="Type" value="Dirt"/>
   </properties>
  </tile>
  <tile id="614">
   <properties>
    <property name="Diggable" value="T"/>
    <property name="Type" value="Dirt"/>
   </properties>
  </tile>
  <tile id="615">
   <properties>
    <property name="Type" value="Dirt"/>
   </properties>
  </tile>
  <tile id="616">
   <properties>
    <property name="Type" value="Dirt"/>
   </properties>
  </tile>
  <tile id="617">
   <properties>
    <property name="Type" value="Dirt"/>
   </properties>
  </tile>
  <tile id="619">
   <properties>
    <property name="Type" value="Grass"/>
   </properties>
  </tile>
  <tile id="620">
   <properties>
    <property name="Type" value="Dirt"/>
   </properties>
  </tile>
  <tile id="621">
   <properties>
    <property name="Type" value="Dirt"/>
   </properties>
  </tile>
  <tile id="622">
   <properties>
    <property name="Type" value="Dirt"/>
   </properties>
  </tile>
  <tile id="623">
   <properties>
    <property name="Type" value="Stone"/>
   </properties>
  </tile>
  <tile id="628">
   <properties>
    <property name="Water" value="T"/>
   </properties>
  </tile>
  <tile id="629">
   <properties>
    <property name="Water" value="T"/>
   </properties>
  </tile>
  <tile id="630">
   <properties>
    <property name="Diggable" value="T"/>
    <property name="Type" value="Dirt"/>
   </properties>
  </tile>
  <tile id="631">
   <properties>
    <property name="Type" value="Dirt"/>
   </properties>
  </tile>
  <tile id="632">
   <properties>
    <property name="Diggable" value="T"/>
    <property name="Type" value="Dirt"/>
   </properties>
  </tile>
  <tile id="633">
   <properties>
    <property name="Type" value="Grass"/>
   </properties>
  </tile>
  <tile id="634">
   <properties>
    <property name="Spawnable" value="T"/>
    <property name="Type" value="Grass"/>
   </properties>
  </tile>
  <tile id="635">
   <properties>
    <property name="Type" value="Dirt"/>
   </properties>
  </tile>
  <tile id="636">
   <properties>
    <property name="Type" value="Dirt"/>
   </properties>
  </tile>
  <tile id="653">
   <properties>
    <property name="Water" value="T"/>
   </properties>
  </tile>
  <tile id="654">
   <properties>
    <property name="Type" value="Grass"/>
   </properties>
  </tile>
  <tile id="655">
   <properties>
    <property name="Type" value="Dirt"/>
   </properties>
  </tile>
  <tile id="656">
   <properties>
    <property name="Type" value="Dirt"/>
   </properties>
  </tile>
  <tile id="657">
   <properties>
    <property name="Type" value="Grass"/>
   </properties>
  </tile>
  <tile id="658">
   <properties>
    <property name="Type" value="Grass"/>
   </properties>
  </tile>
  <tile id="659">
   <properties>
    <property name="Type" value="Grass"/>
   </properties>
  </tile>
  <tile id="679">
   <properties>
    <property name="Type" value="Dirt"/>
   </properties>
  </tile>
  <tile id="680">
   <properties>
    <property name="Diggable" value="T"/>
    <property name="Type" value="Dirt"/>
   </properties>
  </tile>
  <tile id="681">
   <properties>
    <property name="Diggable" value="T"/>
    <property name="Type" value="Dirt"/>
   </properties>
  </tile>
  <tile id="682">
   <properties>
    <property name="Type" value="Dirt"/>
   </properties>
  </tile>
  <tile id="683">
   <properties>
    <property name="Type" value="Grass"/>
   </properties>
  </tile>
  <tile id="684">
   <properties>
    <property name="Type" value="Grass"/>
   </properties>
  </tile>
  <tile id="685">
   <properties>
    <property name="Diggable" value="T"/>
    <property name="Type" value="Dirt"/>
   </properties>
  </tile>
  <tile id="704">
   <properties>
    <property name="Type" value="Grass"/>
   </properties>
  </tile>
  <tile id="705">
   <properties>
    <property name="Type" value="Dirt"/>
   </properties>
  </tile>
  <tile id="706">
   <properties>
    <property name="Diggable" value="T"/>
    <property name="Type" value="Dirt"/>
   </properties>
  </tile>
  <tile id="707">
   <properties>
    <property name="Type" value="Grass"/>
   </properties>
  </tile>
  <tile id="708">
   <animation>
    <frame tileid="708" duration="1000"/>
    <frame tileid="1234" duration="1000"/>
   </animation>
  </tile>
  <tile id="709">
   <animation>
    <frame tileid="709" duration="1000"/>
    <frame tileid="1235" duration="1000"/>
   </animation>
  </tile>
  <tile id="710">
   <animation>
    <frame tileid="710" duration="1000"/>
    <frame tileid="1236" duration="1000"/>
   </animation>
  </tile>
  <tile id="733">
   <animation>
    <frame tileid="733" duration="1000"/>
    <frame tileid="1259" duration="1000"/>
   </animation>
  </tile>
  <tile id="734">
   <properties>
    <property name="Water" value="T"/>
   </properties>
  </tile>
  <tile id="735">
   <animation>
    <frame tileid="735" duration="1000"/>
    <frame tileid="1261" duration="1000"/>
   </animation>
  </tile>
  <tile id="758">
   <animation>
    <frame tileid="758" duration="1000"/>
    <frame tileid="1284" duration="1000"/>
   </animation>
  </tile>
  <tile id="759">
   <properties>
    <property name="Water" value="T"/>
   </properties>
  </tile>
  <tile id="760">
   <animation>
    <frame tileid="760" duration="1000"/>
    <frame tileid="1286" duration="1000"/>
   </animation>
  </tile>
  <tile id="779">
   <properties>
    <property name="Passable" value="T"/>
    <property name="Type" value="Wood"/>
   </properties>
  </tile>
  <tile id="780">
   <properties>
    <property name="Passable" value="T"/>
    <property name="Type" value="Wood"/>
   </properties>
  </tile>
  <tile id="781">
   <properties>
    <property name="Passable" value="T"/>
    <property name="Type" value="Wood"/>
   </properties>
  </tile>
  <tile id="782">
   <properties>
    <property name="Passable" value="T"/>
    <property name="Type" value="Wood"/>
   </properties>
  </tile>
  <tile id="783">
   <animation>
    <frame tileid="783" duration="1000"/>
    <frame tileid="1309" duration="1000"/>
   </animation>
  </tile>
  <tile id="785">
   <animation>
    <frame tileid="785" duration="1000"/>
    <frame tileid="1311" duration="1000"/>
   </animation>
  </tile>
  <tile id="809">
   <properties>
    <property name="Passable" value="T"/>
    <property name="Type" value="Wood"/>
   </properties>
  </tile>
  <tile id="812">
   <properties>
    <property name="Type" value="Stone"/>
   </properties>
  </tile>
  <tile id="813">
   <properties>
    <property name="Type" value="Stone"/>
   </properties>
  </tile>
  <tile id="834">
   <properties>
    <property name="Passable" value="T"/>
    <property name="Type" value="Wood"/>
   </properties>
  </tile>
  <tile id="859">
   <properties>
    <property name="Passable" value="T"/>
    <property name="Type" value="Wood"/>
   </properties>
  </tile>
  <tile id="884">
   <properties>
    <property name="Passable" value="T"/>
    <property name="Type" value="Wood"/>
   </properties>
  </tile>
  <tile id="1186">
   <properties>
    <property name="Water" value="T"/>
   </properties>
  </tile>
  <tile id="1187">
   <properties>
    <property name="Water" value="T"/>
   </properties>
  </tile>
  <tile id="1188">
   <properties>
    <property name="Water" value="T"/>
   </properties>
  </tile>
  <tile id="1211">
   <properties>
    <property name="Water" value="T"/>
   </properties>
  </tile>
  <tile id="1212">
   <properties>
    <property name="Water" value="T"/>
   </properties>
  </tile>
  <tile id="1213">
   <properties>
    <property name="Water" value="T"/>
   </properties>
  </tile>
  <tile id="1227">
   <properties>
    <property name="Water" value="T"/>
   </properties>
  </tile>
  <tile id="1228">
   <properties>
    <property name="Water" value="T"/>
   </properties>
  </tile>
  <tile id="1229">
   <properties>
    <property name="Water" value="T"/>
   </properties>
  </tile>
  <tile id="1230">
   <properties>
    <property name="Water" value="T"/>
   </properties>
  </tile>
  <tile id="1231">
   <properties>
    <property name="Water" value="T"/>
   </properties>
  </tile>
  <tile id="1237">
   <properties>
    <property name="Water" value="T"/>
   </properties>
  </tile>
  <tile id="1238">
   <properties>
    <property name="Water" value="T"/>
   </properties>
  </tile>
  <tile id="1239">
   <properties>
    <property name="Water" value="T"/>
   </properties>
  </tile>
  <tile id="1240">
   <properties>
    <property name="Water" value="T"/>
   </properties>
  </tile>
  <tile id="1241">
   <properties>
    <property name="Water" value="T"/>
   </properties>
  </tile>
  <tile id="1242">
   <properties>
    <property name="Water" value="T"/>
   </properties>
  </tile>
  <tile id="1243">
   <properties>
    <property name="Water" value="T"/>
   </properties>
  </tile>
  <tile id="1244">
   <properties>
    <property name="Water" value="T"/>
   </properties>
  </tile>
  <tile id="1245">
   <properties>
    <property name="Water" value="T"/>
   </properties>
  </tile>
  <tile id="1246">
   <properties>
    <property name="Passable" value="F"/>
    <property name="Water" value="T"/>
   </properties>
  </tile>
  <tile id="1247">
   <properties>
    <property name="Water" value="T"/>
   </properties>
  </tile>
  <tile id="1248">
   <properties>
    <property name="Water" value="T"/>
   </properties>
  </tile>
  <tile id="1249">
   <properties>
    <property name="Passable" value="F"/>
    <property name="Water" value="T"/>
   </properties>
  </tile>
  <tile id="1252">
   <properties>
    <property name="Water" value="T"/>
   </properties>
  </tile>
  <tile id="1253">
   <properties>
    <property name="Water" value="T"/>
   </properties>
  </tile>
  <tile id="1254">
   <properties>
    <property name="Water" value="T"/>
   </properties>
  </tile>
  <tile id="1255">
   <properties>
    <property name="Water" value="T"/>
   </properties>
  </tile>
  <tile id="1256">
   <properties>
    <property name="Water" value="T"/>
   </properties>
  </tile>
  <tile id="1263">
   <properties>
    <property name="Water" value="T"/>
   </properties>
  </tile>
  <tile id="1264">
   <properties>
    <property name="Water" value="T"/>
   </properties>
  </tile>
  <tile id="1265">
   <properties>
    <property name="Water" value="T"/>
   </properties>
  </tile>
  <tile id="1266">
   <properties>
    <property name="Passable" value="F"/>
    <property name="Water" value="T"/>
   </properties>
  </tile>
  <tile id="1267">
   <properties>
    <property name="Passable" value="F"/>
    <property name="Water" value="T"/>
   </properties>
  </tile>
  <tile id="1268">
   <properties>
    <property name="Water" value="T"/>
   </properties>
  </tile>
  <tile id="1269">
   <properties>
    <property name="Water" value="T"/>
   </properties>
  </tile>
  <tile id="1270">
   <properties>
    <property name="Water" value="T"/>
   </properties>
  </tile>
  <tile id="1271">
   <properties>
    <property name="Passable" value="F"/>
    <property name="Water" value="T"/>
   </properties>
  </tile>
  <tile id="1272">
   <properties>
    <property name="Water" value="T"/>
   </properties>
  </tile>
  <tile id="1273">
   <properties>
    <property name="Water" value="T"/>
   </properties>
  </tile>
  <tile id="1274">
   <properties>
    <property name="Water" value="T"/>
   </properties>
  </tile>
  <tile id="1277">
   <properties>
    <property name="Water" value="T"/>
   </properties>
  </tile>
  <tile id="1278">
   <properties>
    <property name="Water" value="T"/>
   </properties>
  </tile>
  <tile id="1279">
   <properties>
    <property name="Water" value="T"/>
   </properties>
  </tile>
  <tile id="1280">
   <properties>
    <property name="Water" value="T"/>
   </properties>
  </tile>
  <tile id="1281">
   <properties>
    <property name="Water" value="T"/>
   </properties>
  </tile>
  <tile id="1293">
   <animation>
    <frame tileid="1293" duration="500"/>
    <frame tileid="1294" duration="500"/>
    <frame tileid="1295" duration="500"/>
    <frame tileid="1296" duration="500"/>
   </animation>
  </tile>
  <tile id="1297">
   <properties>
    <property name="Water" value="T"/>
   </properties>
  </tile>
  <tile id="1298">
   <properties>
    <property name="Water" value="T"/>
   </properties>
  </tile>
  <tile id="1299">
   <properties>
    <property name="Passable" value="F"/>
    <property name="Water" value="T"/>
   </properties>
  </tile>
  <tile id="1302">
   <properties>
    <property name="Water" value="T"/>
   </properties>
  </tile>
  <tile id="1303">
   <properties>
    <property name="Water" value="T"/>
   </properties>
  </tile>
  <tile id="1304">
   <properties>
    <property name="Water" value="T"/>
   </properties>
  </tile>
  <tile id="1305">
   <properties>
    <property name="Water" value="T"/>
   </properties>
  </tile>
  <tile id="1306">
   <properties>
    <property name="Water" value="T"/>
   </properties>
  </tile>
  <tile id="1322">
   <properties>
    <property name="Water" value="T"/>
   </properties>
  </tile>
  <tile id="1323">
   <properties>
    <property name="Water" value="T"/>
   </properties>
  </tile>
  <tile id="1324">
   <properties>
    <property name="Water" value="T"/>
   </properties>
  </tile>
  <tile id="1345">
   <properties>
    <property name="Passable" value="T"/>
   </properties>
  </tile>
  <tile id="1637">
   <properties>
    <property name="Type" value="Wood"/>
   </properties>
  </tile>
  <tile id="1638">
   <properties>
    <property name="Type" value="Wood"/>
   </properties>
  </tile>
  <tile id="1639">
   <properties>
    <property name="Type" value="Wood"/>
   </properties>
  </tile>
  <tile id="1662">
   <properties>
    <property name="Type" value="Wood"/>
   </properties>
  </tile>
  <tile id="1663">
   <properties>
    <property name="Type" value="Wood"/>
   </properties>
  </tile>
  <tile id="1664">
   <properties>
    <property name="Type" value="Wood"/>
   </properties>
  </tile>
  <tile id="1716">
   <properties>
    <property name="Water" value="T"/>
   </properties>
  </tile>
  <tile id="1717">
   <properties>
    <property name="Water" value="T"/>
   </properties>
  </tile>
  <tile id="1718">
   <properties>
    <property name="Water" value="T"/>
   </properties>
  </tile>
 </tileset>
 <tileset firstgid="2040" name="untitled tile sheet2" tilewidth="16" tileheight="16" tilecount="1120" columns="16">
  <image source="spring_outdoorsTileSheet2.png" width="256" height="1120"/>
  <tile id="728">
   <animation>
    <frame tileid="728" duration="1000"/>
    <frame tileid="732" duration="1000"/>
   </animation>
  </tile>
  <tile id="730">
   <animation>
    <frame tileid="730" duration="1000"/>
    <frame tileid="734" duration="1000"/>
   </animation>
  </tile>
  <tile id="739">
   <properties>
    <property name="Type" value="Stone"/>
   </properties>
  </tile>
  <tile id="744">
   <animation>
    <frame tileid="744" duration="1000"/>
    <frame tileid="748" duration="1000"/>
   </animation>
  </tile>
  <tile id="746">
   <animation>
    <frame tileid="746" duration="1000"/>
    <frame tileid="750" duration="1000"/>
   </animation>
  </tile>
  <tile id="760">
   <animation>
    <frame tileid="760" duration="1000"/>
    <frame tileid="764" duration="1000"/>
   </animation>
  </tile>
  <tile id="762">
   <animation>
    <frame tileid="762" duration="1000"/>
    <frame tileid="766" duration="1000"/>
   </animation>
  </tile>
  <tile id="770">
   <properties>
    <property name="Type" value="Grass"/>
   </properties>
  </tile>
  <tile id="771">
   <properties>
    <property name="Type" value="Grass"/>
   </properties>
  </tile>
  <tile id="776">
   <animation>
    <frame tileid="776" duration="1000"/>
    <frame tileid="780" duration="1000"/>
   </animation>
  </tile>
  <tile id="778">
   <animation>
    <frame tileid="778" duration="1000"/>
    <frame tileid="782" duration="1000"/>
   </animation>
  </tile>
  <tile id="786">
   <properties>
    <property name="Type" value="Grass"/>
   </properties>
  </tile>
  <tile id="787">
   <properties>
    <property name="Type" value="Grass"/>
   </properties>
  </tile>
  <tile id="792">
   <animation>
    <frame tileid="792" duration="1000"/>
    <frame tileid="796" duration="1000"/>
   </animation>
  </tile>
  <tile id="794">
   <animation>
    <frame tileid="794" duration="1000"/>
    <frame tileid="798" duration="1000"/>
   </animation>
  </tile>
  <tile id="802">
   <properties>
    <property name="Type" value="Grass"/>
   </properties>
  </tile>
  <tile id="803">
   <properties>
    <property name="Type" value="Grass"/>
   </properties>
  </tile>
  <tile id="808">
   <animation>
    <frame tileid="808" duration="1000"/>
    <frame tileid="812" duration="1000"/>
   </animation>
  </tile>
  <tile id="810">
   <animation>
    <frame tileid="810" duration="1000"/>
    <frame tileid="814" duration="1000"/>
   </animation>
  </tile>
  <tile id="816">
   <properties>
    <property name="Water" value="T"/>
   </properties>
  </tile>
  <tile id="817">
   <properties>
    <property name="Water" value="T"/>
   </properties>
  </tile>
  <tile id="820">
   <properties>
    <property name="Water" value="T"/>
   </properties>
  </tile>
  <tile id="821">
   <properties>
    <property name="Water" value="T"/>
   </properties>
  </tile>
  <tile id="822">
   <properties>
    <property name="Water" value="T"/>
   </properties>
  </tile>
  <tile id="832">
   <properties>
    <property name="Water" value="T"/>
   </properties>
  </tile>
  <tile id="833">
   <properties>
    <property name="Water" value="T"/>
   </properties>
  </tile>
  <tile id="834">
   <properties>
    <property name="Water" value="T"/>
   </properties>
  </tile>
  <tile id="835">
   <properties>
    <property name="Water" value="T"/>
   </properties>
  </tile>
  <tile id="836">
   <properties>
    <property name="Water" value="T"/>
   </properties>
  </tile>
  <tile id="837">
   <properties>
    <property name="Water" value="T"/>
   </properties>
  </tile>
  <tile id="838">
   <properties>
    <property name="Water" value="T"/>
   </properties>
  </tile>
  <tile id="840">
   <animation>
    <frame tileid="840" duration="1000"/>
    <frame tileid="844" duration="1000"/>
   </animation>
  </tile>
  <tile id="841">
   <animation>
    <frame tileid="841" duration="1000"/>
    <frame tileid="845" duration="1000"/>
   </animation>
  </tile>
  <tile id="848">
   <properties>
    <property name="Water" value="T"/>
   </properties>
  </tile>
  <tile id="849">
   <properties>
    <property name="Water" value="T"/>
   </properties>
  </tile>
  <tile id="850">
   <properties>
    <property name="Water" value="T"/>
   </properties>
  </tile>
  <tile id="851">
   <properties>
    <property name="Water" value="T"/>
   </properties>
  </tile>
  <tile id="852">
   <properties>
    <property name="Water" value="T"/>
   </properties>
  </tile>
  <tile id="853">
   <properties>
    <property name="Water" value="T"/>
   </properties>
  </tile>
  <tile id="854">
   <properties>
    <property name="Water" value="T"/>
   </properties>
  </tile>
  <tile id="856">
   <animation>
    <frame tileid="856" duration="1000"/>
    <frame tileid="860" duration="1000"/>
   </animation>
  </tile>
  <tile id="864">
   <properties>
    <property name="Water" value="T"/>
   </properties>
  </tile>
  <tile id="865">
   <properties>
    <property name="Water" value="T"/>
   </properties>
  </tile>
  <tile id="866">
   <properties>
    <property name="Water" value="T"/>
   </properties>
  </tile>
  <tile id="867">
   <properties>
    <property name="Water" value="T"/>
   </properties>
  </tile>
  <tile id="868">
   <properties>
    <property name="Water" value="T"/>
   </properties>
  </tile>
  <tile id="869">
   <properties>
    <property name="Water" value="T"/>
   </properties>
  </tile>
  <tile id="870">
   <properties>
    <property name="Water" value="T"/>
   </properties>
  </tile>
  <tile id="880">
   <properties>
    <property name="Water" value="T"/>
   </properties>
  </tile>
  <tile id="881">
   <properties>
    <property name="Water" value="T"/>
   </properties>
  </tile>
  <tile id="882">
   <properties>
    <property name="Water" value="T"/>
   </properties>
  </tile>
  <tile id="883">
   <properties>
    <property name="Water" value="T"/>
   </properties>
  </tile>
  <tile id="901">
   <animation>
    <frame tileid="901" duration="1000"/>
    <frame tileid="933" duration="1000"/>
   </animation>
  </tile>
  <tile id="909">
   <animation>
    <frame tileid="909" duration="1000"/>
    <frame tileid="941" duration="1000"/>
   </animation>
  </tile>
  <tile id="916">
   <animation>
    <frame tileid="916" duration="1000"/>
    <frame tileid="948" duration="1000"/>
   </animation>
  </tile>
  <tile id="917">
   <animation>
    <frame tileid="917" duration="1000"/>
    <frame tileid="949" duration="1000"/>
   </animation>
  </tile>
  <tile id="918">
   <animation>
    <frame tileid="918" duration="1000"/>
    <frame tileid="919" duration="1000"/>
   </animation>
  </tile>
  <tile id="924">
   <animation>
    <frame tileid="924" duration="1000"/>
    <frame tileid="956" duration="1000"/>
   </animation>
  </tile>
  <tile id="925">
   <animation>
    <frame tileid="925" duration="1000"/>
    <frame tileid="957" duration="1000"/>
   </animation>
  </tile>
  <tile id="934">
   <animation>
    <frame tileid="934" duration="1000"/>
    <frame tileid="935" duration="1000"/>
   </animation>
  </tile>
  <tile id="964">
   <animation>
    <frame tileid="964" duration="1000"/>
    <frame tileid="996" duration="1000"/>
   </animation>
  </tile>
  <tile id="980">
   <animation>
    <frame tileid="980" duration="1000"/>
    <frame tileid="1012" duration="1000"/>
   </animation>
  </tile>
  <tile id="982">
   <animation>
    <frame tileid="982" duration="1000"/>
    <frame tileid="983" duration="1000"/>
   </animation>
  </tile>
  <tile id="990">
   <animation>
    <frame tileid="990" duration="1000"/>
    <frame tileid="991" duration="1000"/>
   </animation>
  </tile>
  <tile id="1063">
   <animation>
    <frame tileid="1063" duration="1000"/>
    <frame tileid="1062" duration="1000"/>
   </animation>
  </tile>
 </tileset>
 <layer id="1" name="Back" width="38" height="34">
  <data encoding="csv">
0,0,0,0,0,0,0,0,0,0,0,0,0,0,0,0,0,0,0,0,0,0,0,0,0,0,0,0,0,0,0,0,0,0,0,0,0,0,
0,0,0,0,0,0,0,0,0,0,0,0,0,0,0,0,0,0,0,0,0,0,0,0,0,0,0,0,0,0,0,0,0,0,0,0,0,0,
0,0,0,0,0,0,0,0,0,0,0,0,0,0,0,0,0,0,0,0,0,0,0,0,0,0,0,0,0,0,0,0,0,0,0,0,0,0,
1159,1159,1159,1159,1159,417,1159,1159,1159,1159,1159,0,0,0,0,0,0,0,0,0,0,0,0,0,0,0,0,0,0,0,0,0,0,0,0,0,0,0,
445,1159,1184,1184,422,417,1369,1369,415,472,2147484833,1184,1184,1158,1184,0,0,0,0,0,0,0,0,0,0,0,0,0,0,0,0,0,0,0,0,0,0,0,
0,416,416,418,441,442,1369,1369,440,441,468,469,472,1161,0,445,0,0,0,445,445,445,445,445,1159,445,445,445,445,1159,445,0,0,0,0,0,0,0,
0,446,416,417,1345,1345,1369,1369,1345,1345,415,416,444,1161,0,1184,0,0,0,445,1184,1159,1184,1184,1184,1184,1184,1184,1184,1158,1184,445,445,0,0,0,0,0,
1159,446,416,417,1369,1294,1295,1295,1294,1369,415,416,444,1161,445,445,0,0,0,445,445,1157,221,445,445,221,445,445,445,1160,1159,445,445,0,0,0,0,0,
1157,446,416,417,1369,1319,1320,1320,1321,1369,415,416,444,1161,445,445,0,0,0,445,445,1186,470,470,470,470,470,470,472,445,1160,1158,445,0,0,0,0,0,
1186,446,418,442,1369,1344,1345,1345,1346,1369,415,416,444,1161,445,445,0,0,0,445,445,1186,416,416,416,365,416,416,469,472,445,1161,445,0,0,0,0,0,
1186,416,417,340,1369,1369,1370,1370,1371,1369,415,416,444,1161,445,445,0,0,445,445,1157,445,416,416,369,416,416,365,416,444,445,1161,445,0,0,0,0,0,
1186,416,417,340,340,1369,1369,1369,1369,340,415,416,444,1160,1158,445,0,0,445,1157,422,470,365,394,370,369,416,416,369,444,221,1161,445,0,0,0,0,0,
1185,416,417,340,340,340,340,340,340,340,440,468,469,472,1161,445,445,445,445,1186,446,418,441,341,342,343,441,468,370,469,472,1160,1158,445,0,0,0,0,
470,446,443,392,340,340,719,722,340,340,340,440,468,444,1160,1184,1184,1184,1184,1185,446,417,390,340,340,340,390,393,365,394,469,472,1160,1159,445,0,0,0,
416,365,416,417,340,719,721,696,720,722,340,340,440,468,470,470,470,470,470,470,418,442,340,340,340,340,415,416,418,441,468,469,472,1161,445,445,445,445,
369,416,416,417,340,744,745,745,745,747,340,340,340,440,468,416,394,370,418,441,442,340,340,340,340,340,415,416,443,392,440,468,469,1160,1184,1184,1184,1184,
341,342,416,417,340,769,770,770,770,772,340,340,340,340,440,441,441,441,442,390,340,340,340,340,340,340,440,468,370,417,321,440,468,469,470,472,445,445,
240,215,416,443,240,240,215,240,340,465,340,719,722,340,340,340,340,340,340,340,340,340,340,340,340,719,722,440,468,443,391,391,393,416,365,469,470,470,
0,0,366,416,368,391,391,340,340,340,340,769,772,719,722,340,340,340,340,340,340,719,720,720,720,721,747,340,415,394,416,370,419,420,420,420,420,420,
0,0,365,416,369,416,416,443,392,340,340,340,719,721,696,720,720,722,340,340,719,721,745,745,745,697,772,340,415,416,416,416,397,445,445,445,445,445,
0,0,0,416,416,416,416,416,417,340,719,720,721,745,745,745,745,696,720,720,721,745,745,745,697,772,340,340,415,416,419,397,445,445,445,445,445,445,
0,0,0,416,416,416,416,416,417,340,744,745,745,745,745,745,745,745,745,745,745,745,697,770,772,340,340,390,393,419,397,445,445,445,0,0,0,0,
0,0,0,0,416,416,416,416,417,719,721,745,745,745,745,745,745,745,745,745,745,697,772,340,340,340,390,393,416,444,445,445,445,0,0,0,0,0,
0,0,0,0,0,445,445,416,417,769,771,745,745,745,745,745,745,745,745,745,745,747,340,340,340,340,415,416,416,444,445,445,445,0,0,0,0,0,
0,0,0,0,0,445,445,416,417,340,744,745,745,745,745,745,745,745,745,745,745,696,720,720,722,340,415,416,416,444,445,416,416,0,0,0,0,0,
0,0,0,0,0,0,445,418,442,719,721,745,745,745,745,745,745,745,745,745,745,745,745,745,772,340,415,416,416,444,445,416,416,0,0,0,0,0,
0,0,0,0,0,0,0,417,340,769,770,770,771,745,697,770,745,745,745,697,770,770,770,772,340,390,393,416,416,444,445,416,416,0,0,0,0,0,
0,0,0,0,0,0,0,0,391,391,391,392,769,770,772,340,769,770,770,772,340,340,340,340,390,393,416,416,416,444,445,445,445,0,0,0,0,0,
0,0,0,0,0,0,0,0,445,416,416,443,391,391,391,391,391,391,391,391,391,391,391,391,393,416,416,416,416,444,445,416,416,0,0,0,0,0,
0,0,0,0,0,0,0,0,445,416,416,370,416,365,416,369,416,416,416,416,416,416,416,416,416,416,416,370,416,444,445,416,416,0,0,0,0,0,
0,0,0,0,0,0,0,0,445,447,420,420,420,420,420,420,420,420,420,420,420,420,420,420,420,420,420,420,420,397,445,416,416,0,0,0,0,0,
0,0,0,0,0,0,0,0,445,445,445,445,445,445,445,445,445,445,445,445,445,445,445,445,445,445,445,445,445,445,445,416,416,0,0,0,0,0,
0,0,0,0,0,0,0,0,445,445,416,416,416,416,416,416,416,416,416,416,416,445,445,445,445,445,445,416,416,416,416,416,416,0,0,0,0,0,
0,0,0,0,0,0,0,0,445,445,416,416,416,416,416,416,416,416,416,416,416,416,416,416,416,416,416,416,416,416,416,416,416,0,0,0,0,0
</data>
 </layer>
 <layer id="2" name="Buildings" width="38" height="34">
  <data encoding="csv">
0,0,0,0,0,0,0,0,0,0,0,0,0,0,0,0,0,0,0,0,0,0,0,0,0,0,0,0,0,0,0,0,0,0,0,0,0,0,
0,0,0,0,1011,1011,1011,1011,1011,1011,0,0,0,0,0,0,0,0,0,0,0,0,0,0,0,0,0,0,0,0,0,0,0,0,0,0,0,0,
1210,1210,0,0,1011,1011,1011,1011,1011,1011,1210,0,1210,1210,0,0,0,0,0,0,0,0,0,0,0,0,0,0,0,0,0,0,0,0,0,0,0,0,
1210,0,1209,1210,1011,1011,2880,2881,1011,1011,0,1209,1210,0,1011,0,0,0,0,0,0,0,0,0,0,0,0,0,0,0,0,0,0,0,0,0,0,0,
1011,0,0,0,0,0,2800,2786,0,0,0,0,0,0,0,1011,0,0,0,0,1210,0,0,0,1210,0,0,0,0,1210,1210,0,0,0,0,0,0,0,
1011,0,0,0,0,0,2784,2802,0,0,0,0,0,0,0,1210,0,0,0,1210,0,1209,1209,1210,0,1209,1210,1209,1210,0,1011,1011,0,0,0,0,0,0,
1011,0,0,0,2768,2769,0,0,2769,2770,0,0,0,0,0,1210,0,0,0,1210,0,0,0,0,0,0,0,0,0,0,0,0,1011,0,0,0,0,0,
1011,0,0,0,2800,0,0,0,0,2786,0,0,0,0,0,1210,0,0,0,1210,0,0,0,0,0,0,0,0,0,0,0,0,0,1011,0,0,0,0,
1011,0,0,0,2784,0,0,0,0,2802,0,0,0,0,0,1210,0,0,0,1210,0,0,0,0,0,0,0,0,0,0,0,0,0,1011,0,0,0,0,
1011,0,0,0,2800,0,0,0,0,2802,0,0,0,0,0,1210,0,0,0,1210,0,0,0,0,0,0,0,0,0,0,0,0,0,1011,0,0,0,0,
1011,0,0,0,2816,0,0,0,0,2818,0,0,0,0,0,1210,0,0,1210,0,0,0,0,0,0,0,0,0,0,0,0,0,0,1011,0,0,0,0,
1011,0,0,0,0,2931,2817,2817,2930,0,0,0,0,0,0,1210,0,0,1210,0,0,0,0,0,0,0,0,0,0,0,0,0,0,1011,0,0,0,0,
1011,0,0,0,0,0,0,0,0,0,0,0,0,0,0,1209,1210,1209,1210,0,0,0,0,0,0,0,0,0,0,0,0,0,0,0,1011,0,0,0,
1011,0,0,0,0,0,0,0,0,0,0,0,0,0,0,0,0,0,0,0,0,0,0,0,0,0,0,0,0,0,0,0,0,0,1011,0,0,0,
1011,0,0,0,0,0,0,0,0,0,0,0,0,0,0,0,0,0,0,0,0,0,0,0,0,0,0,0,0,0,0,0,0,0,1209,1210,1209,1210,
1011,1011,0,0,0,0,0,0,0,0,0,0,0,0,0,0,0,0,0,0,0,0,0,0,0,0,0,0,0,0,0,0,0,0,0,0,0,297,
1011,1011,0,0,0,0,0,0,0,0,0,0,0,0,0,0,0,0,0,0,0,0,0,0,0,0,0,0,0,0,0,0,0,0,0,0,448,449,
1011,1011,0,0,0,0,0,0,0,0,0,0,0,0,0,0,0,0,0,0,0,0,0,0,0,0,0,0,0,0,0,0,0,0,0,0,0,470,
1011,0,1011,0,0,0,0,0,0,0,0,0,0,0,0,0,0,0,0,0,0,0,0,0,0,0,0,0,0,0,0,0,0,0,0,0,0,420,
1011,0,1011,0,0,0,0,0,0,0,0,0,0,0,0,0,0,0,0,0,0,0,0,0,0,0,0,0,0,0,0,0,0,0,0,0,0,445,
1011,0,0,1011,0,0,0,0,0,0,0,0,0,0,0,0,0,0,0,0,0,0,0,0,0,0,0,0,0,0,0,0,0,0,1011,1011,1011,1011,
1011,0,0,1011,1011,0,0,0,0,0,0,0,0,0,0,0,0,0,0,0,0,0,0,0,0,0,0,0,0,0,0,0,0,1011,0,0,0,0,
1011,0,0,0,1011,0,0,0,0,0,0,0,0,0,0,0,0,0,0,0,0,0,0,0,0,0,0,0,0,0,0,0,1011,0,0,0,0,0,
1011,0,0,0,0,1011,0,0,0,0,0,0,0,0,0,0,0,0,0,0,0,0,0,0,0,0,0,0,0,0,0,0,1011,0,0,0,0,0,
1011,0,0,0,0,1011,1011,0,0,0,0,0,0,0,0,0,0,0,0,0,0,0,0,0,0,0,0,0,0,0,0,0,1011,0,0,0,0,0,
1011,0,0,0,0,0,1011,1011,0,0,0,0,0,0,0,0,0,0,0,0,0,0,0,0,0,0,0,0,0,0,0,0,1011,0,0,0,0,0,
1011,0,0,0,0,0,0,1011,1011,0,0,0,0,0,0,0,0,0,0,0,0,0,0,0,0,0,0,0,0,0,0,0,1011,0,0,0,0,0,
1011,1011,0,0,0,0,0,0,1011,0,0,0,0,0,0,0,0,0,0,0,0,0,0,0,0,0,0,0,0,0,0,0,1011,0,0,0,0,0,
1011,0,0,0,0,0,0,0,1011,0,0,0,0,0,0,0,0,0,0,0,0,0,0,0,0,0,0,0,0,0,0,0,1011,0,0,0,0,0,
1011,0,0,0,0,0,0,0,1011,0,0,0,0,0,0,0,0,0,0,0,0,0,0,0,0,0,0,0,0,0,0,0,1011,0,0,0,0,0,
1011,0,0,0,0,0,0,0,1011,0,0,0,0,0,0,0,0,0,0,0,0,0,0,0,0,0,0,0,0,0,0,0,1011,0,0,0,0,0,
1011,0,0,0,0,0,0,0,1011,0,0,0,0,0,0,0,0,0,0,0,0,0,0,0,0,0,0,0,0,0,0,0,1011,0,0,0,0,0,
1011,0,0,0,0,0,0,0,1011,0,0,0,0,0,0,0,0,0,0,0,0,0,0,0,0,0,0,0,0,0,0,0,1011,0,0,0,0,0,
1011,0,0,0,0,0,0,0,1011,1011,1011,1011,1011,1011,1011,1011,1011,1011,1011,1011,1011,1011,1011,1011,1011,1011,1011,1011,1011,1011,1011,1011,1011,0,0,0,0,0
</data>
 </layer>
 <layer id="3" name="Front" width="38" height="34">
  <data encoding="csv">
0,0,0,0,0,0,0,0,0,0,0,0,0,0,0,0,0,0,0,0,0,0,0,0,0,0,0,0,0,0,0,0,0,0,0,0,0,0,
0,0,0,0,0,0,0,0,0,0,0,0,0,0,0,0,0,0,0,0,0,0,0,0,0,0,0,0,0,0,0,0,0,0,0,0,0,0,
0,0,0,0,0,0,0,0,0,0,0,0,0,0,0,0,0,0,0,0,0,0,0,0,0,0,0,0,0,0,0,0,0,0,0,0,0,0,
0,0,0,0,0,0,0,0,0,0,0,0,0,0,0,0,0,0,0,0,0,0,0,0,0,0,0,0,0,0,0,0,0,0,0,0,0,0,
0,0,0,0,0,0,0,0,0,0,0,0,0,0,0,0,0,0,0,0,0,0,0,0,0,0,0,0,0,0,0,0,0,0,0,0,0,0,
0,0,0,0,0,0,0,0,0,0,0,0,0,0,0,0,0,0,0,0,0,0,0,0,0,0,0,0,0,0,0,0,0,0,0,0,0,0,
0,0,0,0,0,0,2850,2848,0,0,0,0,0,0,0,0,0,0,0,0,0,0,0,0,0,0,0,0,0,0,0,0,0,0,0,0,0,0,
0,0,0,0,0,0,0,0,0,0,0,0,0,0,0,0,0,0,0,0,0,0,0,0,0,0,0,0,0,0,0,0,0,0,0,0,0,0,
0,0,0,0,0,0,0,0,0,0,0,0,0,0,0,0,0,0,0,0,0,0,0,0,0,0,0,0,0,0,0,0,0,0,0,0,0,0,
0,0,0,0,0,0,0,0,0,0,0,0,0,0,0,0,0,0,0,0,0,0,0,0,0,0,0,0,0,0,0,0,0,0,0,0,0,0,
0,0,0,0,0,0,0,0,0,0,0,0,0,0,0,0,0,0,0,0,0,0,0,0,0,0,0,0,0,0,0,0,0,0,0,0,0,0,
0,0,0,0,0,0,0,0,0,0,0,0,0,0,0,0,0,0,0,0,0,0,0,0,0,0,0,0,0,0,0,0,0,0,0,0,0,0,
0,0,0,0,0,0,0,0,0,0,0,0,0,0,0,0,0,0,0,0,0,0,0,0,0,0,0,0,0,0,0,0,0,0,0,0,0,0,
0,0,0,0,0,0,0,0,0,0,0,0,0,0,0,0,0,0,0,0,0,0,0,0,0,0,0,0,0,0,0,0,0,0,0,0,0,0,
0,0,0,0,0,0,0,0,0,0,0,0,0,0,0,0,0,0,0,0,0,0,0,0,0,0,0,0,0,0,0,0,0,0,0,0,0,0,
0,0,0,0,0,0,0,0,0,0,0,0,0,0,0,0,0,0,0,0,0,0,0,0,0,0,0,0,0,0,0,0,0,0,0,0,423,424,
0,0,0,0,0,0,0,0,0,0,0,0,0,0,0,0,0,0,0,0,0,0,0,0,0,0,0,0,0,0,0,0,0,0,0,0,0,0,
0,0,0,0,0,0,0,0,0,0,0,0,0,0,0,0,0,0,0,0,0,0,0,0,0,0,0,0,0,0,0,0,0,0,0,0,0,0,
0,0,0,0,0,0,0,0,0,0,0,0,0,0,0,0,0,0,0,0,0,0,0,0,0,0,0,0,0,0,0,0,0,0,0,0,0,0,
0,0,0,0,0,0,0,0,0,0,0,0,0,0,0,0,0,0,0,0,0,0,0,0,0,0,0,0,0,0,0,0,0,0,0,0,0,0,
0,0,0,0,0,0,0,0,0,0,0,0,0,0,0,0,0,0,0,0,0,0,0,0,0,0,0,0,0,0,0,0,0,0,0,0,0,0,
0,0,0,0,0,0,0,0,0,0,0,0,0,0,0,0,0,0,0,0,0,0,0,0,0,0,0,0,0,0,0,0,0,0,0,0,0,0,
0,0,0,0,0,0,0,0,0,0,0,0,0,0,0,0,0,0,0,0,0,0,0,0,0,0,0,0,0,0,0,0,0,0,0,0,0,0,
0,0,0,0,0,0,0,0,0,0,0,0,0,0,0,0,0,0,0,0,0,0,0,0,0,0,0,0,0,0,0,0,0,0,0,0,0,0,
0,0,0,0,0,0,0,0,0,0,0,0,0,0,0,0,0,0,0,0,0,0,0,0,0,0,0,0,0,0,0,0,0,0,0,0,0,0,
0,0,0,0,0,0,0,0,0,0,0,0,0,0,0,0,0,0,0,0,0,0,0,0,0,0,0,0,0,0,0,0,0,0,0,0,0,0,
0,0,0,0,0,0,0,0,0,0,0,0,0,0,0,0,0,0,0,0,0,0,0,0,0,0,0,0,0,0,0,0,0,0,0,0,0,0,
0,0,0,0,0,0,0,0,0,0,0,0,0,0,0,0,0,0,0,0,0,0,0,0,0,0,0,0,0,0,0,0,0,0,0,0,0,0,
0,0,0,0,0,0,0,0,0,0,0,0,0,0,0,0,0,0,0,0,0,0,0,0,0,0,0,0,0,0,0,0,0,0,0,0,0,0,
0,0,0,0,0,0,0,0,0,0,0,0,0,0,0,0,0,0,0,0,0,0,0,0,0,0,0,0,0,0,0,0,0,0,0,0,0,0,
0,0,0,0,0,0,0,0,0,0,0,0,0,0,0,0,0,0,0,0,0,0,0,0,0,0,0,0,0,0,0,0,0,0,0,0,0,0,
0,0,0,0,0,0,0,0,0,0,0,0,0,0,0,0,0,0,0,0,0,0,0,0,0,0,0,0,0,0,0,0,0,0,0,0,0,0,
0,0,0,0,0,0,0,0,0,0,0,0,0,0,0,0,0,0,0,0,0,0,0,0,0,0,0,0,0,0,0,0,0,0,0,0,0,0,
0,0,0,0,0,0,0,0,0,0,0,0,0,0,0,0,0,0,0,0,0,0,0,0,0,0,0,0,0,0,0,0,0,0,0,0,0,0
</data>
 </layer>
 <layer id="4" name="Paths" width="38" height="34">
  <data encoding="csv">
0,0,0,0,0,0,0,0,0,0,0,0,0,0,0,0,0,0,0,0,0,0,0,0,0,0,0,0,0,0,0,0,0,0,0,0,0,0,
0,0,0,0,0,0,0,0,0,0,0,0,0,0,0,0,0,0,0,0,0,0,0,0,0,0,0,0,0,0,0,0,0,0,0,0,0,0,
0,0,0,0,0,0,0,0,0,0,0,0,0,0,0,0,0,0,0,0,0,0,0,0,0,0,0,0,0,0,0,0,0,0,0,0,0,0,
0,0,0,0,0,0,0,0,0,0,0,0,0,0,0,0,0,0,0,0,0,0,0,0,0,0,0,0,0,0,0,0,0,0,0,0,0,0,
0,0,0,0,0,0,0,0,0,0,0,0,0,0,0,0,0,0,0,0,0,0,0,0,0,0,0,0,0,0,0,0,0,0,0,0,0,0,
0,0,0,0,0,0,0,28,0,0,0,0,0,0,0,0,0,0,0,0,0,0,0,0,0,0,0,0,0,0,0,0,0,0,0,0,0,0,
0,0,0,0,0,0,0,0,0,0,0,0,0,0,0,0,0,0,0,0,0,0,0,0,0,0,0,0,0,0,0,0,0,0,0,0,0,0,
0,0,0,0,0,0,0,0,0,0,0,0,0,0,0,0,0,0,0,0,0,0,0,0,0,0,0,0,0,0,0,0,0,0,0,0,0,0,
0,0,0,0,0,0,0,0,0,0,0,0,0,0,0,0,0,0,0,0,0,0,0,0,0,0,0,0,0,0,0,0,0,0,0,0,0,0,
0,0,0,0,0,0,0,0,0,0,0,0,0,0,0,0,0,0,0,0,0,0,0,0,0,0,0,0,0,0,0,0,0,0,0,0,0,0,
0,0,0,0,0,0,0,0,0,0,0,0,0,0,0,0,0,0,0,0,0,0,0,0,0,0,0,0,0,0,0,0,0,0,0,0,0,0,
0,0,0,0,0,0,28,0,0,0,0,0,0,0,0,0,0,0,0,0,0,0,0,0,0,0,0,0,0,0,0,0,0,0,0,0,0,0,
0,0,0,0,0,0,0,0,0,0,0,0,0,0,0,0,0,0,0,0,0,0,0,0,0,0,0,0,0,0,0,0,0,0,0,0,0,0,
0,0,0,0,0,0,0,0,0,0,0,0,0,0,0,0,0,0,0,0,0,0,0,0,0,0,0,0,0,0,0,0,0,0,0,0,0,0,
0,0,0,0,0,0,0,0,0,0,0,0,0,0,0,0,0,0,0,0,0,0,0,0,0,0,0,0,0,0,0,0,0,0,0,0,0,0,
0,0,0,0,0,0,0,0,0,0,0,0,0,0,0,0,0,0,0,0,0,0,0,0,0,0,0,0,0,0,0,0,0,0,0,0,0,0,
0,0,0,0,0,0,0,0,0,0,0,0,0,0,0,0,0,0,0,0,0,0,0,0,0,0,0,0,0,0,0,0,0,0,0,0,0,0,
0,0,0,0,0,0,0,0,0,0,0,0,0,0,0,0,0,0,0,0,0,0,0,0,0,0,0,0,0,0,0,0,0,0,0,0,0,0,
0,0,0,0,0,0,0,0,0,0,0,0,0,0,0,0,0,0,0,0,0,0,0,0,0,0,0,0,0,0,0,0,0,0,0,0,0,0,
0,0,0,0,0,0,0,0,0,0,0,0,0,0,0,0,0,0,0,0,0,0,0,0,0,0,0,0,0,0,0,0,0,0,0,0,0,0,
0,0,0,0,0,0,0,0,0,0,0,0,0,0,0,0,0,0,0,0,0,0,0,0,0,0,0,0,0,0,0,0,0,0,0,0,0,0,
0,0,0,0,0,0,0,0,0,0,0,0,0,0,0,0,0,0,0,0,0,0,0,0,0,0,0,0,0,0,0,0,0,0,0,0,0,0,
0,0,0,0,0,0,0,0,0,0,0,0,0,0,0,0,0,0,0,0,0,0,0,0,0,0,0,0,0,0,0,0,0,0,0,0,0,0,
0,0,0,0,0,0,0,0,0,0,0,0,0,0,0,0,0,0,0,0,0,0,0,0,0,0,0,0,0,0,0,0,0,0,0,0,0,0,
0,0,0,0,0,0,0,0,0,0,0,0,0,0,0,0,0,0,0,0,0,0,0,0,0,0,0,0,0,0,0,0,0,0,0,0,0,0,
0,0,0,0,0,0,0,0,0,0,0,0,0,0,0,0,0,0,0,0,0,0,0,0,0,0,0,0,0,0,0,0,0,0,0,0,0,0,
0,0,0,0,0,0,0,0,0,0,0,0,0,0,0,0,0,0,0,0,0,0,0,0,0,0,0,0,0,0,0,0,0,0,0,0,0,0,
0,0,0,0,0,0,0,0,0,0,0,0,0,0,0,0,0,0,0,0,0,0,0,0,0,0,0,0,0,0,0,0,0,0,0,0,0,0,
0,0,0,0,0,0,0,0,0,0,0,0,0,0,0,0,0,0,0,0,0,0,0,0,0,0,0,0,0,0,0,0,0,0,0,0,0,0,
0,0,0,0,0,0,0,0,0,0,0,0,0,0,0,0,0,0,0,0,0,0,0,0,0,0,0,0,0,0,0,0,0,0,0,0,0,0,
0,0,0,0,0,0,0,0,0,0,0,0,0,0,0,0,0,0,0,0,0,0,0,0,0,0,0,0,0,0,0,0,0,0,0,0,0,0,
0,0,0,0,0,0,0,0,0,0,0,0,0,0,0,0,0,0,0,0,0,0,0,0,0,0,0,0,0,0,0,0,0,0,0,0,0,0,
0,0,0,0,0,0,0,0,0,0,0,0,0,0,0,0,0,0,0,0,0,0,0,0,0,0,0,0,0,0,0,0,0,0,0,0,0,0,
0,0,0,0,0,0,0,0,0,0,0,0,0,0,0,0,0,0,0,0,0,0,0,0,0,0,0,0,0,0,0,0,0,0,0,0,0,0
</data>
 </layer>
 <layer id="5" name="AlwaysFront" width="38" height="34">
  <data encoding="csv">
1011,1011,1011,1011,1011,1011,1011,1011,1011,1011,1011,1061,1011,1011,1011,1011,1011,1011,1011,1011,1011,1011,1011,1011,1011,1011,1011,1011,1011,1011,1011,1011,1011,1011,1011,1011,1011,1011,
1036,1011,1011,1011,0,0,0,0,0,0,1011,1011,1011,1011,1011,1011,1011,1011,1011,1011,1011,1011,1011,1011,1011,1011,1011,1011,1011,1011,1011,1011,1011,1011,1011,1011,1011,1011,
1011,1061,1008,1007,1036,1011,1011,1011,1011,1061,1008,1008,1007,1036,1011,1011,1011,1011,1011,1011,1011,1011,1011,1011,1011,1011,1011,1011,1011,1061,1011,1011,1011,1011,1011,1011,1011,1011,
1011,1031,1033,1034,1008,1008,1008,1007,1008,1007,1031,1032,1034,1035,1011,1011,1011,1011,1011,1011,1011,1011,1036,1011,1011,1011,1011,1061,1011,1011,1011,1011,1011,1011,1011,1011,1011,1011,
1030,1056,0,1058,1032,1032,1032,1033,1033,1033,1057,0,0,1084,1085,1011,1011,1011,1011,1011,1005,1008,1008,1008,1008,1007,1008,1007,1008,1011,1011,1011,1011,1011,1011,1011,1011,1011,
1055,1081,0,0,0,0,0,0,0,0,0,0,0,1084,1110,1011,1011,1011,1011,1036,1080,1031,1033,1033,1033,1032,1033,1032,1033,1034,1060,1011,1011,1011,1011,1011,1011,1011,
1055,1056,0,0,0,0,0,0,0,0,0,0,0,1084,1035,1011,1011,1011,1011,1011,1030,1056,0,0,0,0,0,0,0,1059,1085,1010,1011,1011,1011,1011,1011,1011,
1030,1081,0,0,0,0,0,0,0,0,0,0,0,1059,1110,1061,1011,1011,1011,1011,1055,1056,0,0,0,0,0,0,0,1058,1034,1085,1010,1011,1011,1011,1011,1011,
1105,1056,0,0,0,0,0,0,0,0,0,0,0,1059,1010,1011,1011,1011,1011,1036,1005,1081,0,0,0,0,0,0,0,0,1058,1034,1085,1011,1011,1011,1011,1011,
1055,1081,0,0,0,0,0,0,0,0,0,0,0,1084,1035,1010,1036,1011,1011,1005,1030,1056,0,0,0,0,0,0,0,0,0,1059,1060,1011,1011,1011,1011,1011,
1055,1056,0,0,0,0,0,0,0,0,0,0,0,1058,1034,1035,1010,1061,1005,1030,1031,1057,0,0,0,0,0,0,0,0,0,1084,1085,1011,1011,1011,1011,1011,
1030,1081,0,0,0,0,0,0,0,0,0,0,0,0,1058,1034,1035,1008,1007,1031,1057,0,0,0,0,0,0,0,0,0,0,1084,1085,1010,1011,1011,1011,1011,
1105,1081,0,0,0,0,0,0,0,0,0,0,0,0,0,1058,1033,1033,1032,1057,0,0,0,0,0,0,0,0,0,0,0,1058,1034,1035,1010,1011,1011,1011,
1055,1081,0,0,0,0,0,0,0,0,0,0,0,0,0,0,0,0,0,0,0,0,0,0,0,0,0,0,0,0,0,0,1058,1034,1035,1007,1007,1007,
1030,1106,1082,0,0,0,0,0,0,0,0,0,0,0,0,0,0,0,0,0,0,0,0,0,0,0,0,0,0,0,0,0,0,1058,1032,1033,1033,1032,
1036,1030,1056,0,0,0,0,0,0,0,0,0,0,0,0,0,0,0,0,0,0,0,0,0,0,0,0,0,0,0,0,0,0,0,0,0,0,0,
1011,1055,1056,0,0,0,0,0,0,0,0,0,0,0,0,0,0,0,0,0,0,0,0,0,0,0,0,0,0,0,0,0,0,0,0,0,0,0,
1011,1030,1106,1082,0,0,0,0,0,0,0,0,0,0,0,0,0,0,0,0,0,0,0,0,0,0,0,0,0,0,0,0,0,0,0,0,0,0,
1011,1011,1030,1056,0,0,0,0,0,0,0,0,0,0,0,0,0,0,0,0,0,0,0,0,0,0,0,0,0,0,0,0,0,1083,1108,1107,1108,1108,
1011,1011,1030,1106,1082,0,0,0,0,0,0,0,0,0,0,0,0,0,0,0,0,0,0,0,0,0,0,0,0,0,0,0,1083,1109,1134,1132,1133,1134,
1011,1061,1011,1030,1106,1082,0,0,0,0,0,0,0,0,0,0,0,0,0,0,0,0,0,0,0,0,0,0,0,0,0,1083,1109,1134,1134,1135,1036,1135,
1011,1011,1011,1105,1105,1081,0,0,0,0,0,0,0,0,0,0,0,0,0,0,0,0,0,0,0,0,0,0,0,0,1083,1109,1134,1135,1036,1011,1011,1011,
1011,1011,1011,1011,1030,1106,1082,0,0,0,0,0,0,0,0,0,0,0,0,0,0,0,0,0,0,0,0,0,0,0,1059,1134,1061,1011,1011,1011,1011,1011,
1011,1061,1011,1011,1011,1105,1106,1082,0,0,0,0,0,0,0,0,0,0,0,0,0,0,0,0,0,0,0,0,0,0,1059,1060,1011,1011,1011,1011,1011,1011,
1011,1011,1011,1011,1011,1055,1105,1106,1082,0,0,0,0,0,0,0,0,0,0,0,0,0,0,0,0,0,0,0,0,0,1084,1110,1011,1011,1011,1011,1011,1011,
1011,1011,1011,1036,1011,1011,1055,1105,1106,1082,0,0,0,0,0,0,0,0,0,0,0,0,0,0,0,0,0,0,0,0,1059,1060,1011,1011,1011,1011,1011,1011,
1011,1011,1011,1011,1011,1011,1011,1105,1030,1056,0,0,0,0,0,0,0,0,0,0,0,0,0,0,0,0,0,0,0,0,1059,1085,1011,1011,1011,1061,1011,1011,
1011,0,1011,1011,1036,1011,1011,1011,1055,1081,0,0,0,0,0,0,0,0,0,0,0,0,0,0,0,0,0,0,0,0,1084,1085,1011,1011,1011,1011,1011,1011,
1011,1061,1011,1011,1011,1011,1011,1011,1080,1081,0,0,0,0,0,0,0,0,0,0,0,0,0,0,0,0,0,0,0,0,1059,1110,1061,1011,1011,1011,1011,1011,
1011,1011,1011,1011,1011,1011,1011,1011,1055,1081,0,0,0,0,0,0,0,0,0,0,0,0,0,0,0,0,0,0,0,0,1084,1060,1011,1011,1011,1011,1011,1011,
1011,1011,1011,1011,1011,1011,1061,1011,1080,1081,0,0,0,0,0,0,0,0,0,0,0,0,0,0,0,0,0,0,0,0,1109,1110,1011,1011,1011,1011,1011,1011,
1011,1011,1011,1011,1011,1011,1011,1011,1105,1106,1107,1108,1108,1107,1108,1107,1108,1108,1107,1108,1107,1108,1107,1108,1108,1107,1108,1107,1108,1109,1060,1135,1011,1011,1011,1011,1011,1011,
1011,1011,1011,1061,1011,1011,1011,1011,1130,1131,1132,1133,1133,1132,1133,1132,1134,1132,1133,1132,1132,1133,1132,1134,1132,1133,1132,1132,1132,1132,1135,1036,1011,1011,1011,1011,1011,1011,
0,1011,1011,1011,1011,1011,1011,1011,1011,1011,1011,1011,1011,1011,1011,1011,1011,1011,1011,1011,1036,1011,1011,1011,1061,1011,1011,1011,1011,1011,1011,1011,1011,1011,1011,1011,1011,1011
</data>
 </layer>
 <objectgroup id="6" name="Back">
  <object id="4" name="TileData" x="240" y="320" width="16" height="16">
   <properties>
    <property name="CampingDirection" value="South"/>
    <property name="CampingType" value="Tent"/>
    <property name="IsCampingSpot" value="T"/>
    <property name="IsForGuest" value="F"/>
   </properties>
  </object>
  <object id="5" name="TileData" x="288" y="368" width="16" height="16">
   <properties>
    <property name="CampingDirection" value="West"/>
    <property name="CampingType" value="Tent"/>
    <property name="IsCampingSpot" value="T"/>
    <property name="IsForGuest" value="T"/>
   </properties>
  </object>
  <object id="7" name="TileData" x="576" y="272" width="16" height="16">
   <properties>
    <property name="TouchAction" value="PeacefulEnd.Campgrounds_CampingExit"/>
   </properties>
  </object>
  <object id="9" name="TileData" x="576" y="288" width="16" height="16">
   <properties>
    <property name="TouchAction" value="PeacefulEnd.Campgrounds_CampingExit"/>
   </properties>
  </object>
  <object id="10" name="TileData" x="576" y="304" width="16" height="16">
   <properties>
    <property name="TouchAction" value="PeacefulEnd.Campgrounds_CampingExit"/>
   </properties>
  </object>
  <object id="22" name="TileData" x="240" y="368" width="16" height="16">
   <properties>
    <property name="IsCookingSpot" value="T"/>
   </properties>
  </object>
 </objectgroup>
 <objectgroup id="7" name="Buildings"/>
 <objectgroup id="8" name="Front"/>
 <objectgroup id="9" name="Paths"/>
 <objectgroup id="10" name="AlwaysFront"/>
</map>
