<?xml version="1.0" encoding="UTF-8"?>
<map version="1.10" tiledversion="1.10.2" orientation="orthogonal" renderorder="right-down" compressionlevel="0" width="62" height="50" tilewidth="16" tileheight="16" infinite="0" nextlayerid="15" nextobjectid="18">
 <properties>
  <property name="Music" value="ocean"/>
  <property name="MusicIgnoreInRain" value="t"/>
  <property name="Outdoors" value="T"/>
 </properties>
 <tileset firstgid="1" name="Paths" tilewidth="16" tileheight="16" tilecount="64" columns="4">
  <image source="paths" width="64" height="256"/>
  <tile id="0">
   <properties>
    <property name="PathType" value="NE"/>
   </properties>
  </tile>
  <tile id="1">
   <properties>
    <property name="PathType" value="SE"/>
   </properties>
  </tile>
  <tile id="2">
   <properties>
    <property name="PathType" value="WS"/>
   </properties>
  </tile>
  <tile id="3">
   <properties>
    <property name="PathType" value="WN"/>
   </properties>
  </tile>
  <tile id="4">
   <properties>
    <property name="PathType" value="Crossroad"/>
   </properties>
  </tile>
  <tile id="7">
   <properties>
    <property name="PathType" value="End"/>
   </properties>
  </tile>
 </tileset>
 <tileset firstgid="65" name="untitled tile sheet" tilewidth="16" tileheight="16" tilecount="527" columns="17">
  <image source="spring_beach.png" width="272" height="496"/>
  <tile id="7">
   <properties>
    <property name="Water" value="T"/>
   </properties>
  </tile>
  <tile id="8">
   <properties>
    <property name="Water" value="T"/>
   </properties>
  </tile>
  <tile id="18">
   <properties>
    <property name="Diggable" value="T"/>
    <property name="Type" value="Dirt"/>
   </properties>
  </tile>
  <tile id="19">
   <properties>
    <property name="Diggable" value="T"/>
    <property name="Type" value="Dirt"/>
   </properties>
  </tile>
  <tile id="20">
   <properties>
    <property name="Diggable" value="T"/>
    <property name="Type" value="Dirt"/>
   </properties>
  </tile>
  <tile id="21">
   <properties>
    <property name="Type" value="Dirt"/>
   </properties>
  </tile>
  <tile id="22">
   <properties>
    <property name="Diggable" value="T"/>
    <property name="Type" value="Dirt"/>
   </properties>
  </tile>
  <tile id="23">
   <properties>
    <property name="Type" value="Dirt"/>
   </properties>
  </tile>
  <tile id="24">
   <properties>
    <property name="Type" value="Dirt"/>
   </properties>
  </tile>
  <tile id="25">
   <properties>
    <property name="Diggable" value="T"/>
    <property name="Type" value="Dirt"/>
   </properties>
  </tile>
  <tile id="26">
   <properties>
    <property name="Diggable" value="T"/>
    <property name="Type" value="Dirt"/>
   </properties>
  </tile>
  <tile id="41">
   <properties>
    <property name="Diggable" value="T"/>
    <property name="Type" value="Dirt"/>
   </properties>
  </tile>
  <tile id="42">
   <properties>
    <property name="Diggable" value="T"/>
    <property name="Spawnable" value="T"/>
    <property name="Type" value="Dirt"/>
   </properties>
  </tile>
  <tile id="43">
   <properties>
    <property name="Diggable" value="T"/>
   </properties>
  </tile>
  <tile id="51">
   <properties>
    <property name="Type" value="Dirt"/>
   </properties>
  </tile>
  <tile id="52">
   <properties>
    <property name="Type" value="Dirt"/>
   </properties>
  </tile>
  <tile id="53">
   <properties>
    <property name="Type" value="Dirt"/>
   </properties>
  </tile>
  <tile id="54">
   <properties>
    <property name="Type" value="Dirt"/>
   </properties>
  </tile>
  <tile id="56">
   <properties>
    <property name="Type" value="Stone"/>
   </properties>
  </tile>
  <tile id="58">
   <properties>
    <property name="Type" value="Dirt"/>
   </properties>
  </tile>
  <tile id="59">
   <properties>
    <property name="Diggable" value="T"/>
    <property name="Type" value="Dirt"/>
   </properties>
  </tile>
  <tile id="68">
   <properties>
    <property name="Type" value="Dirt"/>
   </properties>
  </tile>
  <tile id="69">
   <properties>
    <property name="Diggable" value="T"/>
    <property name="Type" value="Dirt"/>
   </properties>
  </tile>
  <tile id="70">
   <properties>
    <property name="Diggable" value="T"/>
    <property name="Type" value="Dirt"/>
   </properties>
  </tile>
  <tile id="71">
   <properties>
    <property name="Type" value="Dirt"/>
   </properties>
  </tile>
  <tile id="75">
   <properties>
    <property name="Water" value="T"/>
   </properties>
  </tile>
  <tile id="80">
   <animation>
    <frame tileid="80" duration="600"/>
    <frame tileid="337" duration="600"/>
    <frame tileid="338" duration="600"/>
    <frame tileid="337" duration="600"/>
   </animation>
  </tile>
  <tile id="81">
   <properties>
    <property name="Type" value="Grass"/>
   </properties>
  </tile>
  <tile id="82">
   <properties>
    <property name="Type" value="Grass"/>
   </properties>
  </tile>
  <tile id="85">
   <properties>
    <property name="Type" value="Dirt"/>
   </properties>
  </tile>
  <tile id="86">
   <properties>
    <property name="Diggable" value="T"/>
    <property name="Type" value="Dirt"/>
   </properties>
  </tile>
  <tile id="87">
   <properties>
    <property name="Diggable" value="T"/>
    <property name="Type" value="Dirt"/>
   </properties>
  </tile>
  <tile id="88">
   <properties>
    <property name="Type" value="Dirt"/>
   </properties>
  </tile>
  <tile id="89">
   <properties>
    <property name="Water" value="T"/>
   </properties>
  </tile>
  <tile id="90">
   <properties>
    <property name="Water" value="T"/>
   </properties>
  </tile>
  <tile id="91">
   <properties>
    <property name="Water" value="T"/>
   </properties>
  </tile>
  <tile id="92">
   <properties>
    <property name="Water" value="T"/>
   </properties>
  </tile>
  <tile id="93">
   <properties>
    <property name="Water" value="T"/>
   </properties>
  </tile>
  <tile id="100">
   <properties>
    <property name="Type" value="Grass"/>
   </properties>
  </tile>
  <tile id="101">
   <properties>
    <property name="Type" value="Grass"/>
   </properties>
  </tile>
  <tile id="107">
   <properties>
    <property name="Type" value="Dirt"/>
    <property name="Water" value="T"/>
   </properties>
  </tile>
  <tile id="108">
   <properties>
    <property name="Water" value="T"/>
   </properties>
  </tile>
  <tile id="109">
   <properties>
    <property name="Water" value="T"/>
   </properties>
  </tile>
  <tile id="110">
   <properties>
    <property name="Water" value="T"/>
   </properties>
  </tile>
  <tile id="111">
   <properties>
    <property name="Type" value="Stone"/>
   </properties>
  </tile>
  <tile id="112">
   <properties>
    <property name="Type" value="Stone"/>
   </properties>
  </tile>
  <tile id="113">
   <properties>
    <property name="Type" value="Stone"/>
   </properties>
  </tile>
  <tile id="117">
   <properties>
    <property name="Type" value="Grass"/>
   </properties>
  </tile>
  <tile id="118">
   <properties>
    <property name="Type" value="Grass"/>
   </properties>
  </tile>
  <tile id="124">
   <properties>
    <property name="Water" value="T"/>
   </properties>
  </tile>
  <tile id="125">
   <properties>
    <property name="Water" value="T"/>
   </properties>
  </tile>
  <tile id="126">
   <properties>
    <property name="Water" value="T"/>
   </properties>
  </tile>
  <tile id="127">
   <properties>
    <property name="Water" value="T"/>
   </properties>
  </tile>
  <tile id="128">
   <properties>
    <property name="Passable" value="T"/>
    <property name="Type" value="Dirt"/>
   </properties>
  </tile>
  <tile id="129">
   <properties>
    <property name="Water" value="T"/>
   </properties>
  </tile>
  <tile id="130">
   <properties>
    <property name="Water" value="T"/>
   </properties>
  </tile>
  <tile id="131">
   <properties>
    <property name="Passable" value="F"/>
    <property name="Water" value="T"/>
   </properties>
  </tile>
  <tile id="141">
   <properties>
    <property name="Passable" value="T"/>
    <property name="Type" value="Dirt"/>
   </properties>
   <animation>
    <frame tileid="141" duration="250"/>
    <frame tileid="142" duration="250"/>
    <frame tileid="143" duration="250"/>
    <frame tileid="144" duration="250"/>
    <frame tileid="144" duration="250"/>
    <frame tileid="145" duration="250"/>
    <frame tileid="146" duration="250"/>
    <frame tileid="147" duration="250"/>
    <frame tileid="141" duration="250"/>
    <frame tileid="141" duration="250"/>
    <frame tileid="141" duration="250"/>
   </animation>
  </tile>
  <tile id="142">
   <properties>
    <property name="Passable" value="T"/>
    <property name="Type" value="Dirt"/>
   </properties>
  </tile>
  <tile id="143">
   <properties>
    <property name="Passable" value="T"/>
    <property name="Type" value="Dirt"/>
   </properties>
  </tile>
  <tile id="144">
   <properties>
    <property name="Passable" value="T"/>
    <property name="Type" value="Dirt"/>
   </properties>
  </tile>
  <tile id="145">
   <properties>
    <property name="Passable" value="T"/>
    <property name="Type" value="Dirt"/>
   </properties>
  </tile>
  <tile id="146">
   <properties>
    <property name="Passable" value="T"/>
    <property name="Type" value="Dirt"/>
   </properties>
  </tile>
  <tile id="147">
   <properties>
    <property name="Passable" value="T"/>
    <property name="Type" value="Dirt"/>
   </properties>
  </tile>
  <tile id="148">
   <properties>
    <property name="Water" value="T"/>
   </properties>
  </tile>
  <tile id="158">
   <properties>
    <property name="Passable" value="T"/>
    <property name="Type" value="Dirt"/>
   </properties>
   <animation>
    <frame tileid="158" duration="250"/>
    <frame tileid="159" duration="250"/>
    <frame tileid="160" duration="250"/>
    <frame tileid="161" duration="250"/>
    <frame tileid="161" duration="250"/>
    <frame tileid="162" duration="250"/>
    <frame tileid="163" duration="250"/>
    <frame tileid="164" duration="250"/>
    <frame tileid="158" duration="250"/>
    <frame tileid="158" duration="250"/>
    <frame tileid="158" duration="250"/>
   </animation>
  </tile>
  <tile id="159">
   <properties>
    <property name="Passable" value="T"/>
    <property name="Type" value="Dirt"/>
   </properties>
  </tile>
  <tile id="160">
   <properties>
    <property name="Passable" value="T"/>
    <property name="Type" value="Dirt"/>
   </properties>
  </tile>
  <tile id="161">
   <properties>
    <property name="Passable" value="T"/>
    <property name="Type" value="Dirt"/>
   </properties>
  </tile>
  <tile id="162">
   <properties>
    <property name="Passable" value="T"/>
    <property name="Type" value="Dirt"/>
   </properties>
  </tile>
  <tile id="163">
   <properties>
    <property name="Passable" value="T"/>
    <property name="Type" value="Dirt"/>
   </properties>
  </tile>
  <tile id="164">
   <properties>
    <property name="Passable" value="T"/>
    <property name="Type" value="Dirt"/>
   </properties>
  </tile>
  <tile id="165">
   <properties>
    <property name="Passable" value="F"/>
    <property name="Water" value="T"/>
   </properties>
  </tile>
  <tile id="175">
   <properties>
    <property name="Passable" value="T"/>
    <property name="Type" value="Dirt"/>
   </properties>
   <animation>
    <frame tileid="175" duration="250"/>
    <frame tileid="176" duration="250"/>
    <frame tileid="177" duration="250"/>
    <frame tileid="178" duration="250"/>
    <frame tileid="178" duration="250"/>
    <frame tileid="179" duration="250"/>
    <frame tileid="180" duration="250"/>
    <frame tileid="181" duration="250"/>
    <frame tileid="175" duration="250"/>
    <frame tileid="175" duration="250"/>
    <frame tileid="175" duration="250"/>
   </animation>
  </tile>
  <tile id="176">
   <properties>
    <property name="Passable" value="T"/>
    <property name="Type" value="Dirt"/>
   </properties>
  </tile>
  <tile id="177">
   <properties>
    <property name="Passable" value="T"/>
    <property name="Type" value="Dirt"/>
   </properties>
  </tile>
  <tile id="178">
   <properties>
    <property name="Passable" value="T"/>
    <property name="Type" value="Dirt"/>
   </properties>
  </tile>
  <tile id="179">
   <properties>
    <property name="Passable" value="T"/>
    <property name="Type" value="Dirt"/>
   </properties>
  </tile>
  <tile id="180">
   <properties>
    <property name="Passable" value="T"/>
    <property name="Type" value="Dirt"/>
   </properties>
  </tile>
  <tile id="181">
   <properties>
    <property name="Passable" value="T"/>
    <property name="Type" value="Dirt"/>
   </properties>
  </tile>
  <tile id="185">
   <properties>
    <property name="Water" value="T"/>
   </properties>
  </tile>
  <tile id="192">
   <properties>
    <property name="Passable" value="T"/>
    <property name="Type" value="Dirt"/>
   </properties>
   <animation>
    <frame tileid="192" duration="250"/>
    <frame tileid="193" duration="250"/>
    <frame tileid="194" duration="250"/>
    <frame tileid="195" duration="250"/>
    <frame tileid="195" duration="250"/>
    <frame tileid="196" duration="250"/>
    <frame tileid="197" duration="250"/>
    <frame tileid="198" duration="250"/>
    <frame tileid="192" duration="250"/>
    <frame tileid="192" duration="250"/>
    <frame tileid="192" duration="250"/>
   </animation>
  </tile>
  <tile id="193">
   <properties>
    <property name="Passable" value="T"/>
    <property name="Type" value="Dirt"/>
   </properties>
  </tile>
  <tile id="194">
   <properties>
    <property name="Passable" value="T"/>
    <property name="Type" value="Dirt"/>
   </properties>
  </tile>
  <tile id="195">
   <properties>
    <property name="Passable" value="T"/>
    <property name="Type" value="Dirt"/>
   </properties>
  </tile>
  <tile id="196">
   <properties>
    <property name="Passable" value="T"/>
    <property name="Type" value="Dirt"/>
   </properties>
  </tile>
  <tile id="197">
   <properties>
    <property name="Passable" value="T"/>
    <property name="Type" value="Dirt"/>
   </properties>
  </tile>
  <tile id="198">
   <properties>
    <property name="Passable" value="T"/>
    <property name="Type" value="Dirt"/>
   </properties>
  </tile>
  <tile id="202">
   <properties>
    <property name="Diggable" value="T"/>
   </properties>
  </tile>
  <tile id="203">
   <properties>
    <property name="Water" value="T"/>
   </properties>
  </tile>
  <tile id="209">
   <properties>
    <property name="Passable" value="T"/>
    <property name="Type" value="Dirt"/>
   </properties>
   <animation>
    <frame tileid="209" duration="250"/>
    <frame tileid="210" duration="250"/>
    <frame tileid="211" duration="250"/>
    <frame tileid="212" duration="250"/>
    <frame tileid="212" duration="250"/>
    <frame tileid="213" duration="250"/>
    <frame tileid="214" duration="250"/>
    <frame tileid="215" duration="250"/>
    <frame tileid="209" duration="250"/>
    <frame tileid="209" duration="250"/>
    <frame tileid="209" duration="250"/>
   </animation>
  </tile>
  <tile id="210">
   <properties>
    <property name="Passable" value="T"/>
    <property name="Type" value="Dirt"/>
   </properties>
  </tile>
  <tile id="211">
   <properties>
    <property name="Passable" value="T"/>
    <property name="Type" value="Dirt"/>
   </properties>
  </tile>
  <tile id="212">
   <properties>
    <property name="Passable" value="T"/>
    <property name="Type" value="Dirt"/>
   </properties>
  </tile>
  <tile id="213">
   <properties>
    <property name="Passable" value="T"/>
    <property name="Type" value="Dirt"/>
   </properties>
  </tile>
  <tile id="214">
   <properties>
    <property name="Passable" value="T"/>
    <property name="Type" value="Dirt"/>
   </properties>
  </tile>
  <tile id="215">
   <properties>
    <property name="Passable" value="T"/>
    <property name="Type" value="Dirt"/>
   </properties>
  </tile>
  <tile id="216">
   <animation>
    <frame tileid="216" duration="1000"/>
    <frame tileid="267" duration="1000"/>
   </animation>
  </tile>
  <tile id="217">
   <animation>
    <frame tileid="217" duration="1000"/>
    <frame tileid="268" duration="1000"/>
   </animation>
  </tile>
  <tile id="218">
   <animation>
    <frame tileid="218" duration="1000"/>
    <frame tileid="269" duration="1000"/>
   </animation>
  </tile>
  <tile id="226">
   <properties>
    <property name="Passable" value="T"/>
    <property name="Type" value="Dirt"/>
   </properties>
   <animation>
    <frame tileid="226" duration="250"/>
    <frame tileid="227" duration="250"/>
    <frame tileid="228" duration="250"/>
    <frame tileid="229" duration="250"/>
    <frame tileid="229" duration="250"/>
    <frame tileid="230" duration="250"/>
    <frame tileid="231" duration="250"/>
    <frame tileid="232" duration="250"/>
    <frame tileid="226" duration="250"/>
    <frame tileid="226" duration="250"/>
    <frame tileid="226" duration="250"/>
   </animation>
  </tile>
  <tile id="227">
   <properties>
    <property name="Passable" value="T"/>
    <property name="Type" value="Dirt"/>
   </properties>
  </tile>
  <tile id="228">
   <properties>
    <property name="Passable" value="T"/>
    <property name="Type" value="Dirt"/>
   </properties>
  </tile>
  <tile id="229">
   <properties>
    <property name="Passable" value="T"/>
    <property name="Type" value="Dirt"/>
   </properties>
  </tile>
  <tile id="230">
   <properties>
    <property name="Passable" value="T"/>
    <property name="Type" value="Dirt"/>
   </properties>
  </tile>
  <tile id="231">
   <properties>
    <property name="Passable" value="T"/>
    <property name="Type" value="Dirt"/>
   </properties>
  </tile>
  <tile id="232">
   <properties>
    <property name="Passable" value="T"/>
    <property name="Type" value="Dirt"/>
   </properties>
  </tile>
  <tile id="233">
   <properties>
    <property name="Water" value="T"/>
   </properties>
  </tile>
  <tile id="234">
   <properties>
    <property name="Water" value="T"/>
   </properties>
  </tile>
  <tile id="235">
   <properties>
    <property name="Water" value="T"/>
   </properties>
  </tile>
  <tile id="243">
   <properties>
    <property name="Passable" value="T"/>
    <property name="Type" value="Dirt"/>
   </properties>
   <animation>
    <frame tileid="243" duration="250"/>
    <frame tileid="244" duration="250"/>
    <frame tileid="245" duration="250"/>
    <frame tileid="246" duration="250"/>
    <frame tileid="246" duration="250"/>
    <frame tileid="247" duration="250"/>
    <frame tileid="248" duration="250"/>
    <frame tileid="249" duration="250"/>
    <frame tileid="243" duration="250"/>
    <frame tileid="243" duration="250"/>
    <frame tileid="243" duration="250"/>
   </animation>
  </tile>
  <tile id="244">
   <properties>
    <property name="Passable" value="T"/>
    <property name="Type" value="Dirt"/>
   </properties>
  </tile>
  <tile id="245">
   <properties>
    <property name="Passable" value="T"/>
    <property name="Type" value="Dirt"/>
   </properties>
  </tile>
  <tile id="246">
   <properties>
    <property name="Passable" value="T"/>
    <property name="Type" value="Dirt"/>
   </properties>
  </tile>
  <tile id="247">
   <properties>
    <property name="Passable" value="T"/>
    <property name="Type" value="Dirt"/>
   </properties>
  </tile>
  <tile id="248">
   <properties>
    <property name="Passable" value="T"/>
    <property name="Type" value="Dirt"/>
   </properties>
  </tile>
  <tile id="249">
   <properties>
    <property name="Passable" value="T"/>
    <property name="Type" value="Dirt"/>
   </properties>
  </tile>
  <tile id="250">
   <properties>
    <property name="Water" value="T"/>
   </properties>
  </tile>
  <tile id="251">
   <properties>
    <property name="Water" value="T"/>
   </properties>
  </tile>
  <tile id="252">
   <properties>
    <property name="Water" value="T"/>
   </properties>
  </tile>
  <tile id="260">
   <properties>
    <property name="Passable" value="T"/>
    <property name="Type" value="Dirt"/>
   </properties>
   <animation>
    <frame tileid="260" duration="250"/>
    <frame tileid="261" duration="250"/>
    <frame tileid="262" duration="250"/>
    <frame tileid="263" duration="250"/>
    <frame tileid="263" duration="250"/>
    <frame tileid="264" duration="250"/>
    <frame tileid="265" duration="250"/>
    <frame tileid="266" duration="250"/>
    <frame tileid="260" duration="250"/>
    <frame tileid="260" duration="250"/>
    <frame tileid="260" duration="250"/>
   </animation>
  </tile>
  <tile id="261">
   <properties>
    <property name="Passable" value="T"/>
    <property name="Type" value="Dirt"/>
   </properties>
  </tile>
  <tile id="262">
   <properties>
    <property name="Passable" value="T"/>
    <property name="Type" value="Dirt"/>
   </properties>
  </tile>
  <tile id="263">
   <properties>
    <property name="Passable" value="T"/>
    <property name="Type" value="Dirt"/>
   </properties>
  </tile>
  <tile id="264">
   <properties>
    <property name="Passable" value="T"/>
    <property name="Type" value="Dirt"/>
   </properties>
  </tile>
  <tile id="265">
   <properties>
    <property name="Passable" value="T"/>
    <property name="Type" value="Dirt"/>
   </properties>
  </tile>
  <tile id="266">
   <properties>
    <property name="Passable" value="T"/>
    <property name="Type" value="Dirt"/>
   </properties>
  </tile>
  <tile id="277">
   <properties>
    <property name="Type" value="Wood"/>
   </properties>
  </tile>
  <tile id="278">
   <properties>
    <property name="Type" value="Wood"/>
   </properties>
  </tile>
  <tile id="279">
   <properties>
    <property name="Type" value="Wood"/>
   </properties>
  </tile>
  <tile id="280">
   <properties>
    <property name="Type" value="Dirt"/>
   </properties>
  </tile>
  <tile id="297">
   <properties>
    <property name="Type" value="Wood"/>
   </properties>
  </tile>
  <tile id="298">
   <properties>
    <property name="Type" value="Wood"/>
   </properties>
  </tile>
  <tile id="299">
   <properties>
    <property name="Type" value="Wood"/>
   </properties>
  </tile>
  <tile id="300">
   <properties>
    <property name="Type" value="Wood"/>
   </properties>
  </tile>
  <tile id="301">
   <properties>
    <property name="Passable" value="T"/>
    <property name="Type" value="Wood"/>
   </properties>
  </tile>
  <tile id="302">
   <properties>
    <property name="Type" value="Wood"/>
   </properties>
  </tile>
  <tile id="334">
   <properties>
    <property name="Water" value="T"/>
   </properties>
  </tile>
  <tile id="335">
   <properties>
    <property name="Water" value="T"/>
   </properties>
  </tile>
  <tile id="336">
   <properties>
    <property name="Water" value="T"/>
   </properties>
  </tile>
  <tile id="339">
   <properties>
    <property name="Passable" value="F"/>
    <property name="Water" value="T"/>
   </properties>
  </tile>
  <tile id="373">
   <properties>
    <property name="Water" value="T"/>
   </properties>
  </tile>
  <tile id="419">
   <properties>
    <property name="Type" value="Wood"/>
   </properties>
  </tile>
  <tile id="420">
   <properties>
    <property name="Type" value="Wood"/>
   </properties>
  </tile>
  <tile id="421">
   <properties>
    <property name="Type" value="Wood"/>
   </properties>
  </tile>
  <tile id="423">
   <properties>
    <property name="Water" value="T"/>
   </properties>
  </tile>
  <tile id="424">
   <properties>
    <property name="Water" value="T"/>
   </properties>
  </tile>
  <tile id="435">
   <properties>
    <property name="Type" value="Wood"/>
   </properties>
  </tile>
  <tile id="440">
   <properties>
    <property name="Water" value="T"/>
   </properties>
  </tile>
  <tile id="441">
   <properties>
    <property name="Water" value="T"/>
   </properties>
  </tile>
  <tile id="453">
   <properties>
    <property name="Type" value="Wood"/>
   </properties>
  </tile>
  <tile id="454">
   <properties>
    <property name="Type" value="Wood"/>
   </properties>
  </tile>
  <tile id="455">
   <properties>
    <property name="Type" value="Wood"/>
   </properties>
  </tile>
  <tile id="458">
   <properties>
    <property name="Water" value="T"/>
   </properties>
  </tile>
  <tile id="470">
   <properties>
    <property name="Type" value="Wood"/>
   </properties>
  </tile>
  <tile id="471">
   <properties>
    <property name="Type" value="Wood"/>
   </properties>
  </tile>
  <tile id="472">
   <properties>
    <property name="Type" value="Wood"/>
   </properties>
  </tile>
  <tile id="475">
   <properties>
    <property name="Water" value="T"/>
   </properties>
  </tile>
  <tile id="487">
   <properties>
    <property name="Type" value="Wood"/>
   </properties>
  </tile>
  <tile id="488">
   <properties>
    <property name="Type" value="Wood"/>
   </properties>
  </tile>
  <tile id="489">
   <properties>
    <property name="Type" value="Wood"/>
   </properties>
  </tile>
  <tile id="491">
   <properties>
    <property name="Type" value="Wood"/>
   </properties>
  </tile>
  <tile id="504">
   <properties>
    <property name="Type" value="Wood"/>
   </properties>
  </tile>
  <tile id="505">
   <properties>
    <property name="Type" value="Wood"/>
   </properties>
  </tile>
  <tile id="506">
   <properties>
    <property name="Type" value="Wood"/>
   </properties>
  </tile>
  <tile id="508">
   <properties>
    <property name="Type" value="Wood"/>
   </properties>
  </tile>
 </tileset>
 <tileset firstgid="592" name="v16_Shadows" tilewidth="16" tileheight="16" tilecount="475" columns="19">
  <image source="Spring_Shadows" width="304" height="400"/>
 </tileset>
 <layer id="1" name="Back" width="62" height="50">
  <data encoding="csv">
107,107,107,107,164,164,95,95,107,107,107,164,95,95,95,95,95,95,95,95,95,95,95,95,164,164,164,164,164,96,96,96,96,96,164,217,182,181,133,136,197,166,164,164,164,164,164,164,164,164,164,164,96,96,96,165,181,172,172,172,213,172,
164,164,164,164,164,164,164,164,164,107,107,164,95,95,95,95,95,95,95,95,95,95,164,164,164,164,164,164,164,164,164,164,164,164,164,164,164,164,164,164,164,166,164,164,164,164,164,164,164,164,164,164,164,164,164,165,181,172,196,172,172,172,
146,147,146,147,146,147,115,146,146,164,164,164,164,164,95,95,95,95,95,95,95,95,164,217,146,147,146,115,146,115,146,147,146,147,115,146,147,146,115,146,115,115,164,164,164,96,164,164,164,164,164,164,164,164,164,165,181,404,172,172,172,213,
163,163,163,163,163,163,163,163,199,147,146,147,81,165,164,164,164,164,164,164,164,164,217,182,200,163,163,163,163,163,163,163,163,163,163,163,163,163,163,163,199,183,146,115,146,164,164,95,95,95,95,95,96,96,96,165,181,404,172,172,172,172,
118,118,118,118,118,118,118,119,198,163,163,199,183,146,115,146,147,115,115,147,115,81,165,200,180,116,117,118,117,118,117,118,117,118,117,118,118,117,118,119,198,163,163,163,199,183,81,165,164,164,164,164,164,164,81,165,181,172,172,172,172,172,
107,107,107,107,107,107,107,134,119,89,123,198,163,163,163,163,163,163,163,163,199,183,182,181,116,135,107,84,107,107,107,107,107,107,107,107,107,107,107,134,117,118,117,119,198,199,183,147,146,147,146,147,115,147,115,182,181,172,172,172,172,196,
86,86,86,86,88,151,88,87,134,117,118,117,118,117,118,117,118,117,118,119,198,163,163,180,133,233,107,107,107,107,107,107,108,107,107,107,107,107,107,107,107,107,233,134,119,198,163,163,163,163,163,163,163,163,163,163,180,172,172,172,172,172,
172,172,172,404,172,172,172,172,150,152,107,107,107,107,107,107,107,83,107,134,117,118,117,118,135,107,107,107,107,107,107,107,107,107,107,107,107,107,90,107,107,107,107,107,134,117,118,117,118,117,118,117,118,117,117,119,89,172,172,172,172,172,
172,172,172,230,172,172,172,172,172,133,107,107,107,107,107,107,91,107,107,107,107,107,107,107,107,107,107,90,107,107,107,107,83,107,107,107,107,107,107,107,107,107,107,107,107,107,107,107,107,107,107,107,84,84,107,136,89,172,213,172,172,172,
172,172,172,172,196,172,172,172,172,133,90,107,107,107,107,107,107,107,107,107,107,107,107,107,107,107,107,107,107,107,107,107,107,107,107,107,107,107,107,107,107,107,107,107,151,107,107,107,107,107,107,107,107,107,107,136,89,172,172,172,172,172,
172,172,172,172,172,172,172,172,172,133,107,107,107,107,107,369,370,107,107,107,107,107,107,107,107,107,107,107,151,86,86,86,152,107,107,107,107,107,107,85,107,107,107,107,107,107,107,107,107,107,107,107,107,107,107,136,89,172,172,172,172,172,
172,196,172,172,172,172,172,172,172,133,92,93,107,107,107,386,387,107,107,107,107,107,107,107,108,107,107,107,136,89,89,89,133,107,107,107,107,107,107,107,107,107,107,107,107,107,107,107,107,107,107,107,107,107,107,136,89,172,172,172,172,172,
172,172,172,172,172,172,172,213,172,133,109,110,107,107,107,107,107,107,90,107,107,107,107,107,107,107,107,107,136,89,89,89,133,107,107,107,108,107,107,107,107,107,107,91,107,107,107,107,107,107,107,107,107,107,107,136,89,172,172,172,172,172,
172,172,172,172,172,196,172,172,172,133,107,91,107,107,107,107,107,107,107,107,107,107,107,107,107,107,107,107,136,89,123,89,133,107,107,107,107,107,107,107,83,107,107,107,107,107,107,84,107,107,108,107,107,107,90,136,89,172,172,172,172,172,
190,172,172,172,172,172,172,172,172,133,107,107,107,107,107,107,107,107,83,107,107,107,107,107,107,83,107,107,134,117,118,117,135,107,107,107,107,107,107,107,107,107,107,107,103,104,104,104,104,105,107,234,107,107,107,136,89,172,404,404,404,404,
156,172,172,213,172,172,172,172,172,150,86,87,86,87,87,86,88,107,107,107,107,107,107,107,107,107,107,107,107,107,107,107,107,107,107,107,107,107,107,107,107,107,107,103,301,176,177,176,178,302,105,107,107,107,107,136,89,172,172,172,172,172,
174,156,172,172,172,172,172,172,172,172,89,89,89,89,89,89,89,106,107,107,107,107,107,107,107,107,107,107,107,107,107,107,85,107,107,107,107,107,107,107,107,107,103,301,125,126,127,125,126,127,122,83,107,107,107,136,89,172,172,172,172,172,
174,174,156,172,172,172,172,172,172,172,172,172,172,172,172,172,172,89,106,107,107,107,107,107,107,107,107,107,107,107,108,107,107,107,107,107,91,107,107,107,107,251,120,176,142,145,318,159,160,161,302,105,107,90,107,136,89,172,172,172,172,172,
194,174,174,156,172,213,172,230,172,172,196,172,172,172,172,172,172,172,89,124,233,107,107,107,107,107,107,107,107,107,107,107,107,107,107,107,107,107,107,107,234,107,120,176,159,319,144,176,176,176,285,139,107,91,107,136,89,172,172,172,172,172,
174,174,174,174,156,189,155,155,189,155,189,155,155,155,155,213,172,172,172,89,124,86,87,87,86,87,86,86,86,86,87,87,86,87,107,107,107,107,107,107,107,103,301,125,126,336,335,126,127,176,122,251,107,107,107,136,172,172,172,172,172,172,
174,174,174,174,174,174,174,174,174,194,174,174,174,174,174,156,172,172,172,172,89,89,89,89,89,89,89,89,89,89,89,89,89,89,106,107,107,107,107,107,83,120,2147483826,142,143,143,143,143,144,177,122,107,107,107,107,136,172,172,172,172,172,213,
157,191,157,157,157,191,157,191,157,174,174,174,174,174,174,174,190,172,196,172,172,172,172,172,172,172,172,172,172,172,172,172,172,172,89,106,107,107,107,107,107,120,176,142,179,143,143,162,318,176,122,107,107,107,107,153,172,230,172,172,172,172,
140,140,140,140,140,140,140,140,140,158,174,174,174,174,174,174,156,172,172,172,172,172,172,213,172,172,172,172,172,172,172,196,172,172,172,89,106,233,107,90,107,137,284,159,160,160,160,160,161,285,139,107,108,107,267,89,172,172,172,172,172,172,
140,540,140,140,140,140,140,540,140,140,175,174,174,174,174,174,174,156,155,155,155,155,155,155,155,155,155,155,155,189,155,189,155,172,172,172,89,106,107,107,107,107,137,138,138,138,138,138,138,139,107,233,107,267,89,172,172,172,172,172,172,172,
140,140,195,140,140,140,140,140,195,140,175,174,174,174,174,174,174,174,174,174,174,174,174,174,174,174,174,174,194,174,174,174,174,156,172,172,172,89,124,86,86,87,86,87,86,87,87,86,86,87,86,87,267,89,172,172,172,196,172,189,189,172,
140,140,140,250,140,140,250,140,140,140,158,191,191,191,191,191,191,191,191,191,191,191,191,191,191,191,191,174,174,174,174,174,174,174,173,213,172,172,172,172,172,172,172,172,172,172,172,172,172,172,172,172,172,172,172,213,172,172,268,174,174,156,
140,140,140,195,140,140,140,140,140,195,140,140,140,140,140,140,140,140,140,140,140,140,140,140,140,140,140,158,191,191,191,191,191,194,156,196,172,172,172,172,172,172,172,172,196,172,172,172,172,172,172,196,230,172,172,172,172,268,174,174,194,174,
140,140,250,140,140,140,140,195,140,140,140,140,140,140,140,140,140,140,523,140,140,140,250,140,140,140,140,140,140,140,140,140,140,158,174,156,155,189,155,230,155,213,155,155,189,189,155,155,172,172,172,172,172,172,230,172,268,174,174,191,191,174,
140,140,195,140,140,140,140,250,140,140,140,140,140,140,140,140,140,140,140,140,140,140,140,140,140,140,140,140,140,140,140,140,140,140,158,174,174,174,174,174,174,174,174,174,174,174,194,174,156,155,189,155,155,189,155,268,174,174,72,140,140,158,
523,140,140,195,250,195,195,140,140,140,140,140,140,140,140,195,523,195,140,140,195,140,140,140,140,140,140,140,140,140,140,140,140,140,140,158,191,157,191,191,174,174,174,174,174,174,174,174,174,174,174,174,174,174,174,194,174,72,140,140,140,140,
140,140,140,140,140,140,140,140,140,195,140,140,140,140,140,140,140,140,140,195,140,195,140,140,140,140,140,140,140,140,140,140,140,140,140,140,140,140,195,140,158,157,191,191,157,191,191,157,157,191,191,157,157,191,191,191,72,140,140,140,140,140,
140,140,140,140,140,140,540,140,140,140,140,140,140,140,140,140,140,140,140,140,140,540,140,140,140,140,140,140,140,140,140,140,140,140,140,140,140,140,140,140,140,140,140,140,140,140,140,140,140,140,140,195,140,140,140,140,140,140,140,540,140,140,
140,140,195,140,140,140,140,140,140,140,140,140,140,140,140,140,140,140,140,140,140,140,140,140,140,140,140,140,140,140,140,140,140,140,140,140,140,140,140,140,140,140,195,140,140,140,250,140,140,140,140,140,140,140,140,195,140,140,140,140,140,195,
140,140,140,140,140,140,195,140,140,140,140,140,140,140,140,140,523,140,140,140,140,140,195,195,140,140,140,140,140,140,140,140,140,140,140,140,140,140,140,140,140,140,140,140,140,140,140,195,140,195,140,140,540,140,140,140,140,140,140,140,140,140,
140,540,140,140,140,140,140,140,523,140,140,140,140,140,140,140,140,140,195,140,523,140,140,140,140,140,140,140,140,140,140,140,140,140,140,140,140,140,140,140,140,140,140,140,140,140,140,140,140,140,140,140,523,140,140,140,140,540,140,523,140,140,
140,140,140,140,250,140,140,140,140,140,140,140,140,140,140,140,140,140,140,140,140,140,140,140,140,140,140,140,140,140,140,140,140,140,140,140,140,140,140,140,140,140,140,140,140,140,140,140,140,140,140,140,140,140,140,140,140,140,140,140,140,140,
140,140,140,140,140,140,140,140,140,140,140,140,140,140,140,140,540,140,140,140,140,140,140,140,140,140,140,140,140,140,140,140,140,140,140,140,140,140,140,140,140,140,140,140,140,140,140,140,140,540,140,140,140,140,140,140,195,140,140,140,140,140,
140,195,140,140,140,140,140,140,140,195,140,140,140,140,140,140,140,140,195,195,140,140,540,140,140,140,140,140,140,140,140,140,140,140,140,140,140,140,140,140,140,140,140,140,140,140,523,140,140,140,140,140,140,140,140,140,140,140,140,140,140,140,
140,140,140,140,523,140,540,140,140,140,140,140,140,140,140,140,140,523,140,140,140,140,140,195,140,140,140,140,140,195,140,140,140,140,195,140,140,140,140,540,140,140,140,140,140,140,140,140,540,140,140,140,195,195,140,140,140,140,140,140,140,140,
140,140,140,140,140,140,140,140,523,140,140,140,140,140,140,140,140,540,140,140,140,140,140,140,140,140,140,140,140,140,140,140,140,140,140,140,140,140,540,523,140,140,140,195,140,140,140,195,298,299,300,140,140,140,140,140,140,540,140,140,140,140,
140,140,140,140,140,140,140,140,140,140,140,140,140,140,140,140,140,140,140,140,140,140,140,140,140,540,523,140,140,140,140,140,140,523,140,140,140,140,140,140,140,140,140,140,140,140,140,154,315,316,317,140,140,140,140,140,140,523,140,140,140,140,
140,140,140,140,140,140,140,140,140,140,140,140,140,140,140,140,540,523,140,140,140,140,140,140,140,140,140,140,140,140,140,140,140,140,140,140,140,140,140,195,140,140,140,140,140,140,540,154,154,154,154,140,140,140,140,140,140,140,540,140,140,140,
140,140,250,140,140,140,195,140,140,140,140,140,140,195,140,140,140,140,140,140,140,195,140,140,140,140,140,140,140,140,195,140,140,140,140,250,140,140,140,140,140,140,140,140,140,140,140,140,195,140,140,140,140,140,140,250,140,140,140,140,140,140,
140,140,140,140,140,140,140,140,195,540,140,140,140,140,140,140,140,140,140,140,140,140,140,140,140,540,140,140,140,140,140,140,140,140,140,140,140,140,140,140,140,140,195,523,140,140,140,140,140,140,140,140,140,140,140,140,140,140,140,140,140,140,
140,140,140,140,140,140,140,540,488,489,195,140,140,140,140,140,140,140,140,195,298,299,300,140,140,140,140,140,140,140,140,140,540,140,140,140,140,140,140,523,140,540,140,488,489,540,140,140,140,140,140,140,140,140,140,140,140,140,140,140,140,140,
250,140,140,540,523,140,140,195,505,506,540,140,140,140,140,140,250,140,140,154,315,316,317,140,140,140,140,140,140,140,140,140,140,140,140,140,140,140,140,140,140,195,540,505,506,195,140,140,140,140,140,140,140,140,140,140,140,140,140,140,140,195,
140,140,140,140,140,140,140,140,195,540,140,140,140,140,140,140,140,140,140,154,154,154,154,140,195,140,140,140,140,140,140,523,140,140,140,140,140,140,140,140,140,540,140,195,140,140,140,140,140,250,140,140,140,140,140,140,140,540,140,140,140,140,
140,195,140,540,140,140,140,140,140,140,523,140,140,140,140,140,140,140,140,140,140,140,140,140,140,140,140,140,540,140,140,140,140,140,140,195,140,140,140,540,140,140,140,140,523,140,140,140,140,140,140,140,140,195,140,140,140,140,140,140,140,140,
140,140,140,140,140,140,250,140,140,140,140,140,140,195,140,140,140,140,140,523,540,140,140,140,140,140,140,140,140,140,140,140,140,140,140,140,140,140,140,140,140,140,140,140,140,140,140,140,140,140,140,140,140,140,140,140,140,523,140,140,540,140,
140,140,140,140,140,140,140,140,140,140,140,140,140,140,140,140,140,140,140,140,140,140,140,140,140,140,540,140,140,140,140,140,140,140,140,140,140,140,140,140,140,140,140,140,140,140,140,140,140,140,140,140,140,140,140,140,140,140,140,140,140,140
</data>
 </layer>
 <layer id="2" name="Back2" width="62" height="50">
  <properties>
   <property name="Draw" value="Back"/>
  </properties>
  <data encoding="csv">
0,0,0,0,0,0,0,0,0,0,0,0,0,0,0,0,0,0,0,0,0,0,0,0,0,0,0,0,0,0,0,0,0,0,0,0,0,0,0,0,0,0,0,0,0,0,0,0,0,0,0,0,0,0,0,0,0,0,0,0,0,0,
0,0,0,0,0,0,0,0,0,0,0,0,0,0,0,0,0,0,0,0,0,0,0,0,0,0,0,0,0,0,0,0,0,0,0,0,0,0,0,0,0,0,0,0,0,0,0,0,0,0,0,0,0,0,0,0,0,0,0,0,0,0,
0,0,0,0,0,0,0,0,0,0,0,0,0,0,0,0,0,0,0,0,0,0,0,0,0,0,0,0,0,0,0,0,0,0,0,0,0,0,0,0,0,0,0,0,0,0,0,0,0,0,0,0,0,0,0,0,0,0,0,0,0,0,
0,0,0,0,0,0,0,0,0,183,0,0,0,0,0,0,0,0,0,0,0,0,0,0,0,0,0,0,0,0,0,0,0,0,0,0,0,0,0,0,0,0,0,0,0,0,0,0,0,0,0,0,0,0,0,0,0,0,0,0,0,0,
0,0,0,0,0,0,0,0,0,0,0,0,0,0,0,0,0,0,0,0,0,0,0,0,0,0,0,0,0,0,0,0,0,0,0,0,0,0,0,0,0,0,0,0,0,0,0,0,0,0,0,0,0,0,0,0,0,0,0,0,0,0,
0,0,0,0,0,0,0,0,0,0,0,0,0,0,0,0,0,0,0,0,0,0,0,0,0,0,0,0,0,0,0,0,0,0,0,0,0,0,0,0,0,0,0,0,0,0,0,0,0,0,0,0,0,0,0,0,0,0,0,0,0,0,
0,0,0,0,0,0,0,0,0,0,0,0,0,0,0,0,0,0,0,0,0,0,0,0,0,0,0,0,0,0,0,0,0,0,0,0,0,0,0,0,0,0,0,0,0,0,0,0,0,0,0,0,0,0,0,0,0,0,0,0,0,0,
0,0,0,0,0,0,0,0,0,0,0,0,0,0,0,0,0,0,0,0,0,0,0,0,0,0,0,0,0,0,0,0,0,0,0,0,0,0,0,0,0,0,0,0,0,0,0,0,0,0,0,0,0,0,0,0,0,0,0,0,0,0,
0,0,0,0,0,0,0,0,0,0,0,0,0,0,0,0,0,0,0,0,0,0,0,0,0,0,0,0,0,0,0,0,0,0,0,0,0,0,0,0,0,0,0,0,0,0,0,0,0,0,0,0,0,0,0,0,0,0,0,0,0,0,
0,0,0,0,0,0,0,0,0,0,0,0,0,0,0,0,0,0,0,0,0,0,0,0,0,0,0,0,0,0,0,0,0,0,0,0,0,0,0,0,0,0,0,0,0,0,0,0,0,0,0,0,0,0,0,0,0,0,0,0,0,0,
0,0,0,0,0,0,0,0,0,0,0,0,0,0,0,0,0,0,0,0,0,0,0,0,0,0,0,0,0,0,0,0,0,0,0,0,0,0,0,0,0,0,0,0,0,0,0,0,0,0,0,0,0,0,0,0,0,0,0,0,0,0,
0,0,0,0,0,0,0,0,0,0,0,0,0,0,0,0,0,0,0,0,0,0,0,0,0,0,0,0,0,0,0,0,0,0,0,0,0,0,0,0,0,0,0,0,0,0,0,0,0,0,0,0,0,0,0,0,0,0,0,0,0,0,
0,0,0,0,0,0,0,0,0,0,0,0,0,0,0,0,0,0,0,0,0,0,0,0,0,0,0,0,0,0,0,0,0,0,0,0,0,0,0,0,0,0,0,0,0,0,0,0,0,0,0,0,0,0,0,0,0,0,0,0,0,0,
0,0,0,0,0,0,0,0,0,0,0,0,0,0,0,0,0,0,0,0,0,0,0,0,0,0,0,0,0,0,0,0,0,0,0,0,0,0,0,0,0,0,0,0,0,0,0,0,0,0,0,0,0,0,0,0,0,0,0,0,0,0,
0,0,0,0,0,0,0,0,0,0,0,0,0,0,0,0,0,0,0,0,0,0,0,0,0,0,0,0,0,0,0,0,0,0,0,0,0,0,0,0,0,0,0,0,0,0,0,0,0,0,0,0,0,0,0,0,0,0,0,0,0,0,
0,0,0,0,0,0,0,0,0,0,0,0,0,0,0,0,0,0,0,0,0,0,0,0,0,0,0,0,0,0,0,0,0,0,0,0,0,0,0,0,0,0,0,0,0,0,0,0,0,0,0,0,0,0,0,0,0,0,0,0,0,0,
0,0,0,0,0,0,0,0,0,0,0,0,0,0,0,0,0,0,0,0,0,0,0,0,0,0,0,0,0,0,0,0,0,0,0,0,0,0,0,0,0,0,0,0,0,0,0,0,0,0,0,0,0,0,0,0,0,0,0,0,0,0,
0,0,0,0,0,0,0,0,0,0,0,0,0,0,0,0,0,0,0,0,0,0,0,0,0,0,0,0,0,0,0,0,0,0,0,0,0,0,0,0,0,0,0,0,0,0,0,0,0,0,0,0,0,0,0,0,0,0,0,0,0,0,
0,0,0,0,0,0,0,0,0,0,0,0,0,0,0,0,0,0,0,0,0,0,0,0,0,0,0,0,0,0,0,0,0,0,0,0,0,0,0,0,0,0,0,0,0,0,0,0,0,0,0,0,0,0,0,0,0,0,0,0,0,0,
0,0,0,0,0,0,0,0,0,0,0,0,0,0,0,0,0,0,0,0,0,0,0,0,0,0,0,0,0,0,0,0,0,0,0,0,0,0,0,0,0,0,0,0,0,0,0,0,0,0,0,0,0,0,0,0,0,0,0,0,0,0,
0,0,0,0,0,0,0,0,0,0,0,0,0,0,0,0,0,0,0,0,0,0,0,0,0,0,0,0,0,0,0,0,0,0,0,0,0,0,0,0,0,0,0,0,0,0,0,0,0,0,0,0,0,0,0,0,0,0,0,0,0,0,
0,0,0,0,0,0,0,0,0,0,0,0,0,0,0,0,0,0,0,0,0,0,0,0,0,0,0,0,0,0,0,0,0,0,0,0,0,0,0,0,0,0,0,0,0,0,0,0,0,0,0,0,0,0,0,0,0,0,0,0,0,0,
0,0,0,0,0,0,0,0,0,0,0,0,0,0,0,0,0,0,0,0,0,0,0,0,0,0,0,0,0,0,0,0,0,0,0,0,0,0,0,0,0,0,0,0,0,0,0,0,0,0,0,0,0,0,0,0,0,0,0,0,0,0,
0,0,0,0,0,0,0,0,0,0,0,0,0,0,0,0,0,0,0,0,0,0,0,0,0,0,0,0,0,0,0,0,0,0,0,0,0,0,0,0,0,0,0,0,0,0,0,0,0,0,0,0,0,0,0,0,0,0,0,0,0,0,
0,0,0,0,0,0,0,0,0,0,0,0,0,0,0,0,0,0,0,0,0,0,0,0,0,0,0,0,0,0,0,0,0,0,0,0,0,0,0,0,0,0,0,0,0,0,0,0,0,0,0,0,0,0,0,0,0,0,0,0,0,0,
0,0,0,0,0,0,0,0,0,0,0,0,0,0,0,0,0,0,0,0,0,0,0,0,0,0,0,0,0,0,0,0,0,0,0,0,0,0,0,0,0,0,0,0,0,0,0,0,0,0,0,0,0,0,0,0,0,0,0,0,0,0,
0,0,0,0,0,0,0,0,0,0,0,0,0,0,0,0,0,0,0,0,0,0,0,0,0,0,0,0,0,0,0,0,0,0,0,0,0,0,0,0,0,0,0,0,0,0,0,0,0,0,0,0,0,0,0,0,0,0,0,0,0,0,
0,0,0,0,0,0,0,0,0,0,0,0,0,0,0,0,0,0,0,0,0,0,0,0,0,0,0,0,0,0,0,0,0,0,0,0,0,0,0,0,0,0,0,0,0,0,0,0,0,0,0,0,0,0,0,0,0,0,0,0,0,0,
0,0,0,0,0,0,0,0,0,0,0,0,0,0,0,0,0,0,0,0,0,0,0,0,0,0,0,0,0,0,0,0,0,0,0,0,0,0,0,0,0,0,0,0,0,0,0,0,0,0,0,0,0,0,0,0,0,0,0,0,0,0,
0,0,0,0,0,0,0,0,0,0,0,0,0,0,0,0,0,0,0,0,0,0,0,0,0,0,0,0,0,0,0,0,0,0,0,0,0,0,0,0,0,0,0,0,0,0,0,0,0,0,0,0,0,0,0,0,0,0,0,0,0,0,
0,0,0,0,0,0,0,0,0,0,0,0,0,0,0,0,0,0,0,0,0,0,0,0,0,0,0,0,0,0,0,0,0,0,0,0,0,0,0,0,0,0,0,0,0,0,0,0,0,0,0,0,0,0,0,0,0,0,0,0,0,0,
0,0,0,0,0,0,0,0,0,0,0,0,0,0,0,0,0,0,0,0,0,0,0,0,0,0,0,0,0,0,0,0,0,0,0,0,0,0,0,0,0,0,0,0,0,0,0,0,0,0,0,0,0,0,0,0,0,0,0,0,0,0,
0,0,0,0,0,0,0,0,0,0,0,0,0,0,0,0,0,0,0,0,0,0,0,0,0,0,0,0,0,0,0,0,0,0,0,0,0,0,0,0,0,0,0,0,0,0,0,0,0,0,0,0,0,0,0,0,0,0,0,0,0,0,
0,0,0,0,0,0,0,0,0,0,0,0,0,0,0,0,0,0,0,0,0,0,0,0,0,0,0,0,0,0,0,0,0,0,0,0,0,0,0,0,0,0,0,0,0,0,0,0,0,0,0,0,0,0,0,0,0,0,0,0,0,0,
0,0,0,0,0,0,0,0,0,0,0,0,0,0,0,0,0,0,0,0,0,0,0,0,0,0,0,0,0,0,0,0,0,0,0,0,0,0,0,0,0,0,0,0,0,0,0,0,0,0,0,0,0,0,0,0,0,0,0,0,0,0,
0,0,0,0,0,0,0,0,0,0,0,0,0,0,0,0,0,0,0,0,0,0,0,0,0,0,0,0,0,0,0,0,0,0,0,0,0,0,0,0,0,0,0,0,0,0,0,0,0,0,0,0,0,0,0,0,0,0,0,0,0,0,
0,0,0,0,0,0,0,0,0,0,0,0,0,0,0,0,0,0,0,0,0,0,0,0,0,0,0,0,0,0,0,0,0,0,0,0,0,0,0,0,0,0,0,0,0,0,0,0,0,0,0,0,0,0,0,0,0,0,0,0,0,0,
0,0,0,0,0,0,0,0,0,0,0,0,0,0,0,0,0,0,0,0,0,0,0,0,0,0,0,0,0,0,0,0,0,0,0,0,0,0,0,0,0,0,0,0,0,0,0,0,0,0,0,0,0,0,0,0,0,0,0,0,0,0,
0,0,0,0,0,0,0,0,0,0,0,0,0,0,0,0,0,0,0,0,0,0,0,0,0,0,0,0,0,0,0,0,0,0,0,0,0,0,0,0,0,0,0,0,0,0,0,0,0,0,0,0,0,0,0,0,0,0,0,0,0,0,
0,0,0,0,0,0,0,0,0,0,0,0,0,0,0,0,0,0,0,0,0,0,0,0,0,0,0,0,0,0,0,0,0,0,0,0,0,0,0,0,0,0,0,0,0,0,0,0,0,0,0,0,0,0,0,0,0,0,0,0,0,0,
0,0,0,0,0,0,0,0,0,0,0,0,0,0,0,0,0,0,0,0,0,0,0,0,0,0,0,0,0,0,0,0,0,0,0,0,0,0,0,0,0,0,0,0,0,0,0,0,0,0,0,0,0,0,0,0,0,0,0,0,0,0,
0,0,0,0,0,0,0,0,0,0,0,0,0,0,0,0,0,0,0,0,0,0,0,0,0,0,0,0,0,0,0,0,0,0,0,0,0,0,0,0,0,0,0,0,0,0,0,0,0,0,0,0,0,0,0,0,0,0,0,0,0,0,
0,0,0,0,0,0,0,0,0,0,0,0,0,0,0,0,0,0,0,0,0,0,0,0,0,0,0,0,0,0,0,0,0,0,0,0,0,0,0,0,0,0,0,0,0,0,0,0,0,0,0,0,0,0,0,0,0,0,0,0,0,0,
0,0,0,0,0,0,0,0,0,0,0,0,0,0,0,0,0,0,0,0,0,0,0,0,0,0,0,0,0,0,0,0,0,0,0,0,0,0,0,0,0,0,0,0,0,0,0,0,0,0,0,0,0,0,0,0,0,0,0,0,0,0,
0,0,0,0,0,0,0,0,0,0,0,0,0,0,0,0,0,0,0,0,0,0,0,0,0,0,0,0,0,0,0,0,0,0,0,0,0,0,0,0,0,0,0,0,0,0,0,0,0,0,0,0,0,0,0,0,0,0,0,0,0,0,
0,0,0,0,0,0,0,0,0,0,0,0,0,0,0,0,0,0,0,0,0,0,0,0,0,0,0,0,0,0,0,0,0,0,0,0,0,0,0,0,0,0,0,0,0,0,0,0,0,0,0,0,0,0,0,0,0,0,0,0,0,0,
0,0,0,0,0,0,0,0,0,0,0,0,0,0,0,0,0,0,0,0,0,0,0,0,0,0,0,0,0,0,0,0,0,0,0,0,0,0,0,0,0,0,0,0,0,0,0,0,0,0,0,0,0,0,0,0,0,0,0,0,0,0,
0,0,0,0,0,0,0,0,0,0,0,0,0,0,0,0,0,0,0,0,0,0,0,0,0,0,0,0,0,0,0,0,0,0,0,0,0,0,0,0,0,0,0,0,0,0,0,0,0,0,0,0,0,0,0,0,0,0,0,0,0,0,
0,0,0,0,0,0,0,0,0,0,0,0,0,0,0,0,0,0,0,0,0,0,0,0,0,0,0,0,0,0,0,0,0,0,0,0,0,0,0,0,0,0,0,0,0,0,0,0,0,0,0,0,0,0,0,0,0,0,0,0,0,0,
0,0,0,0,0,0,0,0,0,0,0,0,0,0,0,0,0,0,0,0,0,0,0,0,0,0,0,0,0,0,0,0,0,0,0,0,0,0,0,0,0,0,0,0,0,0,0,0,0,0,0,0,0,0,0,0,0,0,0,0,0,0
</data>
 </layer>
 <layer id="3" name="Buildings" width="62" height="50">
  <data encoding="csv">
422,422,422,422,422,422,148,149,422,422,422,422,422,148,149,148,148,149,422,422,422,422,131,132,148,131,132,148,149,131,132,131,132,131,132,148,149,216,0,0,205,216,422,422,422,422,422,422,422,422,422,422,422,422,422,422,422,325,141,0,0,141,
132,131,132,131,132,422,131,132,131,132,422,422,422,0,149,422,422,148,149,148,149,422,148,149,422,148,149,422,422,148,149,148,149,148,149,148,149,148,149,148,149,148,422,422,422,422,422,422,422,422,422,422,422,422,422,422,422,325,141,0,0,141,
149,148,149,148,149,422,148,149,148,149,131,132,422,131,132,131,132,131,132,131,132,131,132,422,422,235,422,214,215,167,168,169,170,171,269,0,0,0,0,0,0,216,148,149,148,149,131,148,149,148,149,148,149,148,149,422,422,325,141,0,0,141,
232,0,231,232,0,0,0,0,0,0,148,149,422,148,149,148,149,148,149,148,149,148,149,422,214,215,222,231,232,201,202,203,204,269,222,0,2147483836,2147483835,2147483834,2147483833,2147483832,214,215,422,214,215,422,131,132,0,131,132,0,131,132,216,422,325,141,0,0,141,
118,0,0,0,0,0,0,0,0,422,235,231,232,422,0,0,0,0,0,0,0,0,0,205,231,232,0,0,0,218,219,220,221,205,0,0,2147484070,2147483852,2147483885,2147483884,2147483849,231,232,205,231,232,422,148,149,215,148,149,422,148,149,214,215,325,141,0,0,141,
107,0,0,0,0,0,0,0,0,0,0,0,0,0,0,0,0,0,0,0,0,0,205,0,0,0,0,0,0,0,0,0,0,0,0,0,2147484070,2147483869,2147483868,2147483867,2147483866,0,0,214,215,216,222,205,231,232,422,222,422,422,422,231,232,325,141,0,0,141,
86,0,0,0,0,0,0,0,0,0,0,0,0,0,0,0,0,0,0,0,0,0,0,0,0,0,0,0,0,0,0,0,0,0,0,0,0,0,0,0,0,0,0,231,232,235,422,422,422,422,422,422,0,0,0,0,0,325,141,0,0,141,
206,206,223,223,206,206,223,240,0,0,0,0,0,0,0,0,0,0,0,0,0,0,0,0,0,0,0,0,0,0,0,0,0,0,0,0,0,0,0,0,0,0,0,0,0,0,0,0,0,0,0,0,0,0,0,0,0,325,141,0,0,141,
141,141,141,141,141,141,141,257,240,0,0,0,0,0,0,0,0,0,0,0,0,0,0,0,0,0,0,0,0,0,0,0,0,0,0,0,0,0,0,0,0,0,0,0,0,0,0,0,0,0,0,0,0,0,0,0,0,325,141,0,0,141,
0,0,0,0,0,0,141,141,274,0,0,0,0,0,0,0,0,0,0,0,0,0,0,0,0,0,0,0,0,0,0,0,0,0,0,0,0,0,0,0,0,0,0,0,0,0,0,0,0,0,0,0,0,0,0,0,0,325,141,0,0,141,
0,0,0,0,0,0,0,141,274,0,0,0,0,0,0,0,0,0,0,0,0,0,0,0,0,0,0,0,0,0,0,0,0,0,0,0,0,0,0,0,0,0,0,0,0,0,0,0,0,0,0,0,0,0,0,0,0,325,141,0,0,141,
0,0,0,0,0,0,0,141,274,0,0,0,0,0,0,0,0,0,0,0,0,0,0,0,0,0,0,0,0,216,0,0,0,0,0,0,0,0,0,0,0,0,0,0,0,0,0,0,0,0,0,0,0,0,0,0,0,325,141,0,0,141,
0,0,0,0,0,0,0,141,274,0,0,0,0,0,0,0,0,0,0,0,0,0,0,0,0,0,0,0,0,0,0,0,0,0,0,0,0,0,0,0,0,0,0,0,0,0,0,0,0,0,0,0,0,0,0,0,0,325,141,141,141,141,
0,0,0,0,0,0,0,141,274,0,0,0,0,0,0,0,0,0,0,0,0,0,0,0,0,0,0,0,0,0,0,0,0,0,0,0,0,0,0,0,0,0,0,0,0,0,0,0,0,0,0,0,0,0,0,0,0,325,0,0,0,0,
0,0,0,0,0,0,0,141,274,0,0,0,0,0,0,0,0,0,0,0,0,0,0,0,0,0,0,0,0,0,0,0,0,0,0,0,0,0,0,0,0,0,0,0,0,0,0,0,0,0,0,0,0,0,0,0,0,325,141,141,141,141,
0,0,0,0,0,0,0,141,274,0,0,0,0,0,0,0,0,0,0,0,0,0,0,0,0,0,0,0,0,0,0,0,0,0,0,0,0,0,0,0,0,0,0,0,0,0,0,0,0,0,0,0,0,0,0,0,0,325,141,0,0,141,
0,0,0,0,0,0,0,141,257,240,0,359,360,361,348,0,0,0,0,0,0,0,0,0,0,0,0,0,0,0,0,0,0,0,0,0,0,0,0,0,0,0,0,0,125,126,127,125,126,127,0,0,0,0,0,0,0,325,141,0,0,141,
0,0,0,0,0,0,0,141,141,257,206,206,206,206,206,223,240,0,0,0,0,0,0,0,0,0,0,0,0,0,0,0,0,0,0,0,0,0,0,0,0,0,0,0,142,145,318,159,160,161,0,0,0,0,0,0,0,325,141,0,0,141,
0,0,0,0,0,0,0,0,141,141,0,0,0,0,0,141,257,240,0,0,0,0,0,0,0,0,0,0,0,0,0,0,0,0,0,0,0,0,0,0,0,0,0,0,159,319,144,0,0,0,0,0,0,0,0,0,0,325,141,0,0,141,
0,0,0,0,0,0,0,0,0,0,0,0,0,0,0,141,141,257,240,0,0,0,0,0,0,0,0,0,0,0,0,0,0,0,0,0,0,0,0,0,0,0,0,125,126,336,335,126,127,0,0,0,0,0,0,0,291,308,141,0,0,141,
0,0,0,0,0,0,0,0,0,0,0,0,0,0,0,0,141,141,257,240,0,0,0,0,0,0,0,0,0,0,0,0,0,0,0,0,0,0,0,0,0,0,0,142,0,0,0,0,144,0,0,0,0,0,0,0,325,141,141,0,0,141,
0,0,0,0,0,0,0,0,0,0,0,0,0,0,0,0,0,141,141,257,223,206,206,223,206,206,206,206,206,223,206,206,223,240,0,0,0,0,0,0,0,0,0,142,0,0,0,0,318,0,0,0,0,0,2147483883,0,325,141,0,0,0,141,
0,0,0,0,0,0,0,0,0,0,0,0,0,0,0,0,0,0,0,0,0,0,0,0,0,0,0,0,0,141,141,141,141,257,240,0,0,0,0,0,0,0,0,159,160,160,160,160,161,0,0,0,0,0,0,0,325,141,0,0,0,141,
0,0,0,0,0,0,0,0,0,0,0,0,0,0,0,0,0,0,0,0,0,0,0,0,0,0,0,0,0,0,0,0,141,141,257,240,0,0,0,0,0,0,0,0,0,0,0,0,0,0,0,0,0,0,0,291,308,141,0,0,0,141,
0,0,0,0,0,0,0,0,0,0,0,0,0,0,0,0,0,0,0,0,0,0,0,0,0,0,0,0,0,0,0,0,0,141,141,257,240,0,0,0,0,0,0,0,0,0,0,0,0,0,0,0,0,0,291,308,141,141,0,0,0,0,
0,0,0,0,0,0,0,0,0,0,0,0,0,0,0,0,0,0,0,0,0,0,0,0,0,0,0,0,0,0,0,0,0,0,141,141,257,223,223,206,223,206,223,206,206,223,206,223,206,223,206,223,206,223,308,141,141,0,0,0,0,0,
0,0,0,0,0,0,0,0,0,0,0,0,0,0,0,0,0,0,0,0,0,0,0,0,0,0,0,0,0,0,0,0,0,0,0,141,141,141,141,141,141,141,141,141,141,141,141,141,141,141,141,141,141,141,141,141,0,0,0,0,0,0,
0,0,0,0,0,0,0,0,0,0,0,0,0,0,0,0,0,0,0,0,0,0,0,0,0,0,0,0,0,0,0,0,0,0,0,0,0,0,0,0,0,0,0,0,0,0,0,0,0,0,0,0,0,0,0,0,0,0,0,0,0,0,
0,0,0,0,0,0,0,0,0,0,0,0,0,0,0,0,0,0,0,0,0,0,0,0,0,0,0,0,0,0,0,0,0,0,0,0,0,0,0,0,0,0,0,0,0,0,0,0,0,0,0,0,0,0,0,0,0,0,0,0,0,0,
0,0,0,0,0,0,0,0,0,0,0,0,0,0,0,0,0,0,0,0,0,0,0,0,0,0,0,0,0,0,0,0,0,0,0,0,0,0,0,0,0,0,0,0,0,0,0,0,0,0,0,0,0,0,0,0,0,0,0,0,0,0,
0,0,0,0,0,0,0,0,0,0,0,0,0,0,0,0,0,0,0,0,0,0,0,0,0,0,0,0,0,0,0,0,0,0,0,0,0,0,0,0,0,0,0,0,0,0,0,0,0,0,0,0,0,0,0,0,0,0,0,0,0,0,
0,0,0,0,0,0,0,0,0,0,0,0,0,0,0,0,0,0,0,0,0,0,0,0,0,0,0,0,0,0,0,0,0,0,0,0,0,0,0,0,0,0,0,0,0,0,0,0,0,0,0,0,0,0,0,0,0,0,0,0,0,0,
0,0,0,0,0,0,0,0,0,0,0,0,0,0,0,0,0,0,0,0,0,0,0,0,0,0,0,0,0,0,0,0,0,0,0,0,0,0,0,0,0,0,0,0,0,0,0,0,0,0,0,0,0,0,0,0,0,0,0,0,0,0,
0,0,0,0,0,0,0,0,0,0,0,0,0,0,0,0,0,0,0,0,0,0,0,0,0,0,0,0,0,0,0,0,0,0,0,0,0,0,0,0,0,0,0,0,0,0,0,0,0,0,0,0,0,0,0,0,0,0,0,0,0,0,
0,0,0,0,0,0,0,0,0,0,0,0,0,0,0,0,0,0,0,0,0,0,0,0,0,0,0,0,0,0,0,0,0,0,0,0,0,0,0,0,0,0,0,0,0,0,0,0,0,0,0,0,0,0,0,0,0,0,0,0,0,0,
0,0,0,0,0,0,0,0,0,0,0,0,0,0,0,0,0,0,0,0,0,0,0,0,0,0,0,0,0,0,0,0,0,0,0,0,0,0,0,0,0,0,0,0,0,0,0,0,0,0,0,0,0,0,0,0,0,0,0,0,0,0,
0,0,0,0,0,0,0,0,0,0,0,0,0,0,0,0,0,0,0,0,0,0,0,0,0,0,0,0,0,0,0,0,0,0,0,0,0,0,0,0,0,0,0,0,0,0,0,0,0,0,0,0,0,0,0,0,0,0,0,0,0,0,
0,0,0,0,0,0,0,0,0,0,0,0,0,0,0,0,0,0,0,0,0,0,0,0,0,0,0,0,0,0,0,0,0,0,0,0,0,0,0,0,0,0,0,0,0,0,0,0,0,0,0,0,0,0,0,0,0,0,0,0,0,0,
0,0,0,0,0,0,0,0,0,0,0,0,0,0,0,0,0,0,0,0,0,0,0,0,0,0,0,0,0,0,0,0,0,0,0,0,0,0,0,0,0,0,0,0,0,0,0,0,0,0,0,0,0,0,0,0,0,0,0,0,0,0,
0,0,0,0,0,0,0,0,0,0,0,0,0,0,0,0,0,0,0,0,0,0,0,0,0,0,0,0,0,0,0,0,0,0,0,0,0,0,0,0,0,0,0,0,0,0,0,0,0,0,0,0,0,0,0,0,0,0,0,0,0,0,
0,0,0,0,0,0,0,0,0,0,0,0,0,0,0,0,0,0,0,0,0,0,0,0,0,0,0,0,0,0,0,0,0,0,0,0,0,0,0,0,0,0,0,0,0,0,0,0,0,0,0,0,0,0,0,0,0,0,0,0,0,0,
0,0,0,0,0,0,0,0,0,0,0,0,0,0,0,0,0,0,0,0,0,0,0,0,0,0,0,0,0,0,0,0,0,0,0,0,0,0,0,0,0,0,0,0,0,0,0,0,0,0,0,0,0,0,0,0,0,0,0,0,0,0,
0,0,0,0,0,0,0,0,0,0,0,0,0,0,0,0,0,0,0,0,0,0,0,0,0,0,0,0,0,0,0,0,0,0,0,0,0,0,0,0,0,0,0,0,0,0,0,0,0,0,0,0,0,0,0,0,0,0,0,0,0,0,
0,0,0,0,0,0,0,0,0,0,0,0,0,0,0,0,0,0,0,0,0,0,0,0,0,0,0,0,0,0,0,0,0,0,0,0,0,0,0,0,0,0,0,0,0,0,0,0,0,0,0,0,0,0,0,0,0,0,0,0,0,0,
0,0,0,0,0,0,0,0,0,0,0,0,0,0,0,0,0,0,0,0,0,0,0,0,0,0,0,0,0,0,0,0,0,0,0,0,0,0,0,0,0,0,0,0,0,0,0,0,0,0,0,0,0,0,0,0,0,0,0,0,0,0,
0,0,0,0,0,0,0,0,0,0,0,0,0,0,0,0,0,0,0,0,0,0,0,0,0,0,0,0,0,0,0,0,0,0,0,0,0,0,0,0,0,0,0,0,0,0,0,0,0,0,0,0,0,0,0,0,0,0,0,0,0,0,
0,0,0,0,0,0,0,0,0,0,0,0,0,0,0,0,0,0,0,0,0,0,0,0,0,0,0,0,0,0,0,0,0,0,0,0,0,0,0,0,0,0,0,0,0,0,0,0,0,0,0,0,0,0,0,0,0,0,0,0,0,0,
0,0,0,0,0,0,0,0,0,0,0,0,0,0,0,0,0,0,0,0,0,0,0,0,0,0,0,0,0,0,0,0,0,0,0,0,0,0,0,0,0,0,0,0,0,0,0,0,0,0,0,0,0,0,0,0,0,0,0,0,0,0,
0,0,0,0,0,0,0,0,0,0,0,0,0,0,0,0,0,0,0,0,0,0,0,0,0,0,0,0,0,0,0,0,0,0,0,0,0,0,0,0,0,0,0,0,0,0,0,0,0,0,0,0,0,0,0,0,0,0,0,0,0,0,
0,0,0,0,0,0,0,0,0,0,0,0,0,0,0,0,0,0,0,0,0,0,0,0,0,0,0,0,0,0,0,0,0,0,0,0,0,0,0,0,0,0,0,0,0,0,0,0,0,0,0,0,0,0,0,0,0,0,0,0,0,0
</data>
 </layer>
 <layer id="4" name="Buildings2" width="62" height="50">
  <properties>
   <property name="Draw" value="Buildings"/>
  </properties>
  <data encoding="csv">
0,0,0,0,0,0,0,0,0,0,0,0,0,0,0,0,0,0,0,0,0,0,0,0,0,0,0,0,0,0,0,0,0,0,0,0,0,0,0,0,0,0,0,0,0,0,0,0,0,0,0,0,0,0,0,0,0,0,0,0,0,0,
0,0,0,0,0,0,0,0,0,0,0,0,0,0,0,0,0,0,0,0,0,0,0,0,0,0,0,0,0,0,0,0,0,0,0,0,0,0,0,0,0,0,0,0,0,0,0,0,0,0,0,0,0,0,0,0,0,0,0,0,0,0,
0,0,0,0,0,0,0,0,0,0,0,0,0,0,0,0,0,0,0,0,0,0,0,0,0,0,0,0,0,0,0,0,0,0,0,0,0,0,0,0,0,0,0,0,0,0,0,0,0,0,0,0,0,0,0,0,0,0,0,0,0,0,
0,0,0,0,0,0,0,0,0,0,0,0,0,0,0,0,0,0,0,0,0,0,0,0,0,0,0,0,0,0,0,0,0,0,0,0,0,0,0,0,0,0,0,0,0,0,0,0,0,0,0,0,0,0,0,0,0,0,0,0,0,0,
0,0,0,0,0,0,0,0,0,0,0,0,0,0,0,0,0,0,0,0,0,0,0,0,0,0,0,0,0,0,0,0,0,0,0,0,0,0,0,0,0,0,0,0,0,0,0,0,0,0,0,0,0,0,0,0,0,0,0,0,0,0,
0,0,0,0,0,0,0,0,0,0,0,0,0,0,0,0,0,0,0,0,0,0,0,0,0,0,0,0,0,0,0,0,0,0,0,0,0,0,0,0,0,0,0,0,0,0,0,0,0,0,0,0,0,0,0,0,0,0,0,0,0,0,
0,0,0,0,0,0,0,0,0,0,0,0,0,0,0,0,0,0,0,0,0,0,0,0,0,0,0,0,0,0,0,0,0,0,0,0,0,0,0,0,0,0,0,0,0,0,0,0,0,0,0,0,0,0,0,0,0,0,0,0,0,0,
0,0,0,0,0,0,0,0,0,0,0,0,0,0,0,0,0,0,0,0,0,0,0,0,0,0,0,0,0,0,0,0,0,0,0,0,0,0,0,0,0,0,0,0,0,0,0,0,0,0,0,0,0,0,0,0,0,0,0,0,0,0,
0,0,0,0,0,0,0,0,0,0,0,0,0,0,0,0,0,0,0,0,0,0,0,0,0,0,0,0,0,0,0,0,0,0,0,0,0,0,0,0,0,0,0,0,0,0,0,0,0,0,0,0,0,0,0,0,0,0,0,0,0,0,
0,0,0,0,0,0,0,0,0,0,0,0,0,0,0,0,0,0,0,0,0,0,0,0,0,0,0,0,0,0,0,0,0,0,0,0,0,0,0,0,0,0,0,0,0,0,0,0,0,0,0,0,0,0,0,0,0,0,0,0,0,0,
0,0,0,0,0,0,0,0,0,0,0,0,0,0,0,0,0,0,0,0,0,0,0,0,0,0,0,0,0,0,0,0,0,0,0,0,0,0,0,0,0,0,0,0,0,0,0,0,0,0,0,0,0,0,0,0,0,0,0,0,0,0,
0,0,0,0,0,0,0,0,0,0,0,0,0,0,0,0,0,0,0,0,0,0,0,0,0,0,0,0,0,0,0,0,0,0,0,0,0,0,0,0,0,0,0,0,0,0,0,0,0,0,0,0,0,0,0,0,0,0,0,0,0,0,
0,0,0,0,0,0,0,0,0,0,0,0,0,0,0,0,0,0,0,0,0,0,0,0,0,0,0,0,0,0,0,0,0,0,0,0,0,0,0,0,0,0,0,0,0,0,0,0,0,0,0,0,0,0,0,0,0,0,0,0,0,0,
0,0,0,0,0,0,0,0,0,0,0,0,0,0,0,0,0,0,0,0,0,0,0,0,0,0,0,0,0,0,0,0,0,0,0,0,0,0,0,0,0,0,0,0,0,0,0,0,0,0,0,0,0,0,0,0,0,0,0,0,0,0,
0,0,0,0,0,0,0,0,0,0,0,0,0,0,0,0,0,0,0,0,0,0,0,0,0,0,0,0,0,0,0,0,0,0,0,0,0,0,0,0,0,0,0,0,0,0,0,0,0,0,0,0,0,0,0,0,0,0,0,0,0,0,
0,0,0,0,0,0,0,0,0,0,0,0,0,0,0,0,0,0,0,0,0,0,0,0,0,0,0,0,0,0,0,0,0,0,0,0,0,0,0,0,0,0,0,0,0,0,0,0,0,0,0,0,0,0,0,0,0,0,0,0,0,0,
0,0,0,0,0,0,0,0,0,0,0,0,0,0,0,0,0,0,0,0,0,0,0,0,0,0,0,0,0,0,0,0,0,0,0,0,0,0,0,0,0,0,0,0,0,0,0,0,0,0,0,0,0,0,0,0,0,0,0,0,0,0,
0,0,0,0,0,0,0,0,0,0,0,376,377,378,0,0,0,0,0,0,0,0,0,0,0,0,0,0,0,0,0,0,0,0,0,0,0,0,0,0,0,0,0,0,0,0,0,0,0,0,0,0,0,0,0,0,0,0,0,0,0,0,
0,0,0,0,0,0,0,0,0,0,0,0,0,0,0,0,0,0,0,0,0,0,0,0,0,0,0,0,0,0,0,0,0,0,0,0,0,0,0,0,0,0,0,0,0,0,0,0,0,0,0,0,0,0,0,0,0,0,0,0,0,0,
0,0,0,0,0,0,0,0,0,0,0,0,0,0,0,0,0,0,0,0,0,0,0,0,0,0,0,0,0,0,0,0,0,0,0,0,0,0,0,0,0,0,0,0,0,0,0,0,0,0,0,0,0,0,0,0,0,0,0,0,0,0,
0,0,0,0,0,0,0,0,0,0,0,0,0,0,0,0,0,0,0,0,0,0,0,0,0,0,0,0,0,0,0,0,0,0,0,0,0,0,0,0,0,0,0,0,0,0,0,0,0,0,0,0,0,0,0,0,0,0,0,0,0,0,
0,0,0,0,0,0,0,0,0,0,0,0,0,0,0,0,0,0,0,0,0,0,0,0,0,0,0,0,0,0,0,0,0,0,0,0,0,0,0,0,0,0,0,0,0,0,0,0,0,0,0,0,0,0,0,0,0,0,0,0,0,0,
0,0,0,0,0,0,0,0,0,0,0,0,0,0,0,0,0,0,0,0,0,0,0,0,0,0,0,0,0,0,0,0,0,0,0,0,0,0,0,0,0,0,0,0,0,0,0,0,0,0,0,0,0,0,0,0,0,0,0,0,0,0,
0,0,0,0,0,0,0,0,0,0,0,0,0,0,0,0,0,0,0,0,0,0,0,0,0,0,0,0,0,0,0,0,0,0,0,0,0,0,0,0,0,0,0,0,0,0,0,0,0,0,0,0,0,0,0,0,0,0,0,0,0,0,
0,0,0,0,0,0,0,0,0,0,0,0,0,0,0,0,0,0,0,0,0,0,0,0,0,0,0,0,0,0,0,0,0,0,0,0,0,0,0,0,0,0,0,0,0,0,0,0,0,0,0,0,0,0,0,0,0,0,0,0,0,0,
0,0,0,0,0,0,0,0,0,0,0,0,0,0,0,0,0,0,0,0,0,0,0,0,0,0,0,0,0,0,0,0,0,0,0,0,0,0,0,0,0,0,0,0,0,0,0,0,0,0,0,0,0,0,0,0,0,0,0,0,0,0,
0,0,0,0,0,0,0,0,0,0,0,0,0,0,0,0,0,0,0,0,0,0,0,0,0,0,0,0,0,0,0,0,0,0,0,0,0,0,0,0,0,0,0,0,0,0,0,0,0,0,0,0,0,0,0,0,0,0,0,0,0,0,
0,0,0,0,0,0,0,0,0,0,0,0,0,0,0,0,0,0,0,0,0,0,0,0,0,0,0,0,0,0,0,0,0,0,0,0,0,0,0,0,0,0,0,0,0,0,0,0,0,0,0,0,0,0,0,0,0,0,0,0,0,0,
0,0,0,0,0,0,0,0,0,0,0,0,0,0,0,0,0,0,0,0,0,0,0,0,0,0,0,0,0,0,0,0,0,0,0,0,0,0,0,0,0,0,0,0,0,0,0,0,0,0,0,0,0,0,0,0,0,0,0,0,0,0,
0,0,0,0,0,0,0,0,0,0,0,0,0,0,0,0,0,0,0,0,0,0,0,0,0,0,0,0,0,0,0,0,0,0,0,0,0,0,0,0,0,0,0,0,0,0,0,0,0,0,0,0,0,0,0,0,0,0,0,0,0,0,
0,0,0,0,0,0,0,0,0,0,0,0,0,0,0,0,0,0,0,0,0,0,0,0,0,0,0,0,0,0,0,0,0,0,0,0,0,0,0,0,0,0,0,0,0,0,0,0,0,0,0,0,0,0,0,0,0,0,0,0,0,0,
0,0,0,0,0,0,0,0,0,0,0,0,0,0,0,0,0,0,0,0,0,0,0,0,0,0,0,0,0,0,0,0,0,0,0,0,0,0,0,0,0,0,0,0,0,0,0,0,0,0,0,0,0,0,0,0,0,0,0,0,0,0,
0,0,0,0,0,0,0,0,0,0,0,0,0,0,0,0,0,0,0,0,0,0,0,0,0,0,0,0,0,0,0,0,0,0,0,0,0,0,0,0,0,0,0,0,0,0,0,0,0,0,0,0,0,0,0,0,0,0,0,0,0,0,
0,0,0,0,0,0,0,0,0,0,0,0,0,0,0,0,0,0,0,0,0,0,0,0,0,0,0,0,0,0,0,0,0,0,0,0,0,0,0,0,0,0,0,0,0,0,0,0,0,0,0,0,0,0,0,0,0,0,0,0,0,0,
0,0,0,0,0,0,0,0,0,0,0,0,0,0,0,0,0,0,0,0,0,0,0,0,0,0,0,0,0,0,0,0,0,0,0,0,0,0,0,0,0,0,0,0,0,0,0,0,0,0,0,0,0,0,0,0,0,0,0,0,0,0,
0,0,0,0,0,0,0,0,0,0,0,0,0,0,0,0,0,0,0,0,0,0,0,0,0,0,0,0,0,0,0,0,0,0,0,0,0,0,0,0,0,0,0,0,0,0,0,0,0,0,0,0,0,0,0,0,0,0,0,0,0,0,
0,0,0,0,0,0,0,0,0,0,0,0,0,0,0,0,0,0,0,0,0,0,0,0,0,0,0,0,0,0,0,0,0,0,0,0,0,0,0,0,0,0,0,0,0,0,0,0,0,0,0,0,0,0,0,0,0,0,0,0,0,0,
0,0,0,0,0,0,0,0,0,0,0,0,0,0,0,0,0,0,0,0,0,0,0,0,0,0,0,0,0,0,0,0,0,0,0,0,0,0,0,0,0,0,0,0,0,0,0,0,0,0,0,0,0,0,0,0,0,0,0,0,0,0,
0,0,0,0,0,0,0,0,0,0,0,0,0,0,0,0,0,0,0,0,0,0,0,0,0,0,0,0,0,0,0,0,0,0,0,0,0,0,0,0,0,0,0,0,0,0,0,0,0,0,0,0,0,0,0,0,0,0,0,0,0,0,
0,0,0,0,0,0,0,0,0,0,0,0,0,0,0,0,0,0,0,0,0,0,0,0,0,0,0,0,0,0,0,0,0,0,0,0,0,0,0,0,0,0,0,0,0,0,0,0,0,0,0,0,0,0,0,0,0,0,0,0,0,0,
0,0,0,0,0,0,0,0,0,0,0,0,0,0,0,0,0,0,0,0,0,0,0,0,0,0,0,0,0,0,0,0,0,0,0,0,0,0,0,0,0,0,0,0,0,0,0,0,0,0,0,0,0,0,0,0,0,0,0,0,0,0,
0,0,0,0,0,0,0,0,0,0,0,0,0,0,0,0,0,0,0,0,0,0,0,0,0,0,0,0,0,0,0,0,0,0,0,0,0,0,0,0,0,0,0,0,0,0,0,0,0,0,0,0,0,0,0,0,0,0,0,0,0,0,
0,0,0,0,0,0,0,0,0,0,0,0,0,0,0,0,0,0,0,0,0,0,0,0,0,0,0,0,0,0,0,0,0,0,0,0,0,0,0,0,0,0,0,0,0,0,0,0,0,0,0,0,0,0,0,0,0,0,0,0,0,0,
0,0,0,0,0,0,0,0,0,0,0,0,0,0,0,0,0,0,0,0,0,0,0,0,0,0,0,0,0,0,0,0,0,0,0,0,0,0,0,0,0,0,0,0,0,0,0,0,0,0,0,0,0,0,0,0,0,0,0,0,0,0,
0,0,0,0,0,0,0,0,0,0,0,0,0,0,0,0,0,0,0,0,0,0,0,0,0,0,0,0,0,0,0,0,0,0,0,0,0,0,0,0,0,0,0,0,0,0,0,0,0,0,0,0,0,0,0,0,0,0,0,0,0,0,
0,0,0,0,0,0,0,0,0,0,0,0,0,0,0,0,0,0,0,0,0,0,0,0,0,0,0,0,0,0,0,0,0,0,0,0,0,0,0,0,0,0,0,0,0,0,0,0,0,0,0,0,0,0,0,0,0,0,0,0,0,0,
0,0,0,0,0,0,0,0,0,0,0,0,0,0,0,0,0,0,0,0,0,0,0,0,0,0,0,0,0,0,0,0,0,0,0,0,0,0,0,0,0,0,0,0,0,0,0,0,0,0,0,0,0,0,0,0,0,0,0,0,0,0,
0,0,0,0,0,0,0,0,0,0,0,0,0,0,0,0,0,0,0,0,0,0,0,0,0,0,0,0,0,0,0,0,0,0,0,0,0,0,0,0,0,0,0,0,0,0,0,0,0,0,0,0,0,0,0,0,0,0,0,0,0,0,
0,0,0,0,0,0,0,0,0,0,0,0,0,0,0,0,0,0,0,0,0,0,0,0,0,0,0,0,0,0,0,0,0,0,0,0,0,0,0,0,0,0,0,0,0,0,0,0,0,0,0,0,0,0,0,0,0,0,0,0,0,0,
0,0,0,0,0,0,0,0,0,0,0,0,0,0,0,0,0,0,0,0,0,0,0,0,0,0,0,0,0,0,0,0,0,0,0,0,0,0,0,0,0,0,0,0,0,0,0,0,0,0,0,0,0,0,0,0,0,0,0,0,0,0
</data>
 </layer>
 <layer id="5" name="Front" width="62" height="50">
  <data encoding="csv">
95,96,98,98,98,96,96,98,98,96,98,98,97,94,98,98,96,98,98,96,98,114,96,98,98,98,96,98,96,98,98,98,96,98,96,98,96,98,96,98,98,95,98,95,98,95,95,96,95,98,95,95,96,98,95,96,98,114,0,0,0,0,
112,113,129,130,112,113,113,129,130,98,98,98,98,111,98,96,98,96,98,98,95,98,96,98,112,113,129,130,112,113,129,130,112,113,112,113,112,113,112,113,112,98,98,98,95,98,95,98,96,95,95,98,95,95,96,98,97,0,0,0,0,0,
215,0,214,215,0,0,0,0,0,111,112,113,114,112,113,129,130,129,130,129,130,129,130,114,0,0,0,0,0,0,0,0,0,0,0,0,0,0,0,0,0,111,112,129,130,113,98,98,98,96,98,98,98,95,98,98,97,0,0,0,0,0,
0,0,0,0,0,0,0,0,0,0,0,214,215,0,0,0,0,0,0,0,0,0,0,0,0,0,0,0,0,0,0,0,0,0,0,0,0,0,0,0,0,0,0,0,0,0,111,112,129,130,129,130,112,113,112,130,114,0,0,0,0,0,
0,0,0,0,0,0,0,0,0,0,0,0,0,0,0,0,0,0,0,0,0,0,0,0,0,0,0,0,0,0,0,0,0,0,0,0,0,0,0,0,0,0,0,0,0,0,269,0,0,0,273,0,0,0,0,0,0,0,0,0,0,0,
0,0,0,0,0,0,0,0,0,0,0,0,0,0,0,0,0,0,0,0,0,0,0,0,0,0,0,0,0,0,0,0,0,0,0,0,0,0,0,0,0,0,0,0,0,0,0,0,0,0,0,0,0,0,0,0,0,0,0,0,0,0,
0,0,0,0,0,0,0,0,0,0,0,0,0,0,0,0,0,0,0,0,0,0,0,0,0,0,0,0,0,0,0,0,0,0,0,0,0,0,0,0,0,0,0,0,0,0,0,0,0,0,0,0,0,0,0,0,0,0,0,0,0,0,
0,0,0,0,0,0,0,0,0,0,0,0,0,0,0,0,0,0,0,0,0,0,0,0,0,0,0,0,0,0,0,0,0,0,0,0,0,0,0,0,0,0,0,0,0,0,0,0,0,0,0,0,0,0,0,0,0,0,0,0,0,0,
0,0,0,0,0,0,0,0,0,0,0,0,0,0,0,0,0,0,0,0,0,0,0,0,0,0,0,0,0,0,0,0,0,0,0,0,0,0,0,0,0,0,0,0,0,0,0,0,0,0,0,0,0,0,0,0,0,0,0,0,0,0,
0,0,0,0,0,0,0,0,0,0,0,0,0,0,0,0,0,0,0,0,0,0,0,0,0,0,0,0,0,0,0,0,0,0,0,0,0,0,0,0,0,0,0,0,0,0,0,0,0,0,0,0,0,0,0,0,0,0,0,0,0,0,
0,0,0,0,0,0,0,0,0,0,0,0,0,0,0,0,0,0,0,0,0,0,0,0,0,0,0,0,0,0,0,0,0,0,0,0,0,0,0,0,0,0,0,0,0,0,0,0,0,0,0,0,0,0,0,0,0,0,0,0,0,0,
0,0,0,0,0,0,0,0,0,0,0,0,0,0,0,0,0,0,0,0,0,0,0,0,0,0,0,0,0,0,0,0,0,0,0,0,0,0,0,0,0,0,0,0,0,0,0,0,0,0,0,0,0,0,0,0,0,0,0,0,0,0,
0,0,0,0,0,0,0,0,0,0,0,0,0,0,0,0,0,0,0,0,0,0,0,0,0,0,0,0,0,0,0,0,0,0,0,0,0,0,0,0,0,0,0,0,0,0,0,0,0,0,0,0,0,0,0,0,0,0,0,0,0,0,
0,0,0,0,0,0,0,0,0,0,0,0,0,0,0,0,0,0,0,0,0,0,0,0,0,0,0,0,0,0,0,0,0,0,0,0,0,0,0,0,0,0,0,0,0,0,0,0,0,0,0,0,0,0,0,0,0,0,0,0,0,0,
0,0,0,0,0,0,0,0,0,0,0,0,0,0,0,0,0,0,0,0,0,0,0,0,0,0,0,0,0,0,0,0,0,0,0,0,0,0,0,0,0,0,0,0,0,0,0,0,0,0,0,0,0,0,0,0,0,0,0,0,0,0,
0,0,0,0,0,0,0,0,0,0,0,0,0,0,0,0,0,0,0,0,0,0,0,0,0,0,0,0,0,0,0,0,0,0,0,0,0,0,0,0,0,0,0,0,0,0,0,0,0,0,0,0,0,0,0,0,0,0,0,0,0,0,
0,0,0,0,0,0,0,0,0,0,0,0,0,0,0,0,0,0,0,0,0,0,0,0,0,0,0,0,0,0,0,0,0,0,0,0,0,0,0,0,0,0,0,0,0,0,0,0,0,0,0,0,0,0,0,0,0,0,0,0,0,0,
0,0,0,0,0,0,0,0,0,0,0,0,0,0,0,0,0,0,0,0,0,0,0,0,0,0,0,0,0,0,0,0,0,0,0,0,0,0,0,0,0,0,0,0,0,0,0,0,0,0,0,0,0,0,0,0,0,0,0,0,0,0,
0,0,0,0,0,0,0,0,0,0,0,0,0,0,0,0,0,0,0,0,0,0,0,0,0,0,0,0,0,0,0,0,0,0,0,0,0,0,0,0,0,0,0,0,0,0,0,0,0,0,0,0,0,0,0,0,0,0,0,0,0,0,
0,0,0,0,0,0,0,0,0,0,0,0,0,0,0,0,0,0,0,0,0,0,0,0,0,0,0,0,0,0,0,0,0,0,0,0,0,0,0,0,0,0,0,0,0,0,0,0,0,0,0,0,0,0,0,0,0,0,0,0,0,0,
0,0,0,0,0,0,0,0,0,0,0,0,0,0,0,0,0,0,0,0,0,0,0,0,0,0,0,0,0,0,0,0,0,0,0,0,0,0,0,0,0,0,0,0,0,0,0,0,0,0,0,0,0,0,0,0,0,0,0,0,0,0,
0,0,0,0,0,0,0,0,0,0,0,0,0,0,0,0,0,0,0,0,0,0,0,0,0,0,0,0,0,0,0,0,0,0,0,0,0,0,0,0,0,0,0,0,0,0,0,0,0,0,0,0,0,0,0,0,0,0,0,0,0,0,
0,0,0,0,0,0,0,0,0,0,0,0,0,0,0,0,0,0,0,0,0,0,0,0,0,0,0,0,0,0,0,0,0,0,0,0,0,0,0,0,0,0,0,0,0,0,0,0,0,0,0,0,0,0,0,0,0,0,0,0,0,0,
0,0,0,0,0,0,0,0,0,0,0,0,0,0,0,0,0,0,0,0,0,0,0,0,0,0,0,0,0,0,0,0,0,0,0,0,0,0,0,0,0,0,0,0,0,0,0,0,0,0,0,0,0,0,0,0,0,0,0,0,0,0,
0,0,0,0,0,0,0,0,0,0,0,0,0,0,0,0,0,0,0,0,0,0,0,0,0,0,0,0,0,0,0,0,0,0,0,0,0,0,0,0,0,0,0,0,0,0,0,0,0,0,0,0,0,0,0,0,0,0,0,0,0,0,
0,0,0,0,0,0,0,0,0,0,0,0,0,0,0,0,0,0,0,0,0,0,0,0,0,0,0,0,0,0,0,0,0,0,0,0,0,0,0,0,0,0,0,0,0,0,0,0,0,0,0,0,0,0,0,0,0,0,0,0,0,0,
0,0,0,0,0,0,0,0,0,0,0,0,0,0,0,0,0,0,0,0,0,0,0,0,0,0,0,0,0,0,0,0,0,0,0,0,0,0,0,0,0,0,0,0,0,0,0,0,0,0,0,0,0,0,0,0,0,0,0,0,0,0,
0,0,0,0,0,0,0,0,0,0,0,0,0,0,0,0,0,0,0,0,0,0,0,0,0,0,0,0,0,0,0,0,0,0,0,0,0,0,0,0,0,0,0,0,0,0,0,0,0,0,0,0,0,0,0,0,0,0,0,0,0,0,
0,0,0,0,0,0,0,0,0,0,0,0,0,0,0,0,0,0,0,0,0,0,0,0,0,0,0,0,0,0,0,0,0,0,0,0,0,0,0,0,0,0,0,0,0,0,0,0,0,0,0,0,0,0,0,0,0,0,0,0,0,0,
0,0,0,0,0,0,0,0,0,0,0,0,0,0,0,0,0,0,0,0,0,0,0,0,0,0,0,0,0,0,0,0,0,0,0,0,0,0,0,0,0,0,0,0,0,0,0,0,0,0,0,0,0,0,0,0,0,0,0,0,0,0,
0,0,0,0,0,0,0,0,0,0,0,0,0,0,0,0,0,0,0,0,0,0,0,0,0,0,0,0,0,0,0,0,0,0,0,0,0,0,0,0,0,0,0,0,0,0,0,0,0,0,0,0,0,0,0,0,0,0,0,0,0,0,
0,0,0,0,0,0,0,0,0,0,0,0,0,0,0,0,0,0,0,0,0,0,0,0,0,0,0,0,0,0,0,0,0,0,0,0,0,0,0,0,0,0,0,0,0,0,0,0,0,0,0,0,0,0,0,0,0,0,0,0,0,0,
0,0,0,0,0,0,0,0,0,0,0,0,0,0,0,0,0,0,0,0,0,0,0,0,0,0,0,0,0,0,0,0,0,0,0,0,0,0,0,0,0,0,0,0,0,0,0,0,0,0,0,0,0,0,0,0,0,0,0,0,0,0,
0,0,0,0,0,0,0,0,0,0,0,0,0,0,0,0,0,0,0,0,0,0,0,0,0,0,0,0,0,0,0,0,0,0,0,0,0,0,0,0,0,0,0,0,0,0,0,0,0,0,0,0,0,0,0,0,0,0,0,0,0,0,
0,0,0,0,0,0,0,0,0,0,0,0,0,0,0,0,0,0,0,0,0,0,0,0,0,0,0,0,0,0,0,0,0,0,0,0,0,0,0,0,0,0,0,0,0,0,0,0,0,0,0,0,0,0,0,0,0,0,0,0,0,0,
0,0,0,0,0,0,0,0,0,0,0,0,0,0,0,0,0,0,0,0,0,0,0,0,0,0,0,0,0,0,0,0,0,0,0,0,0,0,0,0,0,0,0,0,0,0,0,0,0,0,0,0,0,0,0,0,0,0,0,0,0,0,
0,0,0,0,0,0,0,0,0,0,0,0,0,0,0,0,0,0,0,0,0,0,0,0,0,0,0,0,0,0,0,0,0,0,0,0,0,0,0,0,0,0,0,0,0,0,0,0,0,0,0,0,0,0,0,0,0,0,0,0,0,0,
0,0,0,0,0,0,0,0,0,0,0,0,0,0,0,0,0,0,0,0,0,0,0,0,0,0,0,0,0,0,0,0,0,0,0,0,0,0,0,0,0,0,0,0,0,0,0,0,247,248,249,0,0,0,0,0,0,0,0,0,0,0,
0,0,0,0,0,0,0,0,0,0,0,0,0,0,0,0,0,0,0,0,0,0,0,0,0,0,0,0,0,0,0,0,0,0,0,0,0,0,0,0,0,0,0,0,0,0,0,0,264,265,266,0,0,0,0,0,0,0,0,0,0,0,
0,0,0,0,0,0,0,0,0,0,0,0,0,0,0,0,0,0,0,0,0,0,0,0,0,0,0,0,0,0,0,0,0,0,0,0,0,0,0,0,0,0,0,0,0,0,0,0,281,282,283,0,0,0,0,0,0,0,0,0,0,0,
0,0,0,0,0,0,0,0,0,0,0,0,0,0,0,0,0,0,0,0,0,0,0,0,0,0,0,0,0,0,0,0,0,0,0,0,0,0,0,0,0,0,0,0,0,0,0,0,0,0,0,0,0,0,0,0,0,0,0,0,0,0,
0,0,0,0,0,0,0,0,0,0,0,0,0,0,0,0,0,0,0,0,0,0,0,0,0,0,0,0,0,0,0,0,0,0,0,0,0,0,0,0,0,0,0,0,0,0,0,0,0,0,0,0,0,0,0,0,0,0,0,0,0,0,
0,0,0,0,0,0,0,0,0,0,0,0,0,0,0,0,0,0,0,0,247,248,249,0,0,0,0,0,0,0,0,0,0,0,0,0,0,0,0,0,0,0,0,0,0,0,0,0,0,0,0,0,0,0,0,0,0,0,0,0,0,0,
0,0,0,0,0,0,0,0,0,0,0,0,0,0,0,0,0,0,0,0,264,265,266,0,0,0,0,0,0,0,0,0,0,0,0,0,0,0,0,0,0,0,0,0,0,0,0,0,0,0,0,0,0,0,0,0,0,0,0,0,0,0,
0,0,0,0,0,0,0,0,0,0,0,0,0,0,0,0,0,0,0,0,281,282,283,0,0,0,0,0,0,0,0,0,0,0,0,0,0,0,0,0,0,0,0,0,0,0,0,0,0,0,0,0,0,0,0,0,0,0,0,0,0,0,
0,0,0,0,0,0,0,0,0,0,0,0,0,0,0,0,0,0,0,0,0,0,0,0,0,0,0,0,0,0,0,0,0,0,0,0,0,0,0,0,0,0,0,0,0,0,0,0,0,0,0,0,0,0,0,0,0,0,0,0,0,0,
0,0,0,0,0,0,0,0,0,0,0,0,0,0,0,0,0,0,0,0,0,0,0,0,0,0,0,0,0,0,0,0,0,0,0,0,0,0,0,0,0,0,0,0,0,0,0,0,0,0,0,0,0,0,0,0,0,0,0,0,0,0,
0,0,0,0,0,0,0,0,0,0,0,0,0,0,0,0,0,0,0,0,0,0,0,0,0,0,0,0,0,0,0,0,0,0,0,0,0,0,0,0,0,0,0,0,0,0,0,0,0,0,0,0,0,0,0,0,0,0,0,0,0,0,
0,0,0,0,0,0,0,0,0,0,0,0,0,0,0,0,0,0,0,0,0,0,0,0,0,0,0,0,0,0,0,0,0,0,0,0,0,0,0,0,0,0,0,0,0,0,0,0,0,0,0,0,0,0,0,0,0,0,0,0,0,0,
0,0,0,0,0,0,0,0,0,0,0,0,0,0,0,0,0,0,0,0,0,0,0,0,0,0,0,0,0,0,0,0,0,0,0,0,0,0,0,0,0,0,0,0,0,0,0,0,0,0,0,0,0,0,0,0,0,0,0,0,0,0
</data>
 </layer>
 <layer id="6" name="Paths" width="62" height="50">
  <data encoding="csv">
0,0,0,0,0,0,0,0,0,0,0,0,0,0,0,0,0,0,0,0,0,0,0,0,0,0,0,0,0,0,0,0,0,0,0,0,0,0,0,0,0,0,0,0,0,0,0,0,0,0,0,0,0,0,0,0,0,0,0,0,0,0,
0,0,0,0,0,0,0,0,0,0,0,0,0,0,0,0,0,0,0,0,0,0,0,0,0,0,0,0,0,0,0,0,0,0,0,0,0,0,0,0,0,0,0,0,0,0,0,0,0,0,0,0,0,0,0,0,0,0,0,0,0,0,
0,0,0,0,0,0,0,0,0,0,0,0,0,0,0,0,0,0,0,0,0,0,0,0,0,0,0,0,0,0,0,0,0,0,0,0,0,0,0,0,0,0,0,0,0,0,0,0,0,0,0,0,0,0,0,0,0,0,0,0,0,0,
0,0,0,0,0,0,0,0,0,0,0,0,0,0,0,0,0,0,0,0,0,0,0,0,0,0,0,0,0,0,0,0,0,0,0,0,0,0,0,0,0,0,0,0,0,0,0,0,0,0,0,0,0,0,0,0,0,0,0,0,0,0,
0,0,0,0,0,0,0,0,0,0,0,0,0,0,0,0,0,0,0,0,0,0,0,0,0,0,0,0,0,0,0,0,0,0,0,0,0,0,0,0,0,0,0,0,0,0,0,0,0,0,0,0,0,0,0,0,0,0,0,0,0,0,
0,0,0,0,0,0,0,0,0,0,0,0,0,0,0,0,0,0,0,0,0,0,0,0,0,0,0,0,0,0,0,0,0,0,0,0,0,0,0,0,0,0,0,0,0,0,0,0,0,0,0,0,0,0,0,0,0,0,0,0,0,0,
0,0,0,0,0,0,0,0,0,0,0,0,0,0,0,0,0,0,0,0,0,0,0,0,0,0,0,0,0,0,0,0,0,0,0,0,0,0,0,0,0,0,0,0,0,0,0,0,0,0,0,0,0,0,0,0,0,0,0,0,0,0,
0,0,0,0,0,0,0,0,0,0,0,0,0,0,0,0,0,0,0,0,0,0,0,0,0,0,0,0,0,0,0,0,0,0,0,0,0,0,0,0,0,0,0,0,0,0,0,0,0,0,0,0,0,0,0,0,0,0,0,0,0,0,
0,0,0,0,0,0,0,0,0,0,0,0,0,0,0,0,0,0,0,0,0,0,0,0,0,0,0,0,0,0,0,0,0,0,0,0,0,0,0,0,0,0,0,0,0,0,0,0,0,0,0,0,0,0,0,0,0,0,0,0,0,0,
0,0,0,0,0,0,0,0,0,0,0,0,0,0,0,0,0,0,0,0,0,0,0,0,0,0,0,0,0,0,0,0,0,0,0,0,0,0,0,0,0,0,0,0,0,0,0,0,0,0,0,0,0,0,0,0,0,0,0,0,0,0,
0,0,0,0,0,0,0,0,0,0,0,0,0,0,0,0,0,0,0,0,0,0,0,0,0,0,0,0,0,0,0,0,0,0,0,0,0,0,0,0,0,0,0,0,0,0,0,0,0,0,0,0,0,0,0,0,0,0,0,0,0,0,
0,0,0,0,0,0,0,0,0,0,0,0,0,0,0,0,0,0,0,0,0,0,0,0,0,0,0,0,0,0,0,0,0,0,0,0,0,0,0,0,0,0,0,0,0,0,0,0,0,0,0,0,0,0,0,0,0,0,0,0,0,0,
0,0,0,0,0,0,0,0,0,0,0,0,0,0,0,0,0,0,0,0,0,0,0,0,0,0,0,0,0,0,0,0,0,0,0,0,0,0,0,0,0,0,0,0,0,0,0,0,0,0,0,0,0,0,0,0,0,0,0,0,0,0,
0,0,0,0,0,0,0,0,0,0,0,0,0,0,0,0,0,0,0,0,0,0,0,0,0,0,0,0,0,0,0,0,0,0,0,0,0,0,0,0,0,0,0,0,0,0,0,0,0,0,0,0,0,0,0,0,0,0,0,0,0,0,
0,0,0,0,0,0,0,0,0,0,0,0,0,0,0,0,0,0,0,0,0,0,0,0,0,0,0,0,0,0,0,0,0,0,0,0,0,0,0,0,0,0,0,0,0,0,0,0,0,0,0,0,0,0,0,0,0,0,0,0,0,0,
0,0,0,0,0,0,0,0,0,0,0,0,0,0,0,0,0,0,0,0,0,0,0,0,0,0,0,0,0,0,0,0,0,0,0,0,0,0,0,0,0,0,0,0,0,0,0,0,0,0,0,0,0,0,0,0,0,0,0,0,0,0,
0,0,0,0,0,0,0,0,0,0,0,0,0,0,0,0,0,0,0,0,0,0,0,0,0,0,0,0,0,0,0,0,0,0,0,0,0,0,0,0,0,0,0,0,0,0,0,0,0,0,0,0,0,0,0,0,0,0,0,0,0,0,
0,0,0,0,0,0,0,0,0,0,0,0,0,0,0,0,0,0,0,0,0,0,0,0,0,0,0,0,0,0,0,0,0,0,0,0,0,0,0,0,0,0,0,0,0,0,0,0,0,0,0,0,0,0,0,0,0,0,0,0,0,0,
0,0,0,0,0,0,0,0,0,0,0,0,0,0,0,0,0,0,0,0,0,0,0,0,0,0,0,0,0,0,0,0,0,0,0,0,0,0,0,0,0,0,0,0,0,0,0,0,0,0,0,0,0,0,0,0,0,0,0,0,0,0,
0,0,0,0,0,0,0,0,0,0,0,0,0,0,0,0,0,0,0,0,0,0,0,0,0,0,0,0,0,0,0,0,0,0,0,0,0,0,0,0,0,0,0,0,0,0,0,0,0,0,0,0,0,0,0,0,0,0,0,0,0,0,
0,0,0,0,0,0,0,0,0,0,0,0,0,0,0,0,0,0,0,0,0,0,0,0,0,0,0,0,0,0,0,0,0,0,0,0,0,0,0,0,0,0,0,0,0,0,0,0,0,0,0,0,0,0,0,0,0,0,0,0,0,0,
0,0,0,0,0,0,0,0,0,0,0,0,0,0,0,0,0,0,0,0,0,0,0,0,0,0,0,0,0,0,0,0,0,0,0,0,0,0,0,0,0,0,0,0,0,0,0,0,0,0,0,0,0,0,0,0,0,0,0,0,0,0,
0,0,0,0,0,0,0,0,0,0,0,0,0,0,0,0,0,0,0,0,0,0,0,0,0,0,0,0,0,0,0,0,0,0,0,0,0,0,0,0,0,0,0,0,0,0,0,0,0,0,0,0,0,0,0,0,0,0,0,0,0,0,
0,0,0,0,0,0,0,0,0,0,0,0,0,0,0,0,0,0,0,0,0,0,0,0,0,0,0,0,0,0,0,0,0,0,0,0,0,0,0,0,0,0,0,0,0,0,0,0,0,0,0,0,0,0,0,0,0,0,0,0,0,0,
0,0,0,0,0,0,0,0,0,0,0,0,0,0,0,0,0,0,0,0,0,0,0,0,0,0,0,0,0,0,0,0,0,0,0,0,0,0,0,0,0,0,0,0,0,0,0,0,0,0,0,0,0,0,0,0,0,0,0,0,0,0,
0,0,0,0,0,0,0,0,0,0,0,0,0,0,0,0,0,0,0,0,0,0,0,0,0,0,0,0,0,0,0,0,0,0,0,0,0,0,0,0,0,0,0,0,0,0,0,0,0,0,0,0,0,0,0,0,0,0,0,0,0,0,
0,0,0,0,0,0,0,0,0,0,0,0,0,0,0,0,0,0,0,0,0,0,0,0,0,0,0,0,0,0,0,0,0,0,0,0,0,0,0,0,0,0,0,0,0,0,0,0,0,0,0,0,0,0,0,0,0,0,0,0,0,0,
0,0,0,0,0,0,0,0,0,0,0,0,0,0,0,0,0,0,0,0,0,0,0,0,0,0,0,0,0,0,0,0,0,0,0,0,0,0,0,0,0,0,0,0,0,0,0,0,0,0,0,0,0,0,0,0,0,0,0,0,0,0,
0,0,0,0,0,0,0,0,0,0,0,0,0,0,0,0,0,0,0,0,0,0,0,0,0,0,0,0,0,0,0,0,0,0,0,0,0,0,0,0,0,0,0,0,0,0,0,0,0,0,0,0,0,0,0,0,0,0,0,0,0,0,
0,0,0,0,0,0,0,0,0,0,0,0,0,0,0,0,0,0,0,0,0,0,0,0,0,0,0,0,0,0,0,0,0,0,0,0,0,0,0,0,0,0,0,0,0,0,0,0,0,0,0,0,0,0,0,0,0,0,0,0,0,0,
0,0,0,0,0,0,0,0,0,0,0,0,0,0,0,0,0,0,0,0,0,0,0,0,0,0,0,0,0,0,0,0,0,0,0,0,0,0,0,0,0,0,0,0,0,0,0,0,0,0,0,0,0,0,0,0,0,0,0,0,0,0,
0,0,0,0,0,0,0,0,0,0,0,0,0,0,0,0,0,0,0,0,0,0,0,0,0,0,0,0,0,0,0,0,0,0,0,0,0,0,0,0,0,0,0,0,0,0,0,0,0,0,0,0,0,0,0,0,0,0,0,0,0,0,
0,0,0,0,0,0,0,0,0,0,0,0,0,0,0,0,0,0,0,0,0,0,0,0,0,0,0,0,0,0,0,0,0,0,0,0,0,0,0,0,0,0,0,0,0,0,0,0,0,0,0,0,0,0,0,0,0,0,0,0,0,0,
0,0,0,0,0,0,0,0,0,0,0,0,0,0,0,0,0,0,0,0,0,0,0,0,0,0,0,0,0,0,0,0,0,0,0,0,0,0,0,0,0,0,0,0,0,0,0,0,0,0,0,0,0,0,0,0,0,0,0,0,0,0,
0,0,0,0,0,0,0,0,0,0,0,0,0,0,0,0,0,0,0,0,0,0,0,0,0,0,0,0,0,0,0,0,0,0,0,0,0,0,0,0,0,0,0,0,0,0,0,0,0,0,0,0,0,0,0,0,0,0,0,0,0,0,
0,0,0,0,0,0,0,0,0,0,0,0,0,0,0,0,0,0,0,0,0,0,0,0,0,0,0,0,0,0,0,0,0,0,0,0,0,0,0,0,0,0,0,0,0,0,0,0,0,0,0,0,0,0,0,0,0,0,0,0,0,0,
0,0,0,0,0,0,0,0,0,0,0,0,0,0,0,0,0,0,0,0,0,0,0,0,0,0,0,0,0,0,0,0,0,0,0,0,0,0,0,0,0,0,0,0,0,0,0,0,0,0,0,0,0,0,0,0,0,0,0,0,0,0,
0,0,0,0,0,0,0,0,0,0,0,0,0,0,0,0,0,0,0,0,0,0,0,0,0,0,0,0,0,0,0,0,0,0,0,0,0,0,0,0,0,0,0,0,0,0,0,0,0,0,0,0,0,0,0,0,0,0,0,0,0,0,
0,0,0,0,0,0,0,0,0,0,0,0,0,0,0,0,0,0,0,0,0,0,0,0,0,0,0,0,0,0,0,0,0,0,0,0,0,0,0,0,0,0,0,0,0,0,0,0,0,0,0,0,0,0,0,0,0,0,0,0,0,0,
0,0,0,0,0,0,0,0,0,0,0,0,0,0,0,0,0,0,0,0,0,0,0,0,0,0,0,0,0,0,0,0,0,0,0,0,0,0,0,0,0,0,0,0,0,0,0,0,0,0,0,0,0,0,0,0,0,0,0,0,0,0,
0,0,0,0,0,0,0,0,0,0,0,0,0,0,0,0,0,0,0,0,0,0,0,0,0,0,0,0,0,0,0,0,0,0,0,0,0,0,0,0,0,0,0,0,0,0,0,0,0,0,0,0,0,0,0,0,0,0,0,0,0,0,
0,0,0,0,0,0,0,0,0,0,0,0,0,0,0,0,0,0,0,0,0,0,0,0,0,0,0,0,0,0,0,0,0,0,0,0,0,0,0,0,0,0,0,0,0,0,0,0,0,0,0,0,0,0,0,0,0,0,0,0,0,0,
0,0,0,0,0,0,0,0,0,0,0,0,0,0,0,0,0,0,0,0,0,0,0,0,0,0,0,0,0,0,0,0,0,0,0,0,0,0,0,0,0,0,0,0,0,0,0,0,0,0,0,0,0,0,0,0,0,0,0,0,0,0,
0,0,0,0,0,0,0,0,0,0,0,0,0,0,0,0,0,0,0,0,0,0,0,0,0,0,0,0,0,0,0,0,0,0,0,0,0,0,0,0,0,0,0,0,0,0,0,0,0,0,0,0,0,0,0,0,0,0,0,0,0,0,
0,0,0,0,0,0,0,0,0,0,0,0,0,0,0,0,0,0,0,0,0,0,0,0,0,0,0,0,0,0,0,0,0,0,0,0,0,0,0,0,0,0,0,0,0,0,0,0,0,0,0,0,0,0,0,0,0,0,0,0,0,0,
0,0,0,0,0,0,0,0,0,0,0,0,0,0,0,0,0,0,0,0,0,0,0,0,0,0,0,0,0,0,0,0,0,0,0,0,0,0,0,0,0,0,0,0,0,0,0,0,0,0,0,0,0,0,0,0,0,0,0,0,0,0,
0,0,0,0,0,0,0,0,0,0,0,0,0,0,0,0,0,0,0,0,0,0,0,0,0,0,0,0,0,0,0,0,0,0,0,0,0,0,0,0,0,0,0,0,0,0,0,0,0,0,0,0,0,0,0,0,0,0,0,0,0,0,
0,0,0,0,0,0,0,0,0,0,0,0,0,0,0,0,0,0,0,0,0,0,0,0,0,0,0,0,0,0,0,0,0,0,0,0,0,0,0,0,0,0,0,0,0,0,0,0,0,0,0,0,0,0,0,0,0,0,0,0,0,0,
0,0,0,0,0,0,0,0,0,0,0,0,0,0,0,0,0,0,0,0,0,0,0,0,0,0,0,0,0,0,0,0,0,0,0,0,0,0,0,0,0,0,0,0,0,0,0,0,0,0,0,0,0,0,0,0,0,0,0,0,0,0,
0,0,0,0,0,0,0,0,0,0,0,0,0,0,0,0,0,0,0,0,0,0,0,0,0,0,0,0,0,0,0,0,0,0,0,0,0,0,0,0,0,0,0,0,0,0,0,0,0,0,0,0,0,0,0,0,0,0,0,0,0,0
</data>
 </layer>
 <layer id="7" name="AlwaysFront" width="62" height="50">
  <data encoding="csv">
0,0,0,0,0,0,0,0,0,0,0,0,0,0,0,0,0,0,0,0,0,0,0,0,0,0,0,0,0,0,0,0,0,0,0,0,0,0,0,0,0,0,0,0,0,0,0,0,0,0,0,0,0,0,0,0,0,0,0,0,0,0,
0,0,0,0,0,0,0,0,0,0,0,0,0,0,0,0,0,0,0,0,0,0,0,0,0,0,0,0,0,0,0,0,0,0,0,0,0,0,0,0,0,0,0,0,0,0,0,0,0,0,0,0,0,0,0,0,0,0,0,0,0,0,
0,0,0,0,0,0,0,0,0,0,0,0,0,0,0,0,0,0,0,0,0,0,0,0,0,0,0,0,0,0,0,0,0,0,0,0,0,0,0,0,0,0,0,0,0,0,0,0,0,0,0,0,0,0,0,0,0,0,0,0,0,0,
0,0,0,0,0,0,0,0,0,0,0,0,0,0,0,0,0,0,0,0,0,0,0,0,0,0,0,0,0,0,0,0,0,0,0,0,0,0,0,0,0,0,0,0,0,0,0,0,0,0,0,0,0,0,0,0,0,0,0,0,0,0,
0,0,0,0,0,0,0,0,0,0,0,0,0,0,0,0,0,0,0,0,0,0,0,0,0,0,0,0,0,0,0,0,0,0,0,0,0,0,0,0,0,0,0,0,0,0,0,0,0,0,0,0,0,0,0,0,0,0,0,0,0,0,
0,0,0,0,0,0,0,0,0,0,0,0,0,0,0,0,0,0,0,0,0,0,0,0,0,0,0,0,0,0,0,0,0,0,0,0,0,0,0,0,0,0,0,0,0,0,0,0,0,0,0,0,0,0,0,0,0,0,0,0,0,0,
0,0,0,0,0,0,0,0,0,0,0,0,0,0,0,0,0,0,0,0,0,0,0,0,0,0,0,0,0,0,0,0,0,0,0,0,0,0,0,0,0,0,0,0,0,0,0,0,0,0,0,0,0,0,0,0,0,0,0,0,0,0,
0,0,0,0,0,0,0,0,0,0,0,0,0,0,0,0,0,0,0,0,0,0,0,0,0,0,0,0,0,0,0,0,0,0,0,0,0,0,0,0,0,0,0,0,0,0,0,0,0,0,0,0,0,0,0,0,0,0,0,0,0,0,
0,0,0,0,0,0,0,0,0,0,0,0,0,0,0,0,0,0,0,0,0,0,0,0,0,0,0,0,0,0,0,0,0,0,0,0,0,0,0,0,0,0,0,0,0,0,0,0,0,0,0,0,0,0,0,0,0,0,0,0,0,0,
0,0,0,0,0,0,0,0,0,0,0,0,0,0,0,0,0,0,0,0,0,0,0,0,0,0,0,0,0,0,0,0,0,0,0,0,0,0,0,0,0,0,0,0,0,0,0,0,0,0,0,0,0,0,0,0,0,0,0,0,0,0,
0,0,0,0,0,0,0,0,0,0,0,0,0,0,0,0,0,0,0,0,0,0,0,0,0,0,0,0,0,0,0,0,0,0,0,0,0,0,0,0,0,0,0,0,0,0,0,0,0,0,0,0,0,0,0,0,0,0,0,0,0,0,
0,0,0,0,0,0,0,0,0,0,0,0,0,0,0,0,0,0,0,0,0,0,0,0,0,0,0,0,0,0,0,0,0,0,0,0,0,0,0,0,0,0,0,0,0,0,0,0,0,0,0,0,0,0,0,0,0,0,0,0,0,0,
0,0,0,0,0,0,0,0,0,0,0,0,0,0,0,0,0,0,0,0,0,0,0,0,0,0,0,0,0,0,0,0,0,0,0,0,0,0,0,0,0,0,0,0,0,0,0,0,0,0,0,0,0,0,0,0,0,0,0,0,0,0,
0,0,0,0,0,0,0,0,0,0,0,0,0,0,0,0,0,0,0,0,0,0,0,0,0,0,0,0,0,0,0,0,0,0,0,0,0,0,0,0,0,0,0,0,0,0,0,0,0,0,0,0,0,0,0,0,0,0,0,0,0,0,
0,0,0,0,0,0,0,0,0,0,0,0,0,0,0,0,0,0,0,0,0,0,0,0,0,0,0,0,0,0,0,0,0,0,0,0,0,0,0,0,0,0,0,0,0,0,0,0,0,0,0,0,0,0,0,0,0,0,0,0,0,0,
0,0,0,0,0,0,0,0,0,0,0,0,0,0,0,0,0,0,0,0,0,0,0,0,0,0,0,0,0,0,0,0,0,0,0,0,0,0,0,0,0,0,0,0,0,0,0,0,0,0,0,0,0,0,0,0,0,0,0,0,0,0,
0,0,0,0,0,0,0,0,0,0,0,0,0,0,0,0,0,0,0,0,0,0,0,0,0,0,0,0,0,0,0,0,0,0,0,0,0,0,0,0,0,0,0,0,0,0,0,0,0,0,0,0,0,0,0,0,0,0,0,0,0,0,
0,0,0,0,0,0,0,0,0,0,0,0,0,0,0,0,0,0,0,0,0,0,0,0,0,0,0,0,0,0,0,0,0,0,0,0,0,0,0,0,0,0,0,0,0,0,0,0,0,0,0,0,0,0,0,0,0,0,0,0,0,0,
0,0,0,0,0,0,0,0,0,0,0,0,0,0,0,0,0,0,0,0,0,0,0,0,0,0,0,0,0,0,0,0,0,0,0,0,0,0,0,0,0,0,0,0,0,0,0,0,0,0,0,0,0,0,0,0,0,0,0,0,0,0,
0,0,0,0,0,0,0,0,0,0,0,0,0,0,0,0,0,0,0,0,0,0,0,0,0,0,0,0,0,0,0,0,0,0,0,0,0,0,0,0,0,0,0,0,0,0,0,0,0,0,0,0,0,0,0,0,0,0,0,0,0,0,
0,0,0,0,0,0,0,0,0,0,0,0,0,0,0,0,0,0,0,0,0,0,0,0,0,0,0,0,0,0,0,0,0,0,0,0,0,0,0,0,0,0,0,0,0,0,0,0,0,0,0,0,0,0,0,0,0,0,0,0,0,0,
0,0,0,0,0,0,0,0,0,0,0,0,0,0,0,0,0,0,0,0,0,0,0,0,0,0,0,0,0,0,0,0,0,0,0,0,0,0,0,0,0,0,0,0,0,0,0,0,0,0,0,0,0,0,0,0,0,0,0,0,0,0,
0,0,0,0,0,0,0,0,0,0,0,0,0,0,0,0,0,0,0,0,0,0,0,0,0,0,0,0,0,0,0,0,0,0,0,0,0,0,0,0,0,0,0,0,0,0,0,0,0,0,0,0,0,0,0,0,0,0,0,0,0,0,
0,0,0,0,0,0,0,0,0,0,0,0,0,0,0,0,0,0,0,0,0,0,0,0,0,0,0,0,0,0,0,0,0,0,0,0,0,0,0,0,0,0,0,0,0,0,0,0,0,0,0,0,0,0,0,0,0,0,0,0,0,0,
0,0,0,0,0,0,0,0,0,0,0,0,0,0,0,0,0,0,0,0,0,0,0,0,0,0,0,0,0,0,0,0,0,0,0,0,0,0,0,0,0,0,0,0,0,0,0,0,0,0,0,0,0,0,0,0,0,0,0,0,0,0,
0,0,0,0,0,0,0,0,0,0,0,0,0,0,0,0,0,0,0,0,0,0,0,0,0,0,0,0,0,0,0,0,0,0,0,0,0,0,0,0,0,0,0,0,0,0,0,0,0,0,0,0,0,0,0,0,0,0,0,0,0,0,
0,0,0,0,0,0,0,0,0,0,0,0,0,0,0,0,0,0,0,0,0,0,0,0,0,0,0,0,0,0,0,0,0,0,0,0,0,0,0,0,0,0,0,0,0,0,0,0,0,0,0,0,0,0,0,0,0,0,0,0,0,0,
0,0,0,0,0,0,0,0,0,0,0,0,0,0,0,0,0,0,0,0,0,0,0,0,0,0,0,0,0,0,0,0,0,0,0,0,0,0,0,0,0,0,0,0,0,0,0,0,0,0,0,0,0,0,0,0,0,0,0,0,0,0,
0,0,0,0,0,0,0,0,0,0,0,0,0,0,0,0,0,0,0,0,0,0,0,0,0,0,0,0,0,0,0,0,0,0,0,0,0,0,0,0,0,0,0,0,0,0,0,0,0,0,0,0,0,0,0,0,0,0,0,0,0,0,
0,0,0,0,0,0,0,0,0,0,0,0,0,0,0,0,0,0,0,0,0,0,0,0,0,0,0,0,0,0,0,0,0,0,0,0,0,0,0,0,0,0,0,0,0,0,0,0,0,0,0,0,0,0,0,0,0,0,0,0,0,0,
0,0,0,0,0,0,0,0,0,0,0,0,0,0,0,0,0,0,0,0,0,0,0,0,0,0,0,0,0,0,0,0,0,0,0,0,0,0,0,0,0,0,0,0,0,0,0,0,0,0,0,0,0,0,0,0,0,0,0,0,0,0,
0,0,0,0,0,0,0,0,0,0,0,0,0,0,0,0,0,0,0,0,0,0,0,0,0,0,0,0,0,0,0,0,0,0,0,0,0,0,0,0,0,0,0,0,0,0,0,0,0,0,0,0,0,0,0,0,0,0,0,0,0,0,
0,0,0,0,0,0,0,0,0,0,0,0,0,0,0,0,0,0,0,0,0,0,0,0,0,0,0,0,0,0,0,0,0,0,0,0,0,0,0,0,0,0,0,0,0,0,0,0,0,0,0,0,0,0,0,0,0,0,0,0,0,0,
0,0,0,0,0,0,0,0,0,0,0,0,0,0,0,0,0,0,0,0,0,0,0,0,0,0,0,0,0,0,0,0,0,0,0,0,0,0,0,0,0,0,0,0,0,0,0,0,0,0,0,0,0,0,0,0,0,0,0,0,0,0,
0,0,0,0,0,0,0,0,0,0,0,0,0,0,0,0,0,0,0,0,0,0,0,0,0,0,0,0,0,0,0,0,0,0,0,0,0,0,0,0,0,0,0,0,0,0,0,0,0,0,0,0,0,0,0,0,0,0,0,0,0,0,
0,0,0,0,0,0,0,0,0,0,0,0,0,0,0,0,0,0,0,0,0,0,0,0,0,0,0,0,0,0,0,0,0,0,0,0,0,0,0,0,0,0,0,0,0,0,0,0,0,0,0,0,0,0,0,0,0,0,0,0,0,0,
0,0,0,0,0,0,0,0,0,0,0,0,0,0,0,0,0,0,0,0,0,0,0,0,0,0,0,0,0,0,0,0,0,0,0,0,0,0,0,0,0,0,0,0,0,0,0,0,0,0,0,0,0,0,0,0,0,0,0,0,0,0,
0,0,0,0,0,0,0,0,0,0,0,0,0,0,0,0,0,0,0,0,0,0,0,0,0,0,0,0,0,0,0,0,0,0,0,0,0,0,0,0,0,0,0,0,0,0,0,0,0,0,0,0,0,0,0,0,0,0,0,0,0,0,
0,0,0,0,0,0,0,0,0,0,0,0,0,0,0,0,0,0,0,0,0,0,0,0,0,0,0,0,0,0,0,0,0,0,0,0,0,0,0,0,0,0,0,0,0,0,0,0,0,0,0,0,0,0,0,0,0,0,0,0,0,0,
0,0,0,0,0,0,0,0,0,0,0,0,0,0,0,0,0,0,0,0,0,0,0,0,0,0,0,0,0,0,0,0,0,0,0,0,0,0,0,0,0,0,0,0,0,0,0,0,0,0,0,0,0,0,0,0,0,0,0,0,0,0,
0,0,0,0,0,0,0,0,0,0,0,0,0,0,0,0,0,0,0,0,0,0,0,0,0,0,0,0,0,0,0,0,0,0,0,0,0,0,0,0,0,0,0,0,0,0,0,0,0,0,0,0,0,0,0,0,0,0,0,0,0,0,
0,0,0,0,0,0,0,0,0,0,0,0,0,0,0,0,0,0,0,0,0,0,0,0,0,0,0,0,0,0,0,0,0,0,0,0,0,0,0,0,0,0,0,0,0,0,0,0,0,0,0,0,0,0,0,0,0,0,0,0,0,0,
0,0,0,0,0,0,0,0,0,0,0,0,0,0,0,0,0,0,0,0,0,0,0,0,0,0,0,0,0,0,0,0,0,0,0,0,0,0,0,0,0,0,0,0,0,0,0,0,0,0,0,0,0,0,0,0,0,0,0,0,0,0,
0,0,0,0,0,0,0,0,0,0,0,0,0,0,0,0,0,0,0,0,0,0,0,0,0,0,0,0,0,0,0,0,0,0,0,0,0,0,0,0,0,0,0,0,0,0,0,0,0,0,0,0,0,0,0,0,0,0,0,0,0,0,
0,0,0,0,0,0,0,0,0,0,0,0,0,0,0,0,0,0,0,0,0,0,0,0,0,0,0,0,0,0,0,0,0,0,0,0,0,0,0,0,0,0,0,0,0,0,0,0,0,0,0,0,0,0,0,0,0,0,0,0,0,0,
0,0,0,0,0,0,0,0,0,0,0,0,0,0,0,0,0,0,0,0,0,0,0,0,0,0,0,0,0,0,0,0,0,0,0,0,0,0,0,0,0,0,0,0,0,0,0,0,0,0,0,0,0,0,0,0,0,0,0,0,0,0,
0,0,0,0,0,0,0,0,0,0,0,0,0,0,0,0,0,0,0,0,0,0,0,0,0,0,0,0,0,0,0,0,0,0,0,0,0,0,0,0,0,0,0,0,0,0,0,0,0,0,0,0,0,0,0,0,0,0,0,0,0,0,
0,0,0,0,0,0,0,0,0,0,0,0,0,0,0,0,0,0,0,0,0,0,0,0,0,0,0,0,0,0,0,0,0,0,0,0,0,0,0,0,0,0,0,0,0,0,0,0,0,0,0,0,0,0,0,0,0,0,0,0,0,0,
0,0,0,0,0,0,0,0,0,0,0,0,0,0,0,0,0,0,0,0,0,0,0,0,0,0,0,0,0,0,0,0,0,0,0,0,0,0,0,0,0,0,0,0,0,0,0,0,0,0,0,0,0,0,0,0,0,0,0,0,0,0,
0,0,0,0,0,0,0,0,0,0,0,0,0,0,0,0,0,0,0,0,0,0,0,0,0,0,0,0,0,0,0,0,0,0,0,0,0,0,0,0,0,0,0,0,0,0,0,0,0,0,0,0,0,0,0,0,0,0,0,0,0,0
</data>
 </layer>
 <objectgroup id="8" name="Back">
  <object id="12" name="TileData" x="16" y="96" width="16" height="16">
   <properties>
    <property name="TouchAction" value="PeacefulEnd.Campgrounds_CampingExit"/>
   </properties>
  </object>
  <object id="13" name="TileData" x="16" y="80" width="16" height="16">
   <properties>
    <property name="TouchAction" value="PeacefulEnd.Campgrounds_CampingExit"/>
   </properties>
  </object>
  <object id="14" name="TileData" x="16" y="64" width="16" height="16">
   <properties>
    <property name="TouchAction" value="PeacefulEnd.Campgrounds_CampingExit"/>
   </properties>
  </object>
  <object id="15" name="TileData" x="480" y="192" width="16" height="16">
   <properties>
    <property name="IsCookingSpot" value="T"/>
   </properties>
  </object>
  <object id="16" name="TileData" x="480" y="144" width="16" height="16">
   <properties>
    <property name="CampingDirection" value="South"/>
    <property name="CampingType" value="Tent"/>
    <property name="IsCampingSpot" value="T"/>
    <property name="IsForGuest" value="T"/>
   </properties>
  </object>
  <object id="17" name="TileData" x="480" y="240" width="16" height="16">
   <properties>
    <property name="CampingDirection" value="North"/>
    <property name="CampingType" value="Tent"/>
    <property name="IsCampingSpot" value="T"/>
    <property name="IsForGuest" value="F"/>
   </properties>
  </object>
 </objectgroup>
 <objectgroup id="9" name="Back2"/>
 <objectgroup id="10" name="Buildings"/>
 <objectgroup id="11" name="Buildings2"/>
 <objectgroup id="12" name="Front"/>
 <objectgroup id="13" name="Paths"/>
 <objectgroup id="14" name="AlwaysFront"/>
</map>
