<?xml version="1.0" encoding="UTF-8"?>
<map version="1.10" tiledversion="1.10.2" orientation="orthogonal" renderorder="right-down" compressionlevel="0" width="16" height="13" tilewidth="16" tileheight="16" infinite="0" nextlayerid="14" nextobjectid="31">
 <properties>
  <property name="DayTiles" value="Front 3 2 256 Front 3 3 288 Front 10 2 256 Front 10 3 288 Back 3 5 228 Back 3 6 260 Back 10 5 228 Back 10 6 260"/>
  <property name="DefaultWarpLocation" value="9 11"/>
  <property name="NightTiles" value="Front 3 2 1253 Front 3 3 1285 Front 10 2 1253 Front 10 3 1253 Back 3 5 199 Back 3 6 231 Back 10 5 199 Back 10 6 231"/>
  <property name="Warp" value="9 12 PeacefulEnd.Campgrounds.ContentPatcher_CindersapPark 36 28"/>
 </properties>
 <tileset firstgid="1" name="1" tilewidth="16" tileheight="16" tilecount="2176" columns="32">
  <image source="townInterior.png" width="512" height="1088"/>
 </tileset>
 <tileset firstgid="2177" name="2" tilewidth="16" tileheight="16" tilecount="128" columns="32">
  <image source="townInterior_2.png" width="512" height="64"/>
 </tileset>
 <tileset firstgid="2305" name="p" tilewidth="16" tileheight="16" tilecount="64" columns="4">
  <image source="paths.png" width="64" height="256"/>
 </tileset>
 <tileset firstgid="2369" name="Cindersap Interior" tilewidth="16" tileheight="16" tilecount="414" columns="23">
  <image source="cindersap_interior.png" width="368" height="288"/>
 </tileset>
 <tileset firstgid="2783" name="p" tilewidth="16" tileheight="16" tilecount="64" columns="4">
  <image source="paths" width="64" height="256"/>
 </tileset>
 <layer id="1" name="Back" width="16" height="13">
  <data encoding="csv">
1,0,0,0,0,0,0,0,1,0,0,0,0,0,0,0,
1,0,0,0,0,0,0,0,1,1,1,1,1,1,1,0,
1,0,35,0,0,0,0,0,0,0,0,35,2151,1,1,0,
1,0,67,0,0,0,0,0,0,0,0,67,232,1,1,0,
1,0,99,0,99,0,0,0,0,0,0,99,2120,1,1,0,
1,199,201,229,201,200,201,201,200,201,229,201,231,35,35,0,
1,232,201,261,233,264,233,2120,2120,233,261,201,232,67,67,0,
1,264,5,2086,5,232,2120,265,0,265,264,265,264,99,99,0,
1,232,2120,2084,201,200,201,200,2120,2120,232,264,2120,201,200,0,
1,264,2120,2120,2120,232,5,2120,264,2120,2120,2120,264,1,1,0,
1,232,265,264,2120,265,265,2120,232,264,2152,2120,233,1,1,0,
1,264,2120,232,265,264,264,264,264,2119,264,264,265,1,1,0,
1,1,1,1,1,0,0,0,1,2151,1,1,1,1,1,0
</data>
 </layer>
 <layer id="9" name="Back1" width="16" height="13">
  <data encoding="csv">
0,0,0,0,0,0,0,0,0,0,0,0,0,0,0,0,
0,0,0,0,0,0,0,0,0,0,0,0,0,0,0,0,
0,0,0,0,0,0,0,0,0,0,0,0,0,0,0,0,
0,0,0,0,0,0,0,0,0,0,0,0,0,0,0,0,
0,0,0,0,0,0,0,0,0,0,0,0,0,0,0,0,
0,0,0,0,0,0,0,0,0,0,0,0,0,0,0,0,
0,0,0,0,0,0,0,0,0,0,0,0,0,0,0,0,
0,0,0,0,0,0,0,0,0,0,0,2444,2445,0,0,0,
0,0,0,0,0,2444,2445,0,0,0,0,0,0,0,0,0,
0,0,0,0,0,0,0,0,0,0,0,0,0,0,0,0,
0,0,0,0,0,0,0,0,0,0,0,0,0,0,0,0,
0,0,0,0,0,0,0,0,0,0,0,0,0,0,0,0,
0,0,0,0,0,0,0,0,0,0,0,0,0,0,0,0
</data>
 </layer>
 <layer id="11" name="Buildings-1" width="16" height="13">
  <data encoding="csv">
0,0,0,0,0,0,0,0,0,0,0,0,0,0,0,0,
0,0,0,0,0,0,0,0,0,0,0,0,0,0,0,0,
0,0,0,0,0,0,0,0,0,0,0,0,0,0,0,0,
0,0,0,0,0,0,0,0,0,0,0,0,0,0,0,0,
0,0,0,0,0,0,99,99,0,0,0,0,0,0,0,0,
0,0,0,0,0,0,0,0,0,0,0,0,0,55,0,0,
0,0,0,0,0,0,0,0,0,0,0,0,0,87,75,0,
0,0,0,0,0,0,0,0,0,0,0,0,0,119,107,0,
0,0,0,0,0,0,0,0,0,0,0,0,0,0,0,0,
0,0,0,0,0,0,0,0,0,0,0,0,0,0,0,0,
0,0,0,0,2585,0,2587,2588,0,0,0,0,0,0,0,0,
0,0,0,0,0,0,0,0,0,0,0,0,0,0,0,0,
0,0,0,0,0,0,0,0,0,0,0,0,0,0,0,0
</data>
 </layer>
 <layer id="2" name="Buildings" width="16" height="13">
  <data encoding="csv">
0,0,1,0,1,1,1,1,1,1,1,1,1,1,1,1,
0,2,3,3,3,3,3,3,3,3,3,3,4,1,1,1,
0,34,35,35,35,35,35,35,35,35,35,35,36,0,1,1,
0,66,2126,67,67,67,67,67,67,67,67,2126,68,0,1,1,
0,98,2158,99,99,99,2380,2381,1669,99,99,2158,100,0,1,1,
0,130,2157,0,0,0,2403,2404,1701,2147484510,0,2486,2487,0,35,1,
1,2148,0,0,918,0,0,0,0,2147484566,0,2509,2510,87,0,1,
1,2462,0,0,950,2418,2419,952,2147484600,2147484598,0,0,0,119,119,1,
1,2485,0,0,0,0,0,0,0,0,0,0,0,0,0,1,
1,2508,0,0,0,0,0,0,0,0,0,0,0,1,1,1,
1,2531,0,0,0,0,0,0,0,0,0,0,897,1,1,1,
1,2554,2599,2600,2601,2602,2603,2604,0,0,0,0,898,1,1,1,
1,1,1,1,1,1,1,1,1,0,1,1,1,1,1,1
</data>
 </layer>
 <layer id="13" name="Buildings1" width="16" height="13">
  <data encoding="csv">
0,0,0,0,0,0,0,0,0,0,0,0,0,0,0,0,
0,0,0,0,0,0,0,0,0,0,0,0,0,0,0,0,
0,0,0,0,0,0,0,0,0,0,0,0,0,0,0,0,
0,0,0,0,0,0,0,0,0,0,0,0,0,0,0,0,
0,0,0,0,0,0,0,0,0,0,0,0,0,0,0,0,
0,0,0,0,0,0,0,0,0,0,0,0,0,0,0,0,
0,0,0,0,0,0,0,0,0,0,0,0,0,0,0,0,
0,0,0,0,0,0,0,0,0,0,0,0,0,0,0,0,
0,0,0,0,0,0,0,0,0,0,0,0,0,0,0,0,
0,0,0,0,0,0,0,0,0,0,0,0,0,0,0,0,
0,0,2576,2577,2578,2579,2580,2581,0,0,0,0,0,0,0,0,
0,0,0,0,0,0,0,0,0,0,0,0,0,0,0,0,
0,0,0,0,0,0,0,0,0,0,0,0,0,0,0,0
</data>
 </layer>
 <layer id="12" name="Front-1" width="16" height="13">
  <data encoding="csv">
0,0,0,0,0,0,0,0,0,0,0,0,0,0,0,0,
0,0,0,0,0,0,0,0,0,0,0,0,0,0,0,0,
0,0,0,0,0,0,0,0,0,0,0,0,0,0,0,0,
0,0,0,0,0,0,0,0,0,0,0,0,0,0,0,0,
0,0,0,0,0,0,0,0,0,0,0,0,0,0,0,0,
0,0,0,0,0,0,0,0,0,0,0,0,0,0,0,0,
0,0,0,0,0,0,0,0,0,0,0,0,0,0,2369,0,
0,0,0,0,0,0,0,0,0,0,0,0,0,0,2392,0,
0,0,0,0,0,0,0,0,0,0,0,0,0,0,2415,0,
0,0,0,0,0,0,0,0,0,0,0,0,0,0,0,0,
0,0,2532,2514,0,2516,0,0,0,0,0,0,0,0,0,0,
0,0,2555,2537,2470,2539,0,2447,0,0,0,0,0,0,0,0,
0,0,0,0,0,0,0,0,0,0,0,0,0,0,0,0
</data>
 </layer>
 <layer id="3" name="Front" width="16" height="13">
  <data encoding="csv">
1,1,1,1,1,0,0,0,0,0,0,0,0,0,0,0,
1,2,2127,3,3,3,3,3,3,3,3,2127,4,1,0,0,
33,42,2159,226,0,0,0,0,0,0,226,2159,44,37,0,0,
65,0,0,258,0,0,0,0,1638,0,258,0,0,2154,0,0,
2153,0,0,0,0,0,0,0,0,2147484478,0,0,0,194,3,12,
65,0,0,0,886,0,0,0,0,2147484510,0,0,855,0,0,69,
65,0,0,0,2421,2395,2396,919,919,2147484566,0,0,0,0,0,69,
65,0,0,0,0,0,0,0,0,0,0,0,0,0,0,69,
65,0,0,0,0,0,0,0,0,0,0,0,0,164,166,131,
2153,0,0,0,0,0,0,0,0,0,0,0,866,2154,0,0,
65,0,0,0,0,0,0,0,0,0,0,0,866,69,0,0,
161,162,166,2121,166,166,166,166,163,0,164,2121,167,168,1,0,
0,0,0,0,0,0,0,0,65,0,69,0,0,0,0,0
</data>
 </layer>
 <layer id="10" name="Front1" width="16" height="13">
  <data encoding="csv">
0,0,0,0,0,0,0,0,0,0,0,0,0,0,0,0,
0,0,0,0,0,0,0,0,0,0,0,0,0,0,0,0,
0,0,0,0,0,2511,2512,2513,0,0,0,0,0,0,0,0,
0,0,0,0,1258,2534,2535,2536,2425,0,0,0,0,0,0,0,
0,0,0,0,0,0,0,0,2448,0,0,2463,2464,0,0,0,
0,2116,0,0,0,0,0,2371,0,0,0,0,0,0,0,0,
0,2439,0,0,0,2422,0,2394,0,0,0,0,0,0,0,0,
0,1964,0,0,0,0,0,0,0,0,0,0,0,0,0,0,
0,1932,0,0,0,0,0,0,0,0,0,0,0,0,0,0,
0,1962,0,0,0,0,0,0,0,0,0,0,0,0,0,0,
0,0,0,0,0,0,0,0,0,0,0,0,0,0,0,0,
0,0,0,0,0,0,0,0,0,0,0,0,0,0,0,0,
0,0,0,0,0,0,0,0,0,0,0,0,0,0,0,0
</data>
 </layer>
 <layer id="4" name="Paths" width="16" height="13" visible="0">
  <data encoding="csv">
0,0,0,0,0,0,0,0,0,0,0,0,0,0,0,0,
0,0,0,0,0,0,0,0,0,0,0,0,0,0,0,0,
0,0,0,0,0,0,0,0,0,0,0,0,0,0,0,0,
0,0,0,0,0,0,0,0,0,0,0,0,0,0,0,0,
0,0,0,0,0,0,0,0,0,0,0,0,0,0,0,0,
0,0,0,2791,0,0,0,2791,0,0,2791,0,0,0,0,0,
0,0,0,0,0,0,0,0,0,0,0,0,0,0,0,0,
0,0,0,0,0,0,0,0,0,0,0,0,0,0,0,0,
0,0,0,0,0,0,0,0,0,0,0,0,0,0,0,0,
0,0,0,0,2791,0,0,0,0,2791,0,0,0,0,0,0,
0,0,0,0,0,0,0,0,0,0,0,0,0,0,0,0,
0,0,0,0,0,0,0,0,0,0,0,0,0,0,0,0,
0,0,0,0,0,0,0,0,0,0,0,0,0,0,0,0
</data>
 </layer>
 <objectgroup id="5" name="Back"/>
 <objectgroup id="6" name="Buildings">
  <object id="24" name="TileData" x="224" y="128" width="16" height="16">
   <properties>
    <property name="Action" value="Warp 2 7 PeacefulEnd.Campgrounds.ContentPatcher_CindersapParkGarage"/>
   </properties>
  </object>
  <object id="28" name="TileData" x="240" y="128" width="16" height="16">
   <properties>
    <property name="Action" value="Warp 2 7 PeacefulEnd.Campgrounds.ContentPatcher_CindersapParkGarage"/>
   </properties>
  </object>
  <object id="29" name="TileData" x="80" y="112" width="16" height="16">
   <properties>
    <property name="Action" value="PeacefulEnd.Campgrounds_CampShop"/>
   </properties>
  </object>
  <object id="30" name="TileData" x="96" y="112" width="16" height="16">
   <properties>
    <property name="Action" value="PeacefulEnd.Campgrounds_CampShop"/>
   </properties>
  </object>
 </objectgroup>
 <objectgroup id="7" name="Front"/>
 <objectgroup id="8" name="Paths"/>
</map>
