<?xml version="1.0" encoding="UTF-8"?>
<map version="1.10" tiledversion="1.10.2" orientation="orthogonal" renderorder="right-down" compressionlevel="0" width="11" height="12" tilewidth="16" tileheight="16" infinite="0" nextlayerid="14" nextobjectid="28">
 <properties>
  <property name="Warp" value="3 11 PeacefulEnd.Campgrounds.ContentPatcher_CindersapPark 42 28 4 11 PeacefulEnd.Campgrounds.ContentPatcher_CindersapPark 42 28 5 11 PeacefulEnd.Campgrounds.ContentPatcher_CindersapPark 42 28 6 11 PeacefulEnd.Campgrounds.ContentPatcher_CindersapPark 42 28 7 11 PeacefulEnd.Campgrounds.ContentPatcher_CindersapPark 42 28 8 11 PeacefulEnd.Campgrounds.ContentPatcher_CindersapPark 42 28"/>
 </properties>
 <tileset firstgid="1" name="1" tilewidth="16" tileheight="16" tilecount="2176" columns="32">
  <image source="townInterior" width="512" height="1088"/>
 </tileset>
 <tileset firstgid="2177" name="2" tilewidth="16" tileheight="16" tilecount="128" columns="32">
  <image source="townInterior_2" width="512" height="64"/>
 </tileset>
 <tileset firstgid="2305" name="p" tilewidth="16" tileheight="16" tilecount="64" columns="4">
  <image source="paths" width="64" height="256"/>
 </tileset>
 <tileset firstgid="2369" name="Wall and Floors" tilewidth="16" tileheight="16" tilecount="624" columns="16">
  <image source="walls_and_floors.png" width="256" height="624"/>
 </tileset>
 <tileset firstgid="2993" name="Cindersap Interior" tilewidth="16" tileheight="16" tilecount="414" columns="23">
  <image source="zcindersap_interior.png" width="368" height="288"/>
 </tileset>
 <layer id="1" name="Back" width="11" height="12">
  <data encoding="csv">
0,1,1,1,1,1,1,1,1,1,1,
0,1,872,872,872,872,872,872,872,872,1,
0,1,872,872,872,872,872,872,872,872,1,
0,1,872,872,872,872,872,872,872,872,1,
0,150,2741,2741,2758,2741,2757,2742,2741,2741,1,
0,150,2757,2757,2741,2757,2741,2742,2757,2742,1,
0,0,2741,2758,2758,2757,2741,2758,2757,2742,1,
0,201,2741,2741,2757,2757,2758,2741,2757,2757,1,
0,1,2742,2741,2741,2758,2741,2742,2742,2758,1,
0,1,2742,2757,2742,2758,2741,2742,2742,2741,1,
0,1,2741,2757,2741,2758,2758,2742,2741,2758,1,
0,1,2829,2830,2829,2830,2829,2830,2829,2830,1
</data>
 </layer>
 <layer id="10" name="Back1" width="11" height="12">
  <data encoding="csv">
0,0,0,0,0,0,0,0,0,0,0,
0,0,34,35,35,35,35,35,35,36,0,
0,0,66,67,67,67,67,67,67,68,0,
0,0,98,99,107,107,107,107,107,100,0,
0,35,130,0,0,0,0,0,3231,132,0,
0,67,0,0,0,0,0,0,0,0,0,
0,0,0,0,0,0,0,0,0,0,0,
0,0,0,0,0,0,0,0,0,0,0,
0,0,0,0,0,0,0,0,0,0,0,
0,0,0,0,0,0,0,0,0,0,0,
0,0,0,0,0,0,0,0,0,0,0,
0,0,0,0,0,0,0,0,0,0,0
</data>
 </layer>
 <layer id="2" name="Buildings" width="11" height="12">
  <data encoding="csv">
1,1,1,1,1,1,1,1,1,1,1,
1,1,1430,1427,1427,1427,1427,1427,1427,1429,1,
1,1,74,75,75,75,75,75,75,76,1,
1,1,106,107,3054,3055,3056,3057,3208,108,1,
1,56,138,3164,3077,3078,3079,3080,0,140,1,
1,88,3006,0,3100,3101,3102,3103,0,2148,1,
1,120,0,0,3123,3124,3125,3126,0,2147485796,1,
1,0,0,0,3146,3147,3148,3149,0,0,1,
1,1,0,0,3169,3170,3171,3172,0,739,1,
1,1,0,0,3192,3193,3194,3195,0,0,1,
1,1,0,0,0,0,0,0,0,0,1,
1,1,1,0,0,0,0,0,0,1,1
</data>
 </layer>
 <layer id="12" name="Front-1" width="11" height="12">
  <data encoding="csv">
0,0,0,0,0,0,0,0,0,0,0,
0,0,0,0,0,0,0,0,0,0,0,
0,0,0,0,0,0,0,309,3185,0,0,
0,0,0,3141,0,0,0,0,0,0,0,
0,0,0,0,0,0,0,0,0,2116,0,
0,2147486641,0,0,0,0,0,0,0,2147485764,0,
0,2147486664,0,0,0,0,0,0,0,0,0,
0,2147486687,0,0,0,0,0,0,0,0,0,
0,0,0,0,0,0,0,0,0,0,0,
0,0,0,0,0,0,0,0,0,0,0,
0,0,0,0,0,0,0,0,0,0,0,
0,0,0,0,0,0,0,0,0,0,0
</data>
 </layer>
 <layer id="3" name="Front" width="11" height="12">
  <data encoding="csv">
0,1,2,3,2122,3,3,2122,3,4,1,
0,33,42,0,0,1098,1099,0,0,44,37,
0,2153,0,1844,1845,1844,1845,0,0,0,69,
10,195,0,0,0,0,0,0,0,0,2154,
65,0,0,0,0,0,0,0,0,0,69,
65,216,0,0,0,0,0,0,0,0,69,
65,0,0,0,0,0,0,0,0,0,69,
2147483779,163,0,0,0,0,0,0,0,707,69,
0,65,0,0,0,0,0,0,813,0,2154,
0,65,0,0,0,0,0,0,0,0,69,
0,161,162,166,2121,166,166,2121,166,167,168,
0,0,0,0,0,0,0,0,0,0,0
</data>
 </layer>
 <layer id="4" name="Paths" width="11" height="12">
  <data encoding="csv">
0,0,0,0,0,0,0,0,0,0,0,
0,0,0,0,0,0,0,0,0,0,0,
0,0,0,0,0,0,0,0,0,0,0,
0,0,0,0,0,0,0,0,0,0,0,
0,0,0,0,0,0,0,0,0,0,0,
0,0,0,0,0,0,0,0,0,0,0,
0,0,0,0,0,0,0,0,0,0,0,
0,0,0,2313,0,0,0,0,2313,0,0,
0,0,0,0,0,0,0,0,0,0,0,
0,0,0,0,0,0,0,0,0,0,0,
0,0,0,0,0,0,0,0,0,0,0,
0,0,0,0,0,0,0,0,0,0,0
</data>
 </layer>
 <layer id="13" name="AlwaysFront" width="11" height="12">
  <data encoding="csv">
0,0,0,0,0,0,0,0,0,0,0,
0,0,0,0,0,0,0,0,0,0,0,
0,0,0,0,0,0,0,0,0,0,0,
0,0,0,0,0,0,0,0,0,0,0,
0,0,0,0,0,0,0,0,0,0,0,
0,0,0,3184,0,0,0,0,3184,0,0,
0,0,0,3207,0,0,0,0,3207,0,0,
0,0,0,0,0,0,0,0,0,0,0,
0,0,0,0,0,0,0,0,0,0,0,
0,0,0,0,0,0,0,0,0,0,0,
0,0,0,0,0,0,0,0,0,0,0,
0,0,0,1,1,1,1,1,1,0,0
</data>
 </layer>
 <objectgroup id="5" name="Back"/>
 <objectgroup id="6" name="Buildings">
  <object id="22" name="TileData" x="16" y="112" width="16" height="16">
   <properties>
    <property name="Action" value="Warp 13 8 PeacefulEnd.Campgrounds.ContentPatcher_CindersapParkShop"/>
   </properties>
  </object>
  <object id="25" name="TileData" x="0" y="112" width="16" height="16">
   <properties>
    <property name="Action" value="Warp 13 8 PeacefulEnd.Campgrounds.ContentPatcher_CindersapParkShop"/>
   </properties>
  </object>
  <object id="27" name="TileData" x="48" y="64" width="16" height="16">
   <properties>
    <property name="Action" value="PeacefulEnd.Campgrounds_CarRepair"/>
   </properties>
  </object>
 </objectgroup>
 <objectgroup id="7" name="Front"/>
 <objectgroup id="8" name="Paths"/>
</map>
